(VECTRIC POST REV.)
(82074C4DCA892683619619E26FA56BD3)
T1M6
G17
G0Z20.320
G0X0.000Y0.000S18000M3
G0X74.946Y57.922
G0Z5.080
G1Z-0.750F304.8
G1X75.210F1016.0
Y58.156
Y58.390
X80.039Y58.602
X84.868Y58.813
X85.066Y58.764
X85.264Y58.715
Y58.971
Y59.226
X86.587Y59.402
X87.910Y59.577
Y59.808
Y60.038
X88.506Y60.047
X89.101Y60.056
X90.159Y60.568
X91.218Y61.079
X91.665Y61.088
X92.112Y61.097
X92.276Y61.361
X92.439Y61.626
X92.887Y61.628
X93.334Y61.630
X94.011Y61.983
X94.688Y62.337
X95.809Y62.516
X96.929Y62.695
X97.381Y62.923
X97.832Y63.151
X99.949Y64.147
X102.065Y65.144
X103.521Y66.221
X104.976Y67.299
X106.696Y69.054
X108.415Y70.809
X109.275Y71.833
X110.135Y72.857
Y73.063
Y73.268
X110.598Y73.770
X111.061Y74.271
X111.652Y74.977
X112.242Y75.683
X112.629Y76.394
X113.015Y77.105
X114.353Y79.921
X115.691Y82.738
Y83.147
Y83.556
X115.956Y83.719
X116.221Y83.883
X116.223Y84.595
X116.225Y85.307
X116.622Y86.068
X117.018Y86.829
X117.185Y88.251
X117.353Y89.673
X117.542
X117.732
X117.886Y91.511
X118.040Y93.350
X118.307Y93.847
X118.573Y94.344
X118.679Y102.449
X118.785Y110.553
X119.056Y110.895
X119.327Y111.236
X119.469Y113.353
X119.612Y115.469
X120.032Y116.263
X120.451Y117.057
X120.453Y117.504
X120.455Y117.952
X120.685Y118.094
X120.915Y118.236
X121.080Y119.265
X121.244Y120.294
X121.642Y121.057
X122.040Y121.819
X122.042Y122.282
X122.044Y122.745
X122.308
X122.573
Y123.080
Y123.415
X123.168Y124.504
X123.764Y125.592
X124.425Y126.433
X125.086Y127.273
X125.549Y127.828
X126.012Y128.383
Y128.569
Y128.755
X127.365Y130.107
X128.717Y131.460
X129.217Y131.618
X129.717Y131.777
Y132.024
Y132.270
X130.100
X130.484
X130.696Y132.621
X130.907Y132.972
X131.304Y133.153
X131.701Y133.335
X132.495Y133.858
X133.289Y134.381
X133.553Y134.488
X133.818Y134.596
X134.744Y134.884
X135.670Y135.172
X132.653Y135.060
X129.636Y134.949
X129.478Y134.695
X129.320Y134.441
X127.798Y134.251
X126.277Y134.062
Y133.862
Y133.663
X125.158Y133.513
X124.039Y133.363
X123.946Y133.081
X123.852Y132.800
X123.318
X122.785
X121.819Y132.381
X120.853Y131.963
X119.600Y131.389
X118.348Y130.815
X118.344Y130.617
X118.340Y130.418
X118.039
X117.737
X116.621Y129.426
X115.505Y128.434
X114.380Y127.442
X113.254Y126.450
X113.085Y126.447
X112.916Y126.444
X111.834Y125.455
X110.753Y124.466
X109.630Y123.474
X108.507Y122.481
X108.330Y122.478
X108.153Y122.475
X107.066Y121.466
X105.979Y120.456
X105.016Y119.025
X104.052Y117.594
Y117.387
Y117.180
X103.333Y116.061
X102.615Y114.941
X101.998Y113.883
X101.381Y112.825
X101.071Y112.097
X100.761Y111.370
X100.576
X100.390
X100.206Y110.510
X100.022Y109.650
X99.825Y109.385
X99.627Y109.121
X99.441Y108.327
X99.255Y107.533
X98.597Y106.131
X97.939Y104.728
X97.793Y103.353
X97.647Y101.977
X96.840Y99.463
X96.032Y96.950
X95.677Y96.116
X95.321Y95.282
Y94.992
Y94.701
X95.056
X94.792
X94.783Y94.238
X94.774Y93.775
X94.263Y92.716
X93.751Y91.658
X93.742Y91.195
X93.733Y90.732
X93.469
X93.204
Y90.397
Y90.063
X92.675Y89.075
X92.146Y88.088
Y87.811
Y87.535
X91.815Y87.130
X91.484Y86.725
X91.088Y86.275
X90.691Y85.824
X90.162Y84.780
X89.632Y83.735
X89.368Y83.388
X89.103Y83.041
X88.822Y82.719
X88.542Y82.398
X87.897Y81.075
X87.252Y79.752
X86.921Y79.540
X86.590Y79.329
Y78.945
Y78.561
X86.343
X86.096
X85.943Y78.098
X85.791Y77.635
X85.066Y76.802
X84.341Y75.969
X83.944Y75.356
X83.547Y74.742
X81.816Y72.989
X80.084Y71.236
X78.244Y70.022
X76.403Y68.807
X75.874Y68.317
X75.345Y67.828
X74.212Y67.241
X73.080Y66.655
X72.691
X72.302
Y66.447
Y66.240
X70.781Y65.913
X69.259Y65.586
X67.672Y65.322
X66.084Y65.058
X65.996Y64.798
X65.908Y64.538
X64.806Y64.527
X63.703Y64.515
X62.645Y64.134
X61.587Y63.753
X59.470Y63.726
X57.353Y63.699
X58.075Y63.482
X58.798Y63.264
X59.219Y62.843
X59.640Y62.422
X60.018
X60.396
Y62.178
Y61.935
X61.255Y61.746
X62.114Y61.557
X63.041Y61.159
X63.968Y60.761
X64.497Y60.548
X65.026Y60.336
X65.943Y60.155
X66.861Y59.973
X67.266Y59.761
X67.672Y59.550
X69.127Y59.105
X70.582Y58.661
X72.633Y58.519
X74.683Y58.377
Y58.151
Y57.924
X74.946Y57.922
G1Z-1.500F304.8
G1X75.210F1016.0
Y58.156
Y58.390
X80.039Y58.602
X84.868Y58.813
X85.066Y58.764
X85.264Y58.715
Y58.971
Y59.226
X86.587Y59.402
X87.910Y59.577
Y59.808
Y60.038
X88.506Y60.047
X89.101Y60.056
X90.159Y60.568
X91.218Y61.079
X91.665Y61.088
X92.112Y61.097
X92.276Y61.361
X92.439Y61.626
X92.887Y61.628
X93.334Y61.630
X94.011Y61.983
X94.688Y62.337
X95.809Y62.516
X96.929Y62.695
X97.381Y62.923
X97.832Y63.151
X99.949Y64.147
X102.065Y65.144
X103.521Y66.221
X104.976Y67.299
X106.696Y69.054
X108.415Y70.809
X109.275Y71.833
X110.135Y72.857
Y73.063
Y73.268
X110.598Y73.770
X111.061Y74.271
X111.652Y74.977
X112.242Y75.683
X112.629Y76.394
X113.015Y77.105
X114.353Y79.921
X115.691Y82.738
Y83.147
Y83.556
X115.956Y83.719
X116.221Y83.883
X116.223Y84.595
X116.225Y85.307
X116.622Y86.068
X117.018Y86.829
X117.185Y88.251
X117.353Y89.673
X117.542
X117.732
X117.886Y91.511
X118.040Y93.350
X118.307Y93.847
X118.573Y94.344
X118.679Y102.449
X118.785Y110.553
X119.056Y110.895
X119.327Y111.236
X119.469Y113.353
X119.612Y115.469
X120.032Y116.263
X120.451Y117.057
X120.453Y117.504
X120.455Y117.952
X120.685Y118.094
X120.915Y118.236
X121.080Y119.265
X121.244Y120.294
X121.642Y121.057
X122.040Y121.819
X122.042Y122.282
X122.044Y122.745
X122.308
X122.573
Y123.080
Y123.415
X123.168Y124.504
X123.764Y125.592
X124.425Y126.433
X125.086Y127.273
X125.549Y127.828
X126.012Y128.383
Y128.569
Y128.755
X127.365Y130.107
X128.717Y131.460
X129.217Y131.618
X129.717Y131.777
Y132.024
Y132.270
X130.100
X130.484
X130.696Y132.621
X130.907Y132.972
X131.304Y133.153
X131.701Y133.335
X132.495Y133.858
X133.289Y134.381
X133.553Y134.488
X133.818Y134.596
X134.744Y134.884
X135.670Y135.172
X132.653Y135.060
X129.636Y134.949
X129.478Y134.695
X129.320Y134.441
X127.798Y134.251
X126.277Y134.062
Y133.862
Y133.663
X125.158Y133.513
X124.039Y133.363
X123.946Y133.081
X123.852Y132.800
X123.318
X122.785
X121.819Y132.381
X120.853Y131.963
X119.600Y131.389
X118.348Y130.815
X118.344Y130.617
X118.340Y130.418
X118.039
X117.737
X116.621Y129.426
X115.505Y128.434
X114.380Y127.442
X113.254Y126.450
X113.085Y126.447
X112.916Y126.444
X111.834Y125.455
X110.753Y124.466
X109.630Y123.474
X108.507Y122.481
X108.330Y122.478
X108.153Y122.475
X107.066Y121.466
X105.979Y120.456
X105.016Y119.025
X104.052Y117.594
Y117.387
Y117.180
X103.333Y116.061
X102.615Y114.941
X101.998Y113.883
X101.381Y112.825
X101.071Y112.097
X100.761Y111.370
X100.576
X100.390
X100.206Y110.510
X100.022Y109.650
X99.825Y109.385
X99.627Y109.121
X99.441Y108.327
X99.255Y107.533
X98.597Y106.131
X97.939Y104.728
X97.793Y103.353
X97.647Y101.977
X96.840Y99.463
X96.032Y96.950
X95.677Y96.116
X95.321Y95.282
Y94.992
Y94.701
X95.056
X94.792
X94.783Y94.238
X94.774Y93.775
X94.263Y92.716
X93.751Y91.658
X93.742Y91.195
X93.733Y90.732
X93.469
X93.204
Y90.397
Y90.063
X92.675Y89.075
X92.146Y88.088
Y87.811
Y87.535
X91.815Y87.130
X91.484Y86.725
X91.088Y86.275
X90.691Y85.824
X90.162Y84.780
X89.632Y83.735
X89.368Y83.388
X89.103Y83.041
X88.822Y82.719
X88.542Y82.398
X87.897Y81.075
X87.252Y79.752
X86.921Y79.540
X86.590Y79.329
Y78.945
Y78.561
X86.343
X86.096
X85.943Y78.098
X85.791Y77.635
X85.066Y76.802
X84.341Y75.969
X83.944Y75.356
X83.547Y74.742
X81.816Y72.989
X80.084Y71.236
X78.244Y70.022
X76.403Y68.807
X75.874Y68.317
X75.345Y67.828
X74.212Y67.241
X73.080Y66.655
X72.691
X72.302
Y66.447
Y66.240
X70.781Y65.913
X69.259Y65.586
X67.672Y65.322
X66.084Y65.058
X65.996Y64.798
X65.908Y64.538
X64.806Y64.527
X63.703Y64.515
X62.645Y64.134
X61.587Y63.753
X59.470Y63.726
X57.353Y63.699
X58.075Y63.482
X58.798Y63.264
X59.219Y62.843
X59.640Y62.422
X60.018
X60.396
Y62.178
Y61.935
X61.255Y61.746
X62.114Y61.557
X63.041Y61.159
X63.968Y60.761
X64.497Y60.548
X65.026Y60.336
X65.943Y60.155
X66.861Y59.973
X67.266Y59.761
X67.672Y59.550
X69.127Y59.105
X70.582Y58.661
X72.633Y58.519
X74.683Y58.377
Y58.151
Y57.924
X74.946Y57.922
G0Z5.080
G0X72.375Y69.843
G1Z-0.750F304.8
G1X74.171Y69.828F1016.0
X74.889Y70.287
X75.607Y70.747
X75.929Y71.015
X76.250Y71.283
X76.645Y71.614
X77.040Y71.944
X77.283
X77.526
X79.940Y74.379
X82.354Y76.814
Y77.036
Y77.258
X82.878Y77.820
X83.401Y78.382
X84.134Y79.463
X84.868Y80.543
X85.066Y80.632
X85.264Y80.720
Y80.982
Y81.245
X86.389Y83.096
X87.513Y84.948
X88.148Y86.053
X88.783Y87.158
X88.956Y87.290
X89.129Y87.423
X89.710Y88.380
X90.291Y89.337
Y89.769
Y90.201
X90.524
X90.756
X91.039Y91.193
X91.323Y92.185
X91.666Y93.177
X92.008Y94.169
X92.208
X92.408
X92.410Y94.500
X92.411Y94.831
X92.790Y95.557
X93.168Y96.282
X93.745Y98.070
X94.322Y99.858
X94.688Y100.692
X95.054Y101.525
Y103.007
Y104.488
X95.298
X95.541
X95.723Y105.318
X95.905Y106.147
X96.567Y107.465
X97.229Y108.783
X97.376Y109.877
X97.522Y110.970
X98.272Y112.190
X99.023Y113.410
Y113.712
Y114.013
X99.242
X99.461
X100.081Y115.336
X100.701Y116.659
X100.873
X101.046
X101.622Y117.812
X102.198Y118.966
Y119.268
Y119.569
X102.462
X102.727
Y119.930
Y120.291
X104.645Y122.051
X106.563Y123.810
X107.302Y124.468
X108.040Y125.126
X108.162
X108.283
X108.758Y125.589
X109.233Y126.052
X110.635Y127.242
X112.037Y128.433
X112.872Y129.156
X113.707Y129.880
X113.868Y129.884
X114.030Y129.888
X114.983Y130.748
X115.936Y131.607
X116.277Y131.885
X116.617Y132.163
X117.014Y132.351
X117.411Y132.538
X118.316Y133.085
X119.221Y133.631
X121.359Y134.316
X123.497Y135.000
X123.629Y135.190
X123.761Y135.379
X124.952Y135.574
X126.142Y135.768
X126.445Y136.012
X126.748Y136.256
X128.165Y136.420
X129.582Y136.583
X129.771Y136.873
X129.959Y137.164
X137.674Y137.209
X145.390Y137.255
X145.621Y137.486
X145.852Y137.718
X144.490Y138.757
X143.128Y139.796
X142.785Y140.138
X142.443Y140.480
X141.236Y141.401
X140.029Y142.323
X139.788
X139.548
X139.460Y142.522
X139.372Y142.720
X138.522Y143.315
X137.673Y143.911
X137.149
X136.625
X136.474Y144.155
X136.323Y144.399
X135.532Y144.573
X134.741Y144.746
Y144.974
Y145.201
X133.551Y145.380
X132.360Y145.558
Y145.793
Y146.027
X131.765Y146.029
X131.170Y146.031
X130.407Y146.429
X129.644Y146.827
X128.621Y146.990
X127.598Y147.154
Y147.357
Y147.560
X125.481Y147.748
X123.364Y147.935
Y148.172
Y148.409
X118.485
X113.606
X113.466Y148.182
X113.326Y147.956
X111.967Y147.795
X110.608Y147.634
X110.306Y147.395
X110.003Y147.155
X109.011Y146.977
X108.019Y146.798
Y146.575
Y146.351
X107.060Y146.172
X106.101Y145.992
X105.671Y145.761
X105.240Y145.531
X103.124Y144.551
X101.007Y143.572
X100.875Y143.402
X100.742Y143.232
X99.353Y142.583
X97.964Y141.934
Y141.765
Y141.596
X97.237Y141.448
X96.509Y141.299
X95.362Y140.224
X94.216Y139.149
X93.973
X93.731
Y138.884
Y138.620
X93.268Y138.136
X92.805Y137.652
X92.276Y137.011
X91.747Y136.370
X91.314Y135.709
X90.882Y135.048
X90.318Y134.407
X89.754Y133.767
X88.713Y131.596
X87.672Y129.426
X87.502Y128.665
X87.331Y127.904
X86.946Y126.978
X86.562Y126.052
X86.328Y125.622
X86.094Y125.191
X85.907Y124.191
X85.719Y123.191
X85.361Y122.505
X85.003Y121.819
X85.001Y121.107
X85.000Y120.395
X84.761Y120.247
X84.523Y120.100
X84.338Y118.512
X84.154Y116.924
X83.950
X83.745
X83.567Y115.344
X83.388Y113.765
X83.136Y113.609
X82.883Y113.453
X82.882Y112.873
X82.880Y112.294
X82.522Y111.608
X82.164Y110.921
X81.982Y109.954
X81.801Y108.986
X81.569
X81.338
X81.173Y108.236
X81.008Y107.486
X80.292Y106.611
X79.576Y105.735
X78.370Y104.516
X77.165Y103.298
X76.552Y102.901
X75.939Y102.504
X75.635Y102.215
X75.331Y101.925
X73.881Y101.421
X72.432Y100.917
X67.405
X62.378
X61.584Y101.440
X60.791Y101.963
X60.658Y102.124
X60.526Y102.285
X60.088Y102.527
X59.649Y102.769
X58.681Y104.210
X57.714Y105.650
X57.565Y106.392
X57.417Y107.134
X57.186
X56.954
Y109.705
Y112.276
X57.397Y113.475
X57.839Y114.675
X58.582Y115.805
X59.325Y116.935
X59.661Y117.348
X59.997Y117.760
X60.876Y118.662
X61.755Y119.563
X62.671Y119.998
X63.588Y120.433
X63.454Y120.566
X63.321Y120.699
X62.585Y120.421
X61.849Y120.142
X60.243Y119.997
X58.637Y119.852
X57.862Y119.448
X57.086Y119.044
X56.778Y119.042
X56.469Y119.040
X56.381Y118.841
X56.293Y118.643
X55.234Y118.119
X54.176Y117.595
X53.382Y117.061
X52.588Y116.526
X52.042Y115.997
X51.496Y115.468
X51.002Y115.186
X50.507Y114.903
X50.225Y114.392
X49.943Y113.880
X49.787Y113.748
X49.632Y113.616
X48.695Y111.764
X47.758Y109.912
X47.329Y108.946
X46.900Y107.980
Y106.498
Y105.017
X46.624
X46.348
X46.459Y100.320
X46.571Y95.624
X46.883Y93.375
X47.196Y91.126
X47.445Y90.875
X47.694Y90.624
X47.703Y90.213
X47.712Y89.803
X48.223Y88.745
X48.734Y87.687
X48.743Y87.356
X48.752Y87.025
X48.996
X49.239
X49.414Y86.231
X49.588Y85.438
X49.810
X50.033
X50.207Y84.644
X50.382Y83.850
X50.625
X50.869
Y83.494
Y83.137
X51.393Y82.502
X51.917Y81.866
X52.187Y81.546
X52.456Y81.227
X52.458Y81.017
X52.460Y80.807
X54.244Y79.088
X56.028Y77.368
X56.903Y76.706
X57.777Y76.045
X58.332Y75.582
X58.887Y75.119
X59.244
X59.600
Y74.875
Y74.632
X60.394Y74.457
X61.188Y74.283
Y74.061
Y73.838
X61.981Y73.664
X62.775Y73.489
Y73.275
Y73.060
X63.500Y72.878
X64.225Y72.696
X64.388Y72.432
X64.551Y72.168
X65.647Y72.021
X66.744Y71.874
Y71.645
Y71.415
X67.046
X67.347
X68.567Y70.854
X69.787Y70.294
X70.183Y70.076
X70.580Y69.858
X72.375Y69.843
G1Z-1.500F304.8
G1X74.171Y69.828F1016.0
X74.889Y70.287
X75.607Y70.747
X75.929Y71.015
X76.250Y71.283
X76.645Y71.614
X77.040Y71.944
X77.283
X77.526
X79.940Y74.379
X82.354Y76.814
Y77.036
Y77.258
X82.878Y77.820
X83.401Y78.382
X84.134Y79.463
X84.868Y80.543
X85.066Y80.632
X85.264Y80.720
Y80.982
Y81.245
X86.389Y83.096
X87.513Y84.948
X88.148Y86.053
X88.783Y87.158
X88.956Y87.290
X89.129Y87.423
X89.710Y88.380
X90.291Y89.337
Y89.769
Y90.201
X90.524
X90.756
X91.039Y91.193
X91.323Y92.185
X91.666Y93.177
X92.008Y94.169
X92.208
X92.408
X92.410Y94.500
X92.411Y94.831
X92.790Y95.557
X93.168Y96.282
X93.745Y98.070
X94.322Y99.858
X94.688Y100.692
X95.054Y101.525
Y103.007
Y104.488
X95.298
X95.541
X95.723Y105.318
X95.905Y106.147
X96.567Y107.465
X97.229Y108.783
X97.376Y109.877
X97.522Y110.970
X98.272Y112.190
X99.023Y113.410
Y113.712
Y114.013
X99.242
X99.461
X100.081Y115.336
X100.701Y116.659
X100.873
X101.046
X101.622Y117.812
X102.198Y118.966
Y119.268
Y119.569
X102.462
X102.727
Y119.930
Y120.291
X104.645Y122.051
X106.563Y123.810
X107.302Y124.468
X108.040Y125.126
X108.162
X108.283
X108.758Y125.589
X109.233Y126.052
X110.635Y127.242
X112.037Y128.433
X112.872Y129.156
X113.707Y129.880
X113.868Y129.884
X114.030Y129.888
X114.983Y130.748
X115.936Y131.607
X116.277Y131.885
X116.617Y132.163
X117.014Y132.351
X117.411Y132.538
X118.316Y133.085
X119.221Y133.631
X121.359Y134.316
X123.497Y135.000
X123.629Y135.190
X123.761Y135.379
X124.952Y135.574
X126.142Y135.768
X126.445Y136.012
X126.748Y136.256
X128.165Y136.420
X129.582Y136.583
X129.771Y136.873
X129.959Y137.164
X137.674Y137.209
X145.390Y137.255
X145.621Y137.486
X145.852Y137.718
X144.490Y138.757
X143.128Y139.796
X142.785Y140.138
X142.443Y140.480
X141.236Y141.401
X140.029Y142.323
X139.788
X139.548
X139.460Y142.522
X139.372Y142.720
X138.522Y143.315
X137.673Y143.911
X137.149
X136.625
X136.474Y144.155
X136.323Y144.399
X135.532Y144.573
X134.741Y144.746
Y144.974
Y145.201
X133.551Y145.380
X132.360Y145.558
Y145.793
Y146.027
X131.765Y146.029
X131.170Y146.031
X130.407Y146.429
X129.644Y146.827
X128.621Y146.990
X127.598Y147.154
Y147.357
Y147.560
X125.481Y147.748
X123.364Y147.935
Y148.172
Y148.409
X118.485
X113.606
X113.466Y148.182
X113.326Y147.956
X111.967Y147.795
X110.608Y147.634
X110.306Y147.395
X110.003Y147.155
X109.011Y146.977
X108.019Y146.798
Y146.575
Y146.351
X107.060Y146.172
X106.101Y145.992
X105.671Y145.761
X105.240Y145.531
X103.124Y144.551
X101.007Y143.572
X100.875Y143.402
X100.742Y143.232
X99.353Y142.583
X97.964Y141.934
Y141.765
Y141.596
X97.237Y141.448
X96.509Y141.299
X95.362Y140.224
X94.216Y139.149
X93.973
X93.731
Y138.884
Y138.620
X93.268Y138.136
X92.805Y137.652
X92.276Y137.011
X91.747Y136.370
X91.314Y135.709
X90.882Y135.048
X90.318Y134.407
X89.754Y133.767
X88.713Y131.596
X87.672Y129.426
X87.502Y128.665
X87.331Y127.904
X86.946Y126.978
X86.562Y126.052
X86.328Y125.622
X86.094Y125.191
X85.907Y124.191
X85.719Y123.191
X85.361Y122.505
X85.003Y121.819
X85.001Y121.107
X85.000Y120.395
X84.761Y120.247
X84.523Y120.100
X84.338Y118.512
X84.154Y116.924
X83.950
X83.745
X83.567Y115.344
X83.388Y113.765
X83.136Y113.609
X82.883Y113.453
X82.882Y112.873
X82.880Y112.294
X82.522Y111.608
X82.164Y110.921
X81.982Y109.954
X81.801Y108.986
X81.569
X81.338
X81.173Y108.236
X81.008Y107.486
X80.292Y106.611
X79.576Y105.735
X78.370Y104.516
X77.165Y103.298
X76.552Y102.901
X75.939Y102.504
X75.635Y102.215
X75.331Y101.925
X73.881Y101.421
X72.432Y100.917
X67.405
X62.378
X61.584Y101.440
X60.791Y101.963
X60.658Y102.124
X60.526Y102.285
X60.088Y102.527
X59.649Y102.769
X58.681Y104.210
X57.714Y105.650
X57.565Y106.392
X57.417Y107.134
X57.186
X56.954
Y109.705
Y112.276
X57.397Y113.475
X57.839Y114.675
X58.582Y115.805
X59.325Y116.935
X59.661Y117.348
X59.997Y117.760
X60.876Y118.662
X61.755Y119.563
X62.671Y119.998
X63.588Y120.433
X63.454Y120.566
X63.321Y120.699
X62.585Y120.421
X61.849Y120.142
X60.243Y119.997
X58.637Y119.852
X57.862Y119.448
X57.086Y119.044
X56.778Y119.042
X56.469Y119.040
X56.381Y118.841
X56.293Y118.643
X55.234Y118.119
X54.176Y117.595
X53.382Y117.061
X52.588Y116.526
X52.042Y115.997
X51.496Y115.468
X51.002Y115.186
X50.507Y114.903
X50.225Y114.392
X49.943Y113.880
X49.787Y113.748
X49.632Y113.616
X48.695Y111.764
X47.758Y109.912
X47.329Y108.946
X46.900Y107.980
Y106.498
Y105.017
X46.624
X46.348
X46.459Y100.320
X46.571Y95.624
X46.883Y93.375
X47.196Y91.126
X47.445Y90.875
X47.694Y90.624
X47.703Y90.213
X47.712Y89.803
X48.223Y88.745
X48.734Y87.687
X48.743Y87.356
X48.752Y87.025
X48.996
X49.239
X49.414Y86.231
X49.588Y85.438
X49.810
X50.033
X50.207Y84.644
X50.382Y83.850
X50.625
X50.869
Y83.494
Y83.137
X51.393Y82.502
X51.917Y81.866
X52.187Y81.546
X52.456Y81.227
X52.458Y81.017
X52.460Y80.807
X54.244Y79.088
X56.028Y77.368
X56.903Y76.706
X57.777Y76.045
X58.332Y75.582
X58.887Y75.119
X59.244
X59.600
Y74.875
Y74.632
X60.394Y74.457
X61.188Y74.283
Y74.061
Y73.838
X61.981Y73.664
X62.775Y73.489
Y73.275
Y73.060
X63.500Y72.878
X64.225Y72.696
X64.388Y72.432
X64.551Y72.168
X65.647Y72.021
X66.744Y71.874
Y71.645
Y71.415
X67.046
X67.347
X68.567Y70.854
X69.787Y70.294
X70.183Y70.076
X70.580Y69.858
X72.375Y69.843
G0Z5.080
G0X110.530Y69.828
G1Z-0.750F304.8
G1X111.579Y70.754F1016.0
X111.717Y70.895
X111.855Y71.037
X112.649Y71.630
X113.443Y72.224
X114.352Y72.944
X115.262Y73.664
X116.072Y74.555
X116.882Y75.446
X117.871Y76.540
X118.860Y77.633
X118.863Y77.935
X118.866Y78.238
X119.263Y78.390
X119.660Y78.542
Y78.948
Y79.353
X119.906
X120.153
X120.336Y79.928
X120.518Y80.503
X120.755Y80.788
X120.992Y81.073
X121.517Y81.708
X122.041Y82.344
Y82.701
Y83.057
X122.305
X122.570
Y83.352
Y83.647
X123.761Y85.438
X124.952Y87.230
X127.002Y89.373
X129.052Y91.516
X130.243Y92.845
X131.434Y94.174
X132.492Y94.899
X133.550Y95.625
X134.079Y95.769
X134.609Y95.912
X134.682Y100.115
X134.755Y104.318
X134.988Y104.602
X135.221Y104.885
X135.408Y106.145
X135.596Y107.405
X135.814Y107.540
X136.033Y107.675
X136.211Y108.860
X136.388Y110.044
X136.593
X136.797
X136.985Y111.301
X137.172Y112.558
X137.378Y112.823
X137.584Y113.087
X138.508Y114.807
X139.431Y116.527
X139.972Y117.483
X140.512Y118.439
X140.868Y119.060
X141.223Y119.681
X141.554Y120.041
X141.885Y120.401
Y120.757
Y121.113
X142.146Y121.201
X142.407Y121.289
X143.403Y122.783
X144.398Y124.276
X145.457Y125.519
X146.515Y126.763
X148.525Y128.788
X150.536Y130.814
X151.427Y131.542
X152.317Y132.269
X152.591Y132.270
X152.865Y132.270
X151.939Y132.749
X151.013Y133.228
X150.761Y133.013
X150.510Y132.799
X149.425
X148.340
X147.993Y133.129
X147.646Y133.460
X147.802Y132.931
X147.958Y132.402
X147.754Y132.078
X147.550Y131.754
X147.033Y131.670
X146.515Y131.587
X144.795Y130.763
X143.075Y129.938
X142.491Y129.384
X141.907Y128.830
X141.687
X141.468
X140.261Y127.573
X139.054Y126.316
X138.176Y125.059
X137.297Y123.803
X137.121
X136.944
X136.223Y122.414
X135.501Y121.025
X135.187Y120.495
X134.873Y119.966
X134.738Y119.834
X134.604Y119.702
X133.992Y118.114
X133.381Y116.527
X133.135Y116.067
X132.889Y115.608
X132.877Y115.141
X132.866Y114.675
X132.465Y113.616
X132.065Y112.558
X131.827Y111.103
X131.590Y109.647
X131.307Y107.928
X131.023Y106.208
X130.787Y105.783
X130.551Y105.358
X130.363Y103.203
X130.175Y101.049
X129.970
X129.766
X129.582Y99.461
X129.397Y97.874
X129.196
X128.994
X128.844Y96.617
X128.695Y95.360
X128.280Y94.566
X127.865Y93.772
X127.863Y93.464
X127.861Y93.155
X127.640Y93.067
X127.418Y92.979
X126.647Y91.615
X125.877Y90.252
X124.643Y88.440
X123.409Y86.629
X122.923Y86.058
X122.437Y85.487
X122.040Y84.896
X121.643Y84.305
X120.785Y83.350
X119.926Y82.395
X119.925Y82.254
X119.924Y82.113
X119.130Y81.643
X118.335Y81.174
X118.054Y81.348
X117.772Y81.523
X117.626Y80.967
X117.481Y80.411
X117.268
X117.056
X116.868Y79.558
X116.681Y78.705
X116.094Y77.772
X115.507Y76.839
X115.200Y75.913
X114.893Y74.987
X114.035Y73.949
X113.177Y72.911
X111.328Y70.907
X109.479Y68.902
X110.530Y69.828
G1Z-1.500F304.8
G1X111.579Y70.754F1016.0
X111.717Y70.895
X111.855Y71.037
X112.649Y71.630
X113.443Y72.224
X114.352Y72.944
X115.262Y73.664
X116.072Y74.555
X116.882Y75.446
X117.871Y76.540
X118.860Y77.633
X118.863Y77.935
X118.866Y78.238
X119.263Y78.390
X119.660Y78.542
Y78.948
Y79.353
X119.906
X120.153
X120.336Y79.928
X120.518Y80.503
X120.755Y80.788
X120.992Y81.073
X121.517Y81.708
X122.041Y82.344
Y82.701
Y83.057
X122.305
X122.570
Y83.352
Y83.647
X123.761Y85.438
X124.952Y87.230
X127.002Y89.373
X129.052Y91.516
X130.243Y92.845
X131.434Y94.174
X132.492Y94.899
X133.550Y95.625
X134.079Y95.769
X134.609Y95.912
X134.682Y100.115
X134.755Y104.318
X134.988Y104.602
X135.221Y104.885
X135.408Y106.145
X135.596Y107.405
X135.814Y107.540
X136.033Y107.675
X136.211Y108.860
X136.388Y110.044
X136.593
X136.797
X136.985Y111.301
X137.172Y112.558
X137.378Y112.823
X137.584Y113.087
X138.508Y114.807
X139.431Y116.527
X139.972Y117.483
X140.512Y118.439
X140.868Y119.060
X141.223Y119.681
X141.554Y120.041
X141.885Y120.401
Y120.757
Y121.113
X142.146Y121.201
X142.407Y121.289
X143.403Y122.783
X144.398Y124.276
X145.457Y125.519
X146.515Y126.763
X148.525Y128.788
X150.536Y130.814
X151.427Y131.542
X152.317Y132.269
X152.591Y132.270
X152.865Y132.270
X151.939Y132.749
X151.013Y133.228
X150.761Y133.013
X150.510Y132.799
X149.425
X148.340
X147.993Y133.129
X147.646Y133.460
X147.802Y132.931
X147.958Y132.402
X147.754Y132.078
X147.550Y131.754
X147.033Y131.670
X146.515Y131.587
X144.795Y130.763
X143.075Y129.938
X142.491Y129.384
X141.907Y128.830
X141.687
X141.468
X140.261Y127.573
X139.054Y126.316
X138.176Y125.059
X137.297Y123.803
X137.121
X136.944
X136.223Y122.414
X135.501Y121.025
X135.187Y120.495
X134.873Y119.966
X134.738Y119.834
X134.604Y119.702
X133.992Y118.114
X133.381Y116.527
X133.135Y116.067
X132.889Y115.608
X132.877Y115.141
X132.866Y114.675
X132.465Y113.616
X132.065Y112.558
X131.827Y111.103
X131.590Y109.647
X131.307Y107.928
X131.023Y106.208
X130.787Y105.783
X130.551Y105.358
X130.363Y103.203
X130.175Y101.049
X129.970
X129.766
X129.582Y99.461
X129.397Y97.874
X129.196
X128.994
X128.844Y96.617
X128.695Y95.360
X128.280Y94.566
X127.865Y93.772
X127.863Y93.464
X127.861Y93.155
X127.640Y93.067
X127.418Y92.979
X126.647Y91.615
X125.877Y90.252
X124.643Y88.440
X123.409Y86.629
X122.923Y86.058
X122.437Y85.487
X122.040Y84.896
X121.643Y84.305
X120.785Y83.350
X119.926Y82.395
X119.925Y82.254
X119.924Y82.113
X119.130Y81.643
X118.335Y81.174
X118.054Y81.348
X117.772Y81.523
X117.626Y80.967
X117.481Y80.411
X117.268
X117.056
X116.868Y79.558
X116.681Y78.705
X116.094Y77.772
X115.507Y76.839
X115.200Y75.913
X114.893Y74.987
X114.035Y73.949
X113.177Y72.911
X111.328Y70.907
X109.479Y68.902
X110.530Y69.828
G0Z5.080
G0X119.399Y85.572
G1Z-0.750F304.8
G1X119.660Y85.734F1016.0
Y85.993
Y86.251
X120.851Y87.494
X122.041Y88.736
Y88.926
Y89.115
X122.709Y89.836
X123.377Y90.556
X123.532Y91.172
X123.686Y91.788
X123.901
X124.116
X124.290Y92.582
X124.465Y93.376
X124.650
X124.836
X125.149Y94.103
X125.462Y94.831
X125.695Y95.228
X125.928Y95.625
X126.234Y96.216
X126.539Y96.808
X126.541Y97.672
X126.543Y98.535
X126.948Y99.310
X127.352Y100.086
X127.498Y101.692
X127.643Y103.298
X127.799Y103.694
X127.955Y104.091
X128.299Y106.076
X128.644Y108.060
X129.023Y110.044
X129.403Y112.029
X129.710Y113.219
X130.016Y114.410
X130.257Y114.861
X130.499Y115.313
X130.670Y116.383
X130.841Y117.453
X131.043
X131.245
X131.424Y118.165
X131.603Y118.877
X132.379Y120.441
X133.155Y122.005
Y122.375
Y122.744
X133.419
X133.684
Y123.007
Y123.269
X134.621Y124.528
X135.558Y125.787
X136.275Y126.602
X136.991Y127.418
X137.454Y127.994
X137.917Y128.571
Y128.833
Y129.094
X138.180
X138.442
X139.701Y130.052
X140.960Y131.011
X141.092Y131.177
X141.225Y131.344
X142.547Y131.984
X143.870Y132.624
X144.003Y132.790
X144.135Y132.957
X145.312Y133.301
X146.489Y133.645
X146.026Y133.904
X145.564Y134.162
X144.114Y134.312
X142.664Y134.462
X142.524Y134.688
X142.384Y134.915
X141.473
X140.563
Y134.651
Y134.386
X139.897
X139.230
X137.743Y133.592
X136.255Y132.799
X135.737
X135.219
X133.591Y131.806
X131.964Y130.814
X131.876Y130.616
X131.788Y130.417
X131.479Y130.415
X131.170Y130.413
X129.869Y129.298
X128.567Y128.182
X127.025Y126.102
X125.482Y124.021
Y123.647
Y123.273
X125.238
X124.995
X124.820Y122.479
X124.646Y121.685
X124.419
X124.191
X124.013Y120.495
X123.834Y119.304
X123.616
X123.398
X123.219Y118.114
X123.040Y116.923
X122.835
X122.630
X122.450Y115.964
X122.271Y115.006
X122.036Y114.575
X121.801Y114.145
X121.490Y110.838
X121.180Y107.530
X121.101Y101.577
X121.021Y95.624
X120.851Y94.235
X120.681Y92.846
X120.436
X120.190
Y91.396
Y89.946
X119.816Y88.949
X119.442Y87.951
X119.290Y86.681
X119.138Y85.410
X119.399Y85.572
G1Z-1.500F304.8
G1X119.660Y85.734F1016.0
Y85.993
Y86.251
X120.851Y87.494
X122.041Y88.736
Y88.926
Y89.115
X122.709Y89.836
X123.377Y90.556
X123.532Y91.172
X123.686Y91.788
X123.901
X124.116
X124.290Y92.582
X124.465Y93.376
X124.650
X124.836
X125.149Y94.103
X125.462Y94.831
X125.695Y95.228
X125.928Y95.625
X126.234Y96.216
X126.539Y96.808
X126.541Y97.672
X126.543Y98.535
X126.948Y99.310
X127.352Y100.086
X127.498Y101.692
X127.643Y103.298
X127.799Y103.694
X127.955Y104.091
X128.299Y106.076
X128.644Y108.060
X129.023Y110.044
X129.403Y112.029
X129.710Y113.219
X130.016Y114.410
X130.257Y114.861
X130.499Y115.313
X130.670Y116.383
X130.841Y117.453
X131.043
X131.245
X131.424Y118.165
X131.603Y118.877
X132.379Y120.441
X133.155Y122.005
Y122.375
Y122.744
X133.419
X133.684
Y123.007
Y123.269
X134.621Y124.528
X135.558Y125.787
X136.275Y126.602
X136.991Y127.418
X137.454Y127.994
X137.917Y128.571
Y128.833
Y129.094
X138.180
X138.442
X139.701Y130.052
X140.960Y131.011
X141.092Y131.177
X141.225Y131.344
X142.547Y131.984
X143.870Y132.624
X144.003Y132.790
X144.135Y132.957
X145.312Y133.301
X146.489Y133.645
X146.026Y133.904
X145.564Y134.162
X144.114Y134.312
X142.664Y134.462
X142.524Y134.688
X142.384Y134.915
X141.473
X140.563
Y134.651
Y134.386
X139.897
X139.230
X137.743Y133.592
X136.255Y132.799
X135.737
X135.219
X133.591Y131.806
X131.964Y130.814
X131.876Y130.616
X131.788Y130.417
X131.479Y130.415
X131.170Y130.413
X129.869Y129.298
X128.567Y128.182
X127.025Y126.102
X125.482Y124.021
Y123.647
Y123.273
X125.238
X124.995
X124.820Y122.479
X124.646Y121.685
X124.419
X124.191
X124.013Y120.495
X123.834Y119.304
X123.616
X123.398
X123.219Y118.114
X123.040Y116.923
X122.835
X122.630
X122.450Y115.964
X122.271Y115.006
X122.036Y114.575
X121.801Y114.145
X121.490Y110.838
X121.180Y107.530
X121.101Y101.577
X121.021Y95.624
X120.851Y94.235
X120.681Y92.846
X120.436
X120.190
Y91.396
Y89.946
X119.816Y88.949
X119.442Y87.951
X119.290Y86.681
X119.138Y85.410
X119.399Y85.572
G0Z5.080
G0X125.793Y34.669
G1Z-0.750F304.8
G1X127.560Y34.638F1016.0
X127.957Y35.035
X128.354Y35.432
X128.497
X128.640
X130.590Y36.755
X132.540Y38.078
X132.825
X133.110
X133.198Y38.276
X133.286Y38.475
X134.135Y39.070
X134.985Y39.665
X135.148
X135.311
X136.105Y40.459
X136.899Y41.253
X137.302
X137.705
X137.567Y42.377
X137.430Y43.502
X136.998Y45.486
X136.565Y47.471
X136.286Y49.124
X136.006Y50.778
X135.797
X135.587
X135.397Y52.432
X135.207Y54.085
X135.031Y54.218
X134.855Y54.350
X134.524Y55.805
X134.194Y57.260
X133.946Y58.568
X133.699Y59.876
X133.845Y60.457
X133.990Y61.038
X135.398Y61.480
X136.806Y61.923
X137.217Y62.377
X137.627Y62.831
X138.566Y64.663
X139.504Y66.495
Y66.817
Y67.138
X139.835Y67.248
X140.165Y67.358
X140.225Y71.041
X140.285Y74.723
X140.137Y74.392
X139.989Y74.061
X139.647
X139.304
X138.975Y73.664
X138.646Y73.268
X138.170
X137.695
X136.946Y72.874
X136.197Y72.481
X134.955Y71.948
X133.712Y71.415
X133.354
X132.995
X132.670Y71.090
X132.344Y70.764
X129.762Y70.806
X127.179Y70.848
X126.661Y70.074
X126.143Y69.300
X125.971Y69.300
X125.799Y69.299
X123.854Y67.356
X121.909Y65.414
X120.586Y64.414
X119.263Y63.414
X119.131Y63.235
X118.999Y63.056
X118.073Y62.414
X117.147Y61.773
X116.807Y61.501
X116.467Y61.229
X116.133Y60.965
X115.800Y60.700
X114.952Y60.237
X114.104Y59.774
X113.377Y59.388
X112.649Y59.002
X111.762Y58.601
X110.876Y58.200
X109.976Y58.032
X109.077Y57.863
Y57.657
Y57.452
X108.151Y57.278
X107.225Y57.104
Y56.873
Y56.641
X106.431Y56.467
X105.637Y56.292
Y56.049
Y55.805
X105.143
X104.648
X103.698Y54.813
X102.748Y53.821
X102.206Y53.183
X101.664Y52.544
X102.030Y52.124
X102.395Y51.704
X102.535Y50.390
X102.675Y49.076
X102.966Y48.979
X103.256Y48.882
Y48.470
Y48.058
X104.050Y46.768
X104.844Y45.478
Y45.300
Y45.121
X106.221Y43.849
X107.598Y42.576
X107.676
X107.755
X108.782Y41.518
X109.809Y40.459
X110.091
X110.374
X110.585Y40.115
X110.797Y39.771
X111.591Y39.220
X112.384Y38.669
X113.912Y37.844
X115.439Y37.020
X115.830
X116.221
Y36.780
Y36.540
X117.610Y36.351
X118.999Y36.162
X119.146Y35.931
X119.292Y35.701
X120.601Y35.546
X121.909Y35.390
X122.438Y35.160
X122.968Y34.930
X123.497Y34.815
X124.026Y34.700
X125.793Y34.669
G1Z-1.500F304.8
G1X127.560Y34.638F1016.0
X127.957Y35.035
X128.354Y35.432
X128.497
X128.640
X130.590Y36.755
X132.540Y38.078
X132.825
X133.110
X133.198Y38.276
X133.286Y38.475
X134.135Y39.070
X134.985Y39.665
X135.148
X135.311
X136.105Y40.459
X136.899Y41.253
X137.302
X137.705
X137.567Y42.377
X137.430Y43.502
X136.998Y45.486
X136.565Y47.471
X136.286Y49.124
X136.006Y50.778
X135.797
X135.587
X135.397Y52.432
X135.207Y54.085
X135.031Y54.218
X134.855Y54.350
X134.524Y55.805
X134.194Y57.260
X133.946Y58.568
X133.699Y59.876
X133.845Y60.457
X133.990Y61.038
X135.398Y61.480
X136.806Y61.923
X137.217Y62.377
X137.627Y62.831
X138.566Y64.663
X139.504Y66.495
Y66.817
Y67.138
X139.835Y67.248
X140.165Y67.358
X140.225Y71.041
X140.285Y74.723
X140.137Y74.392
X139.989Y74.061
X139.647
X139.304
X138.975Y73.664
X138.646Y73.268
X138.170
X137.695
X136.946Y72.874
X136.197Y72.481
X134.955Y71.948
X133.712Y71.415
X133.354
X132.995
X132.670Y71.090
X132.344Y70.764
X129.762Y70.806
X127.179Y70.848
X126.661Y70.074
X126.143Y69.300
X125.971Y69.300
X125.799Y69.299
X123.854Y67.356
X121.909Y65.414
X120.586Y64.414
X119.263Y63.414
X119.131Y63.235
X118.999Y63.056
X118.073Y62.414
X117.147Y61.773
X116.807Y61.501
X116.467Y61.229
X116.133Y60.965
X115.800Y60.700
X114.952Y60.237
X114.104Y59.774
X113.377Y59.388
X112.649Y59.002
X111.762Y58.601
X110.876Y58.200
X109.976Y58.032
X109.077Y57.863
Y57.657
Y57.452
X108.151Y57.278
X107.225Y57.104
Y56.873
Y56.641
X106.431Y56.467
X105.637Y56.292
Y56.049
Y55.805
X105.143
X104.648
X103.698Y54.813
X102.748Y53.821
X102.206Y53.183
X101.664Y52.544
X102.030Y52.124
X102.395Y51.704
X102.535Y50.390
X102.675Y49.076
X102.966Y48.979
X103.256Y48.882
Y48.470
Y48.058
X104.050Y46.768
X104.844Y45.478
Y45.300
Y45.121
X106.221Y43.849
X107.598Y42.576
X107.676
X107.755
X108.782Y41.518
X109.809Y40.459
X110.091
X110.374
X110.585Y40.115
X110.797Y39.771
X111.591Y39.220
X112.384Y38.669
X113.912Y37.844
X115.439Y37.020
X115.830
X116.221
Y36.780
Y36.540
X117.610Y36.351
X118.999Y36.162
X119.146Y35.931
X119.292Y35.701
X120.601Y35.546
X121.909Y35.390
X122.438Y35.160
X122.968Y34.930
X123.497Y34.815
X124.026Y34.700
X125.793Y34.669
G0Z5.080
G0X112.874Y27.685
G1Z-0.750F304.8
G1X113.684Y27.847F1016.0
X114.357Y28.198
X115.030Y28.549
X115.361Y28.551
X115.691Y28.553
Y28.818
Y29.083
X115.998
X116.305
X118.313Y30.075
X120.322Y31.067
X120.454Y31.227
X120.586Y31.387
X121.575Y31.709
X122.563Y32.032
X122.694Y32.243
X122.825Y32.455
X121.524Y32.628
X120.223Y32.800
X119.479Y33.189
X118.734Y33.577
X117.871Y33.579
X117.007Y33.581
X116.548Y33.828
X116.088Y34.074
X113.178Y35.481
X110.268Y36.888
X110.135Y37.021
X110.003Y37.155
X108.940Y37.875
X107.877Y38.595
X106.794Y39.594
X105.711Y40.593
X104.153Y42.072
X102.595Y43.552
X101.867Y44.444
X101.139Y45.337
Y45.809
Y46.281
X100.875
X100.610
X100.606Y46.744
X100.602Y47.207
X100.326Y47.604
X100.049Y48.001
X100.146Y45.372
X100.242Y42.744
X100.559Y42.638
X100.875Y42.533
X100.877Y41.827
X100.879Y41.122
X101.233Y40.443
X101.588Y39.764
X101.782Y38.990
X101.976Y38.217
X102.153Y38.082
X102.331Y37.947
X102.665Y37.418
X103.000Y36.889
X103.287Y36.161
X103.573Y35.433
X103.812
X104.051
Y35.090
Y34.747
X104.514Y34.137
X104.977Y33.528
X105.704Y32.752
X106.432Y31.975
Y31.720
Y31.465
X106.631
X106.829
X108.352Y30.036
X109.874Y28.608
X110.969Y28.066
X112.065Y27.524
X112.874Y27.685
G1Z-1.500F304.8
G1X113.684Y27.847F1016.0
X114.357Y28.198
X115.030Y28.549
X115.361Y28.551
X115.691Y28.553
Y28.818
Y29.083
X115.998
X116.305
X118.313Y30.075
X120.322Y31.067
X120.454Y31.227
X120.586Y31.387
X121.575Y31.709
X122.563Y32.032
X122.694Y32.243
X122.825Y32.455
X121.524Y32.628
X120.223Y32.800
X119.479Y33.189
X118.734Y33.577
X117.871Y33.579
X117.007Y33.581
X116.548Y33.828
X116.088Y34.074
X113.178Y35.481
X110.268Y36.888
X110.135Y37.021
X110.003Y37.155
X108.940Y37.875
X107.877Y38.595
X106.794Y39.594
X105.711Y40.593
X104.153Y42.072
X102.595Y43.552
X101.867Y44.444
X101.139Y45.337
Y45.809
Y46.281
X100.875
X100.610
X100.606Y46.744
X100.602Y47.207
X100.326Y47.604
X100.049Y48.001
X100.146Y45.372
X100.242Y42.744
X100.559Y42.638
X100.875Y42.533
X100.877Y41.827
X100.879Y41.122
X101.233Y40.443
X101.588Y39.764
X101.782Y38.990
X101.976Y38.217
X102.153Y38.082
X102.331Y37.947
X102.665Y37.418
X103.000Y36.889
X103.287Y36.161
X103.573Y35.433
X103.812
X104.051
Y35.090
Y34.747
X104.514Y34.137
X104.977Y33.528
X105.704Y32.752
X106.432Y31.975
Y31.720
Y31.465
X106.631
X106.829
X108.352Y30.036
X109.874Y28.608
X110.969Y28.066
X112.065Y27.524
X112.874Y27.685
G0Z5.080
G0X169.005Y14.977
G1Z-0.750F304.8
G1X174.297Y15.088F1016.0
X174.385Y15.338
X174.473Y15.588
X175.091
X175.709
X176.127Y15.749
X176.546Y15.909
Y16.943
Y17.976
X176.304Y18.436
X176.063Y18.895
X175.568Y20.086
X175.073Y21.277
X174.234Y22.898
X173.396Y24.519
X171.399Y24.707
X169.402Y24.894
Y25.152
Y25.410
X166.425Y25.301
X163.449Y25.192
X161.200Y24.861
X158.951Y24.531
X158.819Y24.359
X158.686Y24.187
X157.760Y23.835
X156.834Y23.483
X155.931Y23.215
X155.028Y22.948
X154.667Y22.586
X154.305Y22.225
X152.587Y21.095
X150.868Y19.965
X151.470Y19.501
X152.072Y19.036
X152.576Y18.869
X153.080Y18.701
X153.634Y18.107
X154.188Y17.514
X154.850Y17.309
X155.511Y17.104
X156.033Y16.743
X156.555Y16.382
X156.912
X157.269
X157.666Y15.985
X158.063Y15.588
X158.573
X159.083
Y15.334
Y15.080
X161.398Y14.973
X163.713Y14.866
X169.005Y14.977
G1Z-1.500F304.8
G1X174.297Y15.088F1016.0
X174.385Y15.338
X174.473Y15.588
X175.091
X175.709
X176.127Y15.749
X176.546Y15.909
Y16.943
Y17.976
X176.304Y18.436
X176.063Y18.895
X175.568Y20.086
X175.073Y21.277
X174.234Y22.898
X173.396Y24.519
X171.399Y24.707
X169.402Y24.894
Y25.152
Y25.410
X166.425Y25.301
X163.449Y25.192
X161.200Y24.861
X158.951Y24.531
X158.819Y24.359
X158.686Y24.187
X157.760Y23.835
X156.834Y23.483
X155.931Y23.215
X155.028Y22.948
X154.667Y22.586
X154.305Y22.225
X152.587Y21.095
X150.868Y19.965
X151.470Y19.501
X152.072Y19.036
X152.576Y18.869
X153.080Y18.701
X153.634Y18.107
X154.188Y17.514
X154.850Y17.309
X155.511Y17.104
X156.033Y16.743
X156.555Y16.382
X156.912
X157.269
X157.666Y15.985
X158.063Y15.588
X158.573
X159.083
Y15.334
Y15.080
X161.398Y14.973
X163.713Y14.866
X169.005Y14.977
G0Z5.080
G0X241.943Y49.267
G1Z-0.750F304.8
G1X242.427Y49.303F1016.0
Y49.502
Y49.701
X243.750Y49.877
X245.073Y50.052
Y50.283
Y50.513
X245.451
X245.829
X246.190Y50.844
X246.552Y51.175
X247.466Y51.672
X248.380Y52.169
X249.443Y52.743
X250.505Y53.316
X250.811Y53.505
X251.117Y53.694
X247.632Y57.234
X244.147Y60.774
X243.485Y61.553
X242.824Y62.331
X241.848Y64.294
X240.871Y66.256
X240.426Y67.711
X239.981Y69.166
X239.749Y69.418
X239.516Y69.669
X239.501Y70.344
X239.486Y71.019
X238.849Y69.696
X238.212Y68.373
X238.203Y67.910
X238.194Y67.447
X237.986
X237.778
X237.662Y66.851
X237.547Y66.256
X237.540Y62.394
X237.533Y58.531
X237.852Y58.147
X238.171Y57.763
X238.349Y56.652
X238.527Y55.540
X238.728
X238.929
X239.103Y54.614
X239.277Y53.688
X239.475
X239.672
X240.171Y52.167
X240.669Y50.646
X241.065Y49.938
X241.460Y49.230
X241.943Y49.267
G1Z-1.500F304.8
G1X242.427Y49.303F1016.0
Y49.502
Y49.701
X243.750Y49.877
X245.073Y50.052
Y50.283
Y50.513
X245.451
X245.829
X246.190Y50.844
X246.552Y51.175
X247.466Y51.672
X248.380Y52.169
X249.443Y52.743
X250.505Y53.316
X250.811Y53.505
X251.117Y53.694
X247.632Y57.234
X244.147Y60.774
X243.485Y61.553
X242.824Y62.331
X241.848Y64.294
X240.871Y66.256
X240.426Y67.711
X239.981Y69.166
X239.749Y69.418
X239.516Y69.669
X239.501Y70.344
X239.486Y71.019
X238.849Y69.696
X238.212Y68.373
X238.203Y67.910
X238.194Y67.447
X237.986
X237.778
X237.662Y66.851
X237.547Y66.256
X237.540Y62.394
X237.533Y58.531
X237.852Y58.147
X238.171Y57.763
X238.349Y56.652
X238.527Y55.540
X238.728
X238.929
X239.103Y54.614
X239.277Y53.688
X239.475
X239.672
X240.171Y52.167
X240.669Y50.646
X241.065Y49.938
X241.460Y49.230
X241.943Y49.267
G0Z5.080
G0X253.739Y55.276
G1Z-0.750F304.8
G1X254.098F1016.0
X255.340Y55.816
X256.582Y56.356
X257.376Y56.788
X258.170Y57.220
X258.302Y57.373
X258.434Y57.525
X259.691Y58.181
X260.948Y58.837
Y59.041
Y59.245
X261.305
X261.661
X262.632Y60.105
X263.602Y60.964
X264.722Y62.050
X265.843Y63.136
X266.430Y63.902
X267.017Y64.669
X267.554Y65.372
X268.091Y66.075
X268.099Y66.430
X268.108Y66.785
X268.496Y67.299
X268.884Y67.812
Y68.291
Y68.770
X269.120
X269.355
X269.526Y69.685
X269.698Y70.599
X270.083Y71.338
X270.469Y72.077
X270.471Y72.783
X270.473Y73.488
X270.741Y73.577
X271.008Y73.667
X271.177Y75.857
X271.346Y78.048
X271.571Y78.187
X271.796Y78.326
Y81.750
Y85.174
X271.562
X271.329
X271.143Y87.156
X270.957Y89.139
X270.742Y89.272
X270.527Y89.405
X270.340Y91.258
X270.154Y93.111
X269.917
X269.679
Y93.582
Y94.052
X269.316Y94.574
X268.953Y95.096
X268.766Y95.956
X268.579Y96.816
X268.382
X268.185
X267.564Y98.072
X266.943Y99.329
X266.790Y99.461
X266.636Y99.594
X266.041Y100.813
X265.446Y102.033
Y102.313
Y102.592
X265.247Y102.680
X265.049Y102.769
X264.546Y103.757
X264.044Y104.745
X262.767Y106.535
X261.491Y108.325
X261.021Y108.865
X260.551Y109.406
X259.625Y110.056
X258.699Y110.706
X258.566Y110.878
X258.434Y111.049
X257.111Y111.753
X255.788Y112.457
X255.692Y111.979
X255.595Y111.500
X255.427Y111.368
X255.259Y111.235
X254.771Y109.780
X254.283Y108.325
X253.719Y107.134
X253.154Y105.944
X252.592Y105.018
X252.029Y104.092
X251.826Y103.450
X251.622Y102.809
X251.380Y102.524
X251.138Y102.239
X249.776Y100.123
X248.414Y98.006
X248.265Y97.874
X248.115Y97.742
X247.581Y96.948
X247.046Y96.154
X246.523Y95.096
X245.999Y94.037
X245.842Y93.905
X245.685Y93.773
X244.716Y92.384
X243.746Y90.995
X244.140
X244.533
X244.719Y90.267
X244.905Y89.539
X244.859Y89.010
X244.813Y88.481
X245.062Y87.952
X245.311Y87.423
X245.575Y85.571
X245.839Y83.719
X246.136Y82.131
X246.434Y80.544
X246.298Y79.679
X246.163Y78.815
X243.469Y76.136
X240.775Y73.457
X241.204Y73.217
X241.633Y72.977
Y71.799
Y70.622
X241.877
X242.120
X242.304Y69.762
X242.488Y68.902
X242.688Y68.637
X242.887Y68.373
X243.066Y67.381
X243.245Y66.388
X243.476
X243.708
X243.882Y65.595
X244.056Y64.801
X244.300
X244.544
X244.546Y64.470
X244.548Y64.139
X245.892Y62.684
X247.236Y61.229
X248.742Y59.642
X250.249Y58.054
X251.814Y56.665
X253.380Y55.276
X253.739Y55.276
G1Z-1.500F304.8
G1X254.098F1016.0
X255.340Y55.816
X256.582Y56.356
X257.376Y56.788
X258.170Y57.220
X258.302Y57.373
X258.434Y57.525
X259.691Y58.181
X260.948Y58.837
Y59.041
Y59.245
X261.305
X261.661
X262.632Y60.105
X263.602Y60.964
X264.722Y62.050
X265.843Y63.136
X266.430Y63.902
X267.017Y64.669
X267.554Y65.372
X268.091Y66.075
X268.099Y66.430
X268.108Y66.785
X268.496Y67.299
X268.884Y67.812
Y68.291
Y68.770
X269.120
X269.355
X269.526Y69.685
X269.698Y70.599
X270.083Y71.338
X270.469Y72.077
X270.471Y72.783
X270.473Y73.488
X270.741Y73.577
X271.008Y73.667
X271.177Y75.857
X271.346Y78.048
X271.571Y78.187
X271.796Y78.326
Y81.750
Y85.174
X271.562
X271.329
X271.143Y87.156
X270.957Y89.139
X270.742Y89.272
X270.527Y89.405
X270.340Y91.258
X270.154Y93.111
X269.917
X269.679
Y93.582
Y94.052
X269.316Y94.574
X268.953Y95.096
X268.766Y95.956
X268.579Y96.816
X268.382
X268.185
X267.564Y98.072
X266.943Y99.329
X266.790Y99.461
X266.636Y99.594
X266.041Y100.813
X265.446Y102.033
Y102.313
Y102.592
X265.247Y102.680
X265.049Y102.769
X264.546Y103.757
X264.044Y104.745
X262.767Y106.535
X261.491Y108.325
X261.021Y108.865
X260.551Y109.406
X259.625Y110.056
X258.699Y110.706
X258.566Y110.878
X258.434Y111.049
X257.111Y111.753
X255.788Y112.457
X255.692Y111.979
X255.595Y111.500
X255.427Y111.368
X255.259Y111.235
X254.771Y109.780
X254.283Y108.325
X253.719Y107.134
X253.154Y105.944
X252.592Y105.018
X252.029Y104.092
X251.826Y103.450
X251.622Y102.809
X251.380Y102.524
X251.138Y102.239
X249.776Y100.123
X248.414Y98.006
X248.265Y97.874
X248.115Y97.742
X247.581Y96.948
X247.046Y96.154
X246.523Y95.096
X245.999Y94.037
X245.842Y93.905
X245.685Y93.773
X244.716Y92.384
X243.746Y90.995
X244.140
X244.533
X244.719Y90.267
X244.905Y89.539
X244.859Y89.010
X244.813Y88.481
X245.062Y87.952
X245.311Y87.423
X245.575Y85.571
X245.839Y83.719
X246.136Y82.131
X246.434Y80.544
X246.298Y79.679
X246.163Y78.815
X243.469Y76.136
X240.775Y73.457
X241.204Y73.217
X241.633Y72.977
Y71.799
Y70.622
X241.877
X242.120
X242.304Y69.762
X242.488Y68.902
X242.688Y68.637
X242.887Y68.373
X243.066Y67.381
X243.245Y66.388
X243.476
X243.708
X243.882Y65.595
X244.056Y64.801
X244.300
X244.544
X244.546Y64.470
X244.548Y64.139
X245.892Y62.684
X247.236Y61.229
X248.742Y59.642
X250.249Y58.054
X251.814Y56.665
X253.380Y55.276
X253.739Y55.276
G0Z5.080
G0X259.187Y121.488
G1Z-0.750F304.8
G1X259.551Y121.951F1016.0
X259.748
X259.946
X261.042Y122.796
X262.138Y123.641
X263.461Y125.003
X264.784Y126.365
X265.571Y127.265
X266.357Y128.164
X267.621Y129.834
X268.885Y131.504
Y131.887
Y132.269
X269.129
X269.372
X269.547Y133.063
X269.721Y133.857
X269.902
X270.084
X270.524Y135.114
X270.964Y136.370
X271.154Y137.429
X271.343Y138.487
X271.635Y138.677
X271.928Y138.867
X271.890Y143.643
X271.852Y148.420
X271.589Y148.745
X271.326Y149.070
X271.131Y150.251
X270.937Y151.431
X270.719Y151.838
X270.501Y152.245
X269.958Y153.900
X269.414Y155.555
X269.405Y156.149
X269.396Y156.743
X268.876Y156.119
X268.356Y155.494
Y155.127
Y154.759
X268.157Y154.757
X267.959Y154.755
X267.297Y153.778
X266.636Y152.800
X265.842Y151.990
X265.048Y151.179
X264.387Y150.290
X263.726Y149.400
X263.263Y148.905
X262.799Y148.409
Y148.240
Y148.070
X262.347Y147.739
X261.894Y147.408
X261.958Y146.453
X262.022Y145.499
X261.791
X261.559
X261.378Y140.681
X261.198Y135.864
X260.979Y135.720
X260.760Y135.577
X260.573Y131.481
X260.386Y127.386
X260.160Y127.246
X259.934Y127.106
X259.745Y125.124
X259.557Y123.141
X259.363Y122.877
X259.168Y122.612
X258.995Y121.818
X258.823Y121.025
X259.187Y121.488
G1Z-1.500F304.8
G1X259.551Y121.951F1016.0
X259.748
X259.946
X261.042Y122.796
X262.138Y123.641
X263.461Y125.003
X264.784Y126.365
X265.571Y127.265
X266.357Y128.164
X267.621Y129.834
X268.885Y131.504
Y131.887
Y132.269
X269.129
X269.372
X269.547Y133.063
X269.721Y133.857
X269.902
X270.084
X270.524Y135.114
X270.964Y136.370
X271.154Y137.429
X271.343Y138.487
X271.635Y138.677
X271.928Y138.867
X271.890Y143.643
X271.852Y148.420
X271.589Y148.745
X271.326Y149.070
X271.131Y150.251
X270.937Y151.431
X270.719Y151.838
X270.501Y152.245
X269.958Y153.900
X269.414Y155.555
X269.405Y156.149
X269.396Y156.743
X268.876Y156.119
X268.356Y155.494
Y155.127
Y154.759
X268.157Y154.757
X267.959Y154.755
X267.297Y153.778
X266.636Y152.800
X265.842Y151.990
X265.048Y151.179
X264.387Y150.290
X263.726Y149.400
X263.263Y148.905
X262.799Y148.409
Y148.240
Y148.070
X262.347Y147.739
X261.894Y147.408
X261.958Y146.453
X262.022Y145.499
X261.791
X261.559
X261.378Y140.681
X261.198Y135.864
X260.979Y135.720
X260.760Y135.577
X260.573Y131.481
X260.386Y127.386
X260.160Y127.246
X259.934Y127.106
X259.745Y125.124
X259.557Y123.141
X259.363Y122.877
X259.168Y122.612
X258.995Y121.818
X258.823Y121.025
X259.187Y121.488
G0Z5.080
G0X262.271Y151.319
G1Z-0.750F304.8
G1X262.535F1016.0
Y151.703
Y152.086
X263.863Y153.489
X265.192Y154.891
X266.087Y156.389
X266.983Y157.887
X267.173Y158.506
X267.363Y159.125
X267.564Y159.389
X267.766Y159.654
X267.959Y160.580
X268.153Y161.506
X268.453Y161.877
X268.753Y162.248
Y167.301
Y172.354
X268.240Y174.007
X267.727Y175.661
X267.512
X267.298
Y176.216
Y176.770
X266.934Y177.472
X266.570Y178.175
X265.963Y179.498
X265.356Y180.820
X265.202Y180.953
X265.049Y181.085
X264.716Y181.614
X264.383Y182.143
X264.057Y182.805
X263.730Y183.466
X263.133Y184.125
X262.535Y184.784
Y185.013
Y185.242
X261.677Y186.339
X260.820Y187.435
X260.024Y188.144
X259.228Y188.854
X258.302Y189.663
X257.376Y190.473
X256.904Y190.628
X256.433Y190.783
X255.741Y191.424
X255.050Y192.065
X254.484
X253.917
X253.852Y191.470
X253.786Y190.875
X253.711Y190.081
X253.636Y189.287
X253.429Y187.633
X253.223Y185.980
X252.984
X252.746
Y185.715
Y185.451
X253.106
X253.467
X254.297Y183.765
X255.127Y182.078
Y181.802
Y181.526
X255.325Y181.438
X255.524Y181.350
X256.119Y180.130
X256.714Y178.910
Y178.609
Y178.307
X256.958
X257.202
X257.376Y177.513
X257.550Y176.719
X257.794
X258.037
Y176.164
Y175.609
X258.407Y174.775
X258.778Y173.941
X259.090Y172.751
X259.403Y171.560
X259.653Y169.973
X259.903Y168.385
X260.172Y167.907
X260.441Y167.430
X260.600Y165.725
X260.760Y164.019
X260.959
X261.157
X261.349Y160.179
X261.541Y156.338
X261.774Y156.194
X262.006Y156.051
Y153.685
Y151.319
X262.271Y151.319
G1Z-1.500F304.8
G1X262.535F1016.0
Y151.703
Y152.086
X263.863Y153.489
X265.192Y154.891
X266.087Y156.389
X266.983Y157.887
X267.173Y158.506
X267.363Y159.125
X267.564Y159.389
X267.766Y159.654
X267.959Y160.580
X268.153Y161.506
X268.453Y161.877
X268.753Y162.248
Y167.301
Y172.354
X268.240Y174.007
X267.727Y175.661
X267.512
X267.298
Y176.216
Y176.770
X266.934Y177.472
X266.570Y178.175
X265.963Y179.498
X265.356Y180.820
X265.202Y180.953
X265.049Y181.085
X264.716Y181.614
X264.383Y182.143
X264.057Y182.805
X263.730Y183.466
X263.133Y184.125
X262.535Y184.784
Y185.013
Y185.242
X261.677Y186.339
X260.820Y187.435
X260.024Y188.144
X259.228Y188.854
X258.302Y189.663
X257.376Y190.473
X256.904Y190.628
X256.433Y190.783
X255.741Y191.424
X255.050Y192.065
X254.484
X253.917
X253.852Y191.470
X253.786Y190.875
X253.711Y190.081
X253.636Y189.287
X253.429Y187.633
X253.223Y185.980
X252.984
X252.746
Y185.715
Y185.451
X253.106
X253.467
X254.297Y183.765
X255.127Y182.078
Y181.802
Y181.526
X255.325Y181.438
X255.524Y181.350
X256.119Y180.130
X256.714Y178.910
Y178.609
Y178.307
X256.958
X257.202
X257.376Y177.513
X257.550Y176.719
X257.794
X258.037
Y176.164
Y175.609
X258.407Y174.775
X258.778Y173.941
X259.090Y172.751
X259.403Y171.560
X259.653Y169.973
X259.903Y168.385
X260.172Y167.907
X260.441Y167.430
X260.600Y165.725
X260.760Y164.019
X260.959
X261.157
X261.349Y160.179
X261.541Y156.338
X261.774Y156.194
X262.006Y156.051
Y153.685
Y151.319
X262.271Y151.319
G0Z5.080
G0X262.296Y189.419
G1Z-0.750F304.8
G1X262.535F1016.0
X262.577Y190.015
X262.618Y190.610
X262.558Y192.859
X262.498Y195.108
X261.988Y196.630
X261.477Y198.153
Y198.552
Y198.952
X261.222Y199.411
X260.966Y199.870
X260.428Y201.113
X259.889Y202.355
Y202.620
Y202.885
X259.247Y204.093
X258.605Y205.302
X257.858Y206.137
X257.111Y206.972
X256.440Y207.654
X255.769Y208.337
X255.102Y208.866
X254.435Y209.395
X253.597Y209.993
X252.760Y210.591
X251.418Y211.382
X250.077Y212.174
X249.423
X248.770
X248.310Y212.421
X247.851Y212.669
X246.950Y213.083
X246.050Y213.496
X243.857
X241.664
X241.501Y213.232
X241.337Y212.967
X239.766
X238.194
Y212.847
Y212.726
X239.855Y211.061
X241.516Y209.395
X242.037Y208.337
X242.559Y207.279
X242.722Y207.146
X242.885Y207.014
X243.085Y206.373
X243.285Y205.732
X243.523Y205.447
X243.760Y205.162
X244.284Y204.526
X244.808Y203.890
Y203.402
Y202.913
X245.404Y202.904
X245.999Y202.894
X246.632Y202.544
X247.265Y202.193
X248.401Y202.321
X249.537Y202.449
X250.683Y202.277
X251.829Y202.105
X252.129Y201.385
X252.430Y200.664
X252.611Y199.606
X252.793Y198.547
X253.058Y198.227
X253.323Y197.906
X253.470Y196.242
X253.617Y194.579
X253.909Y194.384
X254.201Y194.190
X254.929Y194.186
X255.656Y194.182
Y193.917
Y193.653
X255.951
X256.246
X258.064Y192.444
X259.882Y191.235
X260.969Y190.327
X262.056Y189.419
X262.296Y189.419
G1Z-1.500F304.8
G1X262.535F1016.0
X262.577Y190.015
X262.618Y190.610
X262.558Y192.859
X262.498Y195.108
X261.988Y196.630
X261.477Y198.153
Y198.552
Y198.952
X261.222Y199.411
X260.966Y199.870
X260.428Y201.113
X259.889Y202.355
Y202.620
Y202.885
X259.247Y204.093
X258.605Y205.302
X257.858Y206.137
X257.111Y206.972
X256.440Y207.654
X255.769Y208.337
X255.102Y208.866
X254.435Y209.395
X253.597Y209.993
X252.760Y210.591
X251.418Y211.382
X250.077Y212.174
X249.423
X248.770
X248.310Y212.421
X247.851Y212.669
X246.950Y213.083
X246.050Y213.496
X243.857
X241.664
X241.501Y213.232
X241.337Y212.967
X239.766
X238.194
Y212.847
Y212.726
X239.855Y211.061
X241.516Y209.395
X242.037Y208.337
X242.559Y207.279
X242.722Y207.146
X242.885Y207.014
X243.085Y206.373
X243.285Y205.732
X243.523Y205.447
X243.760Y205.162
X244.284Y204.526
X244.808Y203.890
Y203.402
Y202.913
X245.404Y202.904
X245.999Y202.894
X246.632Y202.544
X247.265Y202.193
X248.401Y202.321
X249.537Y202.449
X250.683Y202.277
X251.829Y202.105
X252.129Y201.385
X252.430Y200.664
X252.611Y199.606
X252.793Y198.547
X253.058Y198.227
X253.323Y197.906
X253.470Y196.242
X253.617Y194.579
X253.909Y194.384
X254.201Y194.190
X254.929Y194.186
X255.656Y194.182
Y193.917
Y193.653
X255.951
X256.246
X258.064Y192.444
X259.882Y191.235
X260.969Y190.327
X262.056Y189.419
X262.296Y189.419
G0Z5.080
G0X239.795Y202.656
G1Z-0.750F304.8
G1X240.275Y202.913F1016.0
X240.954
X241.633
Y203.292
Y203.671
X240.773Y205.342
X239.913Y207.014
X239.715Y207.102
X239.516Y207.191
Y207.507
Y207.823
X239.053Y208.236
X238.590Y208.650
X237.753Y209.618
X236.916Y210.586
X236.629
X236.342
Y210.830
Y211.073
X235.548Y211.248
X234.754Y211.422
Y211.665
Y211.909
X234.423Y211.911
X234.093Y211.912
X233.345Y212.302
X232.597Y212.692
X230.890Y212.867
X229.183Y213.042
X229.052Y213.254
X228.921Y213.466
X227.670Y213.635
X226.420Y213.805
X224.723Y214.643
X223.027Y215.481
X222.383Y216.010
X221.740Y216.539
X221.037Y217.309
X220.334Y218.080
X219.673Y218.787
X219.011Y219.495
X218.562Y220.398
X218.112Y221.302
X217.702Y222.326
X217.292Y223.351
Y225.287
Y227.224
X217.522Y227.366
X217.752Y227.508
X217.884Y228.881
X218.016Y230.254
X218.448Y230.569
X218.879Y230.885
Y231.029
Y231.174
X218.350Y231.036
X217.821Y230.897
Y230.663
Y230.430
X217.310
X216.800
X216.451Y230.098
X216.101Y229.767
X215.079Y229.238
X214.056Y228.710
X212.697Y227.349
X211.338Y225.987
X211.040Y225.608
X210.742Y225.230
X210.559Y224.655
X210.377Y224.080
X210.130
X209.883
X209.881Y223.749
X209.879Y223.418
X209.468Y222.630
X209.058Y221.843
X208.903Y220.183
X208.748Y218.523
X208.521
X208.295
Y216.275
Y214.026
X208.529
X208.763
X208.953Y212.504
X209.142Y210.983
X209.314Y210.851
X209.486Y210.718
X209.768Y210.207
X210.050Y209.695
X210.429Y209.510
X210.808Y209.324
X211.470Y209.046
X212.131Y208.768
X214.299Y208.663
X216.468Y208.559
X216.813Y208.285
X217.158Y208.011
X218.532Y207.836
X219.906Y207.661
X220.839Y207.272
X221.772Y206.882
X222.442
X223.112
Y206.617
Y206.353
X223.839Y206.351
X224.567Y206.349
X225.299Y205.968
X226.031Y205.586
X228.341Y205.406
X230.652Y205.225
X231.013Y204.938
X231.374Y204.651
X234.783Y204.544
X238.193Y204.438
Y204.205
Y203.971
X238.596
X239.000
X239.157Y203.185
X239.314Y202.399
X239.795Y202.656
G1Z-1.500F304.8
G1X240.275Y202.913F1016.0
X240.954
X241.633
Y203.292
Y203.671
X240.773Y205.342
X239.913Y207.014
X239.715Y207.102
X239.516Y207.191
Y207.507
Y207.823
X239.053Y208.236
X238.590Y208.650
X237.753Y209.618
X236.916Y210.586
X236.629
X236.342
Y210.830
Y211.073
X235.548Y211.248
X234.754Y211.422
Y211.665
Y211.909
X234.423Y211.911
X234.093Y211.912
X233.345Y212.302
X232.597Y212.692
X230.890Y212.867
X229.183Y213.042
X229.052Y213.254
X228.921Y213.466
X227.670Y213.635
X226.420Y213.805
X224.723Y214.643
X223.027Y215.481
X222.383Y216.010
X221.740Y216.539
X221.037Y217.309
X220.334Y218.080
X219.673Y218.787
X219.011Y219.495
X218.562Y220.398
X218.112Y221.302
X217.702Y222.326
X217.292Y223.351
Y225.287
Y227.224
X217.522Y227.366
X217.752Y227.508
X217.884Y228.881
X218.016Y230.254
X218.448Y230.569
X218.879Y230.885
Y231.029
Y231.174
X218.350Y231.036
X217.821Y230.897
Y230.663
Y230.430
X217.310
X216.800
X216.451Y230.098
X216.101Y229.767
X215.079Y229.238
X214.056Y228.710
X212.697Y227.349
X211.338Y225.987
X211.040Y225.608
X210.742Y225.230
X210.559Y224.655
X210.377Y224.080
X210.130
X209.883
X209.881Y223.749
X209.879Y223.418
X209.468Y222.630
X209.058Y221.843
X208.903Y220.183
X208.748Y218.523
X208.521
X208.295
Y216.275
Y214.026
X208.529
X208.763
X208.953Y212.504
X209.142Y210.983
X209.314Y210.851
X209.486Y210.718
X209.768Y210.207
X210.050Y209.695
X210.429Y209.510
X210.808Y209.324
X211.470Y209.046
X212.131Y208.768
X214.299Y208.663
X216.468Y208.559
X216.813Y208.285
X217.158Y208.011
X218.532Y207.836
X219.906Y207.661
X220.839Y207.272
X221.772Y206.882
X222.442
X223.112
Y206.617
Y206.353
X223.839Y206.351
X224.567Y206.349
X225.299Y205.968
X226.031Y205.586
X228.341Y205.406
X230.652Y205.225
X231.013Y204.938
X231.374Y204.651
X234.783Y204.544
X238.193Y204.438
Y204.205
Y203.971
X238.596
X239.000
X239.157Y203.185
X239.314Y202.399
X239.795Y202.656
G0Z5.080
G0X223.245Y232.613
G1Z-0.750F304.8
G1X224.303Y232.608F1016.0
X223.843Y232.728
X223.383Y232.849
X222.785Y232.734
X222.186Y232.619
X223.245Y232.613
G1Z-1.500F304.8
G1X224.303Y232.608F1016.0
X223.843Y232.728
X223.383Y232.849
X222.785Y232.734
X222.186Y232.619
X223.245Y232.613
G0Z5.080
G0X220.599Y231.224
G1Z-0.750F304.8
G1X220.731F1016.0
Y231.356
Y231.488
X220.599
X220.467
Y231.356
Y231.224
X220.599
G1Z-1.500F304.8
G1X220.731F1016.0
Y231.356
Y231.488
X220.599
X220.467
Y231.356
Y231.224
X220.599
G0Z5.080
G0X198.694Y193.653
G1Z-0.750F304.8
G1X198.548Y193.256F1016.0
X198.527Y193.598
X198.506Y193.940
X198.237Y194.259
X197.967Y194.579
X197.443Y195.215
X196.919Y195.850
Y196.074
Y196.299
X197.315
X197.712
Y196.528
Y196.758
X198.809Y196.905
X199.905Y197.052
X200.066Y197.271
X200.226Y197.489
X200.878Y198.018
X201.530Y198.548
X200.834Y197.693
X200.137Y196.839
X199.488Y195.444
X198.839Y194.050
X198.694Y193.653
G1Z-1.500F304.8
G1X198.548Y193.256F1016.0
X198.527Y193.598
X198.506Y193.940
X198.237Y194.259
X197.967Y194.579
X197.443Y195.215
X196.919Y195.850
Y196.074
Y196.299
X197.315
X197.712
Y196.528
Y196.758
X198.809Y196.905
X199.905Y197.052
X200.066Y197.271
X200.226Y197.489
X200.878Y198.018
X201.530Y198.548
X200.834Y197.693
X200.137Y196.839
X199.488Y195.444
X198.839Y194.050
X198.694Y193.653
G0Z5.080
G0X196.257Y198.511
G1Z-0.750F304.8
G1X195.728Y198.385F1016.0
X194.827Y200.277
X193.926Y202.170
X194.298Y202.405
X194.670Y202.640
X195.249Y202.644
X195.829Y202.649
X195.978Y202.890
X196.128Y203.132
X197.251Y203.319
X198.374Y203.507
X198.506Y203.698
X198.638Y203.890
X199.432Y204.306
X200.226Y204.723
X201.910Y205.543
X203.594Y206.364
X204.241Y205.631
X204.887Y204.898
X205.275Y204.170
X205.663Y203.442
X205.921
X206.179
Y203.178
Y202.913
X205.842
X205.506
X204.212Y201.725
X202.919Y200.538
X202.614Y200.791
X202.309Y201.044
X201.532Y200.906
X200.755Y200.768
X199.730Y200.062
X198.706Y199.357
X197.746Y198.997
X196.786Y198.637
X196.257Y198.511
G1Z-1.500F304.8
G1X195.728Y198.385F1016.0
X194.827Y200.277
X193.926Y202.170
X194.298Y202.405
X194.670Y202.640
X195.249Y202.644
X195.829Y202.649
X195.978Y202.890
X196.128Y203.132
X197.251Y203.319
X198.374Y203.507
X198.506Y203.698
X198.638Y203.890
X199.432Y204.306
X200.226Y204.723
X201.910Y205.543
X203.594Y206.364
X204.241Y205.631
X204.887Y204.898
X205.275Y204.170
X205.663Y203.442
X205.921
X206.179
Y203.178
Y202.913
X205.842
X205.506
X204.212Y201.725
X202.919Y200.538
X202.614Y200.791
X202.309Y201.044
X201.532Y200.906
X200.755Y200.768
X199.730Y200.062
X198.706Y199.357
X197.746Y198.997
X196.786Y198.637
X196.257Y198.511
G0Z5.080
G0X194.207Y204.627
G1Z-0.750F304.8
G1X192.951Y204.441F1016.0
Y204.970
Y205.498
X192.556Y206.256
X192.160Y207.014
X192.158Y207.742
X192.156Y208.469
X191.842
X191.528
X192.040Y208.934
X192.553Y209.399
X194.723Y210.456
X196.892Y211.512
X196.906Y211.843
X196.919Y212.174
X197.221
X197.522
X197.835Y212.602
X198.148Y213.030
X199.051Y211.874
X199.954Y210.718
X200.684Y209.925
X201.415Y209.131
X201.416Y208.924
X201.417Y208.717
X201.020Y208.565
X200.623Y208.413
Y208.051
Y207.689
X199.829Y207.279
X199.035Y206.868
Y206.611
Y206.353
X198.637
X198.240
X197.252Y205.824
X196.265Y205.294
X195.952
X195.640
X195.552Y205.054
X195.463Y204.813
X194.207Y204.627
G1Z-1.500F304.8
G1X192.951Y204.441F1016.0
Y204.970
Y205.498
X192.556Y206.256
X192.160Y207.014
X192.158Y207.742
X192.156Y208.469
X191.842
X191.528
X192.040Y208.934
X192.553Y209.399
X194.723Y210.456
X196.892Y211.512
X196.906Y211.843
X196.919Y212.174
X197.221
X197.522
X197.835Y212.602
X198.148Y213.030
X199.051Y211.874
X199.954Y210.718
X200.684Y209.925
X201.415Y209.131
X201.416Y208.924
X201.417Y208.717
X201.020Y208.565
X200.623Y208.413
Y208.051
Y207.689
X199.829Y207.279
X199.035Y206.868
Y206.611
Y206.353
X198.637
X198.240
X197.252Y205.824
X196.265Y205.294
X195.952
X195.640
X195.552Y205.054
X195.463Y204.813
X194.207Y204.627
G0Z5.080
G0X198.828Y192.065
G1Z-0.750F304.8
G1X199.048F1016.0
X199.311Y192.793
X199.575Y193.520
X199.865Y194.182
X200.154Y194.843
X200.389Y195.240
X200.624Y195.637
X200.898Y196.278
X201.173Y196.920
X201.824Y197.522
X202.474Y198.125
Y198.382
Y198.638
X203.731Y199.839
X204.988Y201.040
X205.393Y201.381
X205.798Y201.723
X206.517Y202.098
X207.237Y202.473
Y202.843
Y203.213
X206.577Y204.079
X205.917Y204.944
X206.114Y205.162
X206.311Y205.379
X205.980Y205.189
X205.649Y204.999
X205.648Y205.213
X205.647Y205.427
X204.841Y206.287
X204.036Y207.146
X203.362
X202.689
X201.986Y206.794
X201.284Y206.441
X200.490Y206.021
X199.697Y205.600
X198.064Y204.796
X196.432Y203.992
X195.683Y203.848
X194.934Y203.704
X195.728Y204.004
X196.522Y204.305
X196.939Y204.667
X197.357Y205.030
X197.617
X197.878
X198.923Y205.535
X199.968Y206.040
X201.222Y207.207
X202.475Y208.374
Y208.762
Y209.149
X201.829Y209.934
X201.182Y210.718
X200.032Y212.174
X198.882Y213.629
X198.297Y213.890
X197.712Y214.151
Y214.723
Y215.296
X196.774Y216.234
X195.835Y217.173
X195.318Y217.337
X194.802Y217.501
Y217.748
Y217.994
X194.397
X193.992
X193.839Y218.391
X193.687Y218.788
X193.351
X193.015
X192.674Y219.198
X192.334Y219.608
X191.279Y219.529
X190.225Y219.450
X189.705Y218.751
X189.186Y218.053
X189.467Y215.708
X189.748Y213.364
X189.913Y212.438
X190.079Y211.512
X190.233Y211.115
X190.388Y210.718
X190.364Y210.575
X190.341Y210.432
X191.251Y210.538
X192.161Y210.645
X192.306Y210.880
X192.452Y211.115
X192.989
X193.527
X194.802Y212.438
X196.077Y213.761
X196.828Y213.761
X197.580Y213.761
X196.607Y212.901
X195.634Y212.041
X193.356Y210.983
X191.077Y209.925
X191.218Y208.469
X191.359Y207.014
X191.389Y206.421
X191.419Y205.827
X191.655Y205.973
X191.892Y206.119
Y205.590
Y205.061
X192.174Y204.886
X192.457Y204.712
X192.318Y204.350
X192.179Y203.988
X192.437Y203.829
X192.694Y203.670
X192.553Y203.442
X192.412Y203.214
X192.722Y203.023
X193.032Y202.831
X192.843Y203.137
X192.654Y203.442
X193.231
X193.808
X193.509Y203.081
X193.209Y202.720
X193.278Y201.784
X193.347Y200.848
X193.524Y200.957
X193.701Y201.066
X194.021Y200.071
X194.342Y199.077
X194.595Y198.757
X194.847Y198.438
X194.707Y198.211
X194.566Y197.983
X195.327Y197.533
X196.088Y197.084
X196.255Y197.353
X196.421Y197.621
X196.868Y197.614
X197.315Y197.607
X196.588Y197.156
X195.860Y196.705
Y196.118
Y195.531
X196.219Y195.319
X196.577Y195.108
X197.280Y193.983
X197.984Y192.859
X197.782Y192.851
X197.580Y192.842
X198.094Y192.454
X198.607Y192.065
X198.828
G1Z-1.500F304.8
G1X199.048F1016.0
X199.311Y192.793
X199.575Y193.520
X199.865Y194.182
X200.154Y194.843
X200.389Y195.240
X200.624Y195.637
X200.898Y196.278
X201.173Y196.920
X201.824Y197.522
X202.474Y198.125
Y198.382
Y198.638
X203.731Y199.839
X204.988Y201.040
X205.393Y201.381
X205.798Y201.723
X206.517Y202.098
X207.237Y202.473
Y202.843
Y203.213
X206.577Y204.079
X205.917Y204.944
X206.114Y205.162
X206.311Y205.379
X205.980Y205.189
X205.649Y204.999
X205.648Y205.213
X205.647Y205.427
X204.841Y206.287
X204.036Y207.146
X203.362
X202.689
X201.986Y206.794
X201.284Y206.441
X200.490Y206.021
X199.697Y205.600
X198.064Y204.796
X196.432Y203.992
X195.683Y203.848
X194.934Y203.704
X195.728Y204.004
X196.522Y204.305
X196.939Y204.667
X197.357Y205.030
X197.617
X197.878
X198.923Y205.535
X199.968Y206.040
X201.222Y207.207
X202.475Y208.374
Y208.762
Y209.149
X201.829Y209.934
X201.182Y210.718
X200.032Y212.174
X198.882Y213.629
X198.297Y213.890
X197.712Y214.151
Y214.723
Y215.296
X196.774Y216.234
X195.835Y217.173
X195.318Y217.337
X194.802Y217.501
Y217.748
Y217.994
X194.397
X193.992
X193.839Y218.391
X193.687Y218.788
X193.351
X193.015
X192.674Y219.198
X192.334Y219.608
X191.279Y219.529
X190.225Y219.450
X189.705Y218.751
X189.186Y218.053
X189.467Y215.708
X189.748Y213.364
X189.913Y212.438
X190.079Y211.512
X190.233Y211.115
X190.388Y210.718
X190.364Y210.575
X190.341Y210.432
X191.251Y210.538
X192.161Y210.645
X192.306Y210.880
X192.452Y211.115
X192.989
X193.527
X194.802Y212.438
X196.077Y213.761
X196.828Y213.761
X197.580Y213.761
X196.607Y212.901
X195.634Y212.041
X193.356Y210.983
X191.077Y209.925
X191.218Y208.469
X191.359Y207.014
X191.389Y206.421
X191.419Y205.827
X191.655Y205.973
X191.892Y206.119
Y205.590
Y205.061
X192.174Y204.886
X192.457Y204.712
X192.318Y204.350
X192.179Y203.988
X192.437Y203.829
X192.694Y203.670
X192.553Y203.442
X192.412Y203.214
X192.722Y203.023
X193.032Y202.831
X192.843Y203.137
X192.654Y203.442
X193.231
X193.808
X193.509Y203.081
X193.209Y202.720
X193.278Y201.784
X193.347Y200.848
X193.524Y200.957
X193.701Y201.066
X194.021Y200.071
X194.342Y199.077
X194.595Y198.757
X194.847Y198.438
X194.707Y198.211
X194.566Y197.983
X195.327Y197.533
X196.088Y197.084
X196.255Y197.353
X196.421Y197.621
X196.868Y197.614
X197.315Y197.607
X196.588Y197.156
X195.860Y196.705
Y196.118
Y195.531
X196.219Y195.319
X196.577Y195.108
X197.280Y193.983
X197.984Y192.859
X197.782Y192.851
X197.580Y192.842
X198.094Y192.454
X198.607Y192.065
X198.828
G0Z5.080
G0X203.570Y183.336
G1Z-0.750F304.8
G1X203.740Y183.334F1016.0
X203.875Y184.194
X204.011Y185.054
X204.325Y186.244
X204.640Y187.435
X205.079Y188.350
X205.518Y189.266
X206.712Y190.512
X207.907Y191.759
X208.697Y191.933
X209.486Y192.106
X210.034Y192.370
X210.582Y192.633
X213.077Y192.507
X215.572Y192.382
X217.687Y192.068
X219.803Y191.753
X219.976Y191.474
X220.149Y191.194
X223.360Y191.166
X226.571Y191.139
X226.760Y191.434
X226.949Y191.729
X227.496Y191.900
X228.044Y192.070
X229.745Y193.734
X231.447Y195.397
X232.637Y196.806
X233.828Y198.215
X233.927Y198.480
X234.026Y198.746
X235.536Y200.256
X237.046Y201.766
X235.966Y202.057
X234.886Y202.348
X232.545Y202.487
X230.205Y202.626
X229.883Y202.893
X229.562Y203.160
X226.990Y203.341
X224.417Y203.522
X224.278Y203.747
X224.139Y203.971
X219.657
X215.175
Y203.744
Y203.516
X213.786Y203.370
X212.397Y203.223
X211.603Y202.805
X210.809Y202.387
X210.346Y202.386
X209.883Y202.384
Y202.131
Y201.879
X208.957Y201.705
X208.031Y201.531
Y201.296
Y201.061
X207.595
X207.159
X205.214Y199.097
X203.269Y197.133
Y196.738
Y196.343
X203.041Y196.255
X202.814Y196.166
X201.851Y194.154
X200.887Y192.142
Y191.722
Y191.303
X200.589Y191.118
X200.290Y190.934
X200.721Y190.693
X201.152Y190.451
Y189.816
Y189.181
X200.698Y188.927
X200.244Y188.673
X200.590Y187.922
X200.937Y187.170
X201.508Y186.082
X202.078Y184.993
X202.739Y184.166
X203.401Y183.339
X203.570Y183.336
G1Z-1.500F304.8
G1X203.740Y183.334F1016.0
X203.875Y184.194
X204.011Y185.054
X204.325Y186.244
X204.640Y187.435
X205.079Y188.350
X205.518Y189.266
X206.712Y190.512
X207.907Y191.759
X208.697Y191.933
X209.486Y192.106
X210.034Y192.370
X210.582Y192.633
X213.077Y192.507
X215.572Y192.382
X217.687Y192.068
X219.803Y191.753
X219.976Y191.474
X220.149Y191.194
X223.360Y191.166
X226.571Y191.139
X226.760Y191.434
X226.949Y191.729
X227.496Y191.900
X228.044Y192.070
X229.745Y193.734
X231.447Y195.397
X232.637Y196.806
X233.828Y198.215
X233.927Y198.480
X234.026Y198.746
X235.536Y200.256
X237.046Y201.766
X235.966Y202.057
X234.886Y202.348
X232.545Y202.487
X230.205Y202.626
X229.883Y202.893
X229.562Y203.160
X226.990Y203.341
X224.417Y203.522
X224.278Y203.747
X224.139Y203.971
X219.657
X215.175
Y203.744
Y203.516
X213.786Y203.370
X212.397Y203.223
X211.603Y202.805
X210.809Y202.387
X210.346Y202.386
X209.883Y202.384
Y202.131
Y201.879
X208.957Y201.705
X208.031Y201.531
Y201.296
Y201.061
X207.595
X207.159
X205.214Y199.097
X203.269Y197.133
Y196.738
Y196.343
X203.041Y196.255
X202.814Y196.166
X201.851Y194.154
X200.887Y192.142
Y191.722
Y191.303
X200.589Y191.118
X200.290Y190.934
X200.721Y190.693
X201.152Y190.451
Y189.816
Y189.181
X200.698Y188.927
X200.244Y188.673
X200.590Y187.922
X200.937Y187.170
X201.508Y186.082
X202.078Y184.993
X202.739Y184.166
X203.401Y183.339
X203.570Y183.336
G0Z5.080
G0X172.279Y163.490
G1Z-0.750F304.8
G1X172.511F1016.0
X172.668Y164.275
X172.824Y165.059
X173.627Y166.166
X174.429Y167.274
Y167.488
Y167.702
X175.157Y168.522
X175.884Y169.343
X178.036Y171.510
X180.187Y173.677
X181.001Y174.383
X181.815Y175.089
X182.355Y175.261
X182.896Y175.432
Y175.679
Y175.926
X183.301
X183.706
X183.849Y176.299
X183.992Y176.672
X184.635Y176.833
X185.277Y176.994
Y177.254
Y177.513
X185.552
X185.828
X186.677Y178.108
X187.526Y178.704
X187.659Y178.878
X187.792Y179.052
X188.825Y179.246
X189.858Y179.440
X190.544Y179.798
X191.230Y180.156
X192.171Y180.157
X193.113Y180.159
X193.596Y181.283
X194.080Y182.408
X194.534Y183.466
X194.989Y184.525
X195.158Y184.921
X195.328Y185.318
X195.573Y185.715
X195.817Y186.112
X196.382Y187.303
X196.946Y188.493
X197.298Y189.110
X197.650Y189.727
X197.359Y190.499
X197.067Y191.271
X196.861
X196.654
Y191.559
Y191.846
X195.268Y193.874
X193.882Y195.902
X193.701Y196.037
X193.521Y196.172
X193.344Y196.877
X193.167Y197.583
X192.851Y197.704
X192.536Y197.825
X191.949Y197.350
X191.362Y196.875
Y196.587
Y196.299
X191.120
X190.879
X189.996Y194.909
X189.114Y193.520
X189.007Y193.268
X188.901Y193.015
X188.401Y192.479
X187.901Y191.942
X187.209Y190.747
X186.517Y189.552
X185.368Y188.027
X184.219Y186.503
Y186.401
Y186.299
X183.491Y185.444
X182.763Y184.589
X181.440Y183.205
X180.118Y181.820
X178.530Y180.755
X176.943Y179.690
X175.700Y179.131
X174.458Y178.571
X173.936
X173.415
X173.312Y178.264
X173.210Y177.957
X169.652Y177.976
X166.095Y177.994
X165.301Y178.414
X164.507Y178.833
X164.110Y178.839
X163.713Y178.845
X163.154Y179.436
X162.595Y180.027
X162.030Y181.081
X161.464Y182.136
X161.455Y184.124
X161.446Y186.112
X160.935Y185.054
X160.424Y183.995
X160.415Y183.056
X160.406Y182.117
X160.075Y181.785
X159.745Y181.453
X159.784Y178.927
X159.824Y176.402
X160.115Y176.111
X160.406Y175.820
Y175.186
Y174.552
X160.862Y173.717
X161.317Y172.883
X162.201Y171.366
X163.085Y169.849
X164.127Y168.796
X165.169Y167.744
X165.173Y167.535
X165.176Y167.327
X166.914Y166.136
X168.652Y164.945
X168.994Y164.628
X169.337Y164.311
X170.692Y164.131
X172.048Y163.951
Y163.721
Y163.490
X172.279Y163.490
G1Z-1.500F304.8
G1X172.511F1016.0
X172.668Y164.275
X172.824Y165.059
X173.627Y166.166
X174.429Y167.274
Y167.488
Y167.702
X175.157Y168.522
X175.884Y169.343
X178.036Y171.510
X180.187Y173.677
X181.001Y174.383
X181.815Y175.089
X182.355Y175.261
X182.896Y175.432
Y175.679
Y175.926
X183.301
X183.706
X183.849Y176.299
X183.992Y176.672
X184.635Y176.833
X185.277Y176.994
Y177.254
Y177.513
X185.552
X185.828
X186.677Y178.108
X187.526Y178.704
X187.659Y178.878
X187.792Y179.052
X188.825Y179.246
X189.858Y179.440
X190.544Y179.798
X191.230Y180.156
X192.171Y180.157
X193.113Y180.159
X193.596Y181.283
X194.080Y182.408
X194.534Y183.466
X194.989Y184.525
X195.158Y184.921
X195.328Y185.318
X195.573Y185.715
X195.817Y186.112
X196.382Y187.303
X196.946Y188.493
X197.298Y189.110
X197.650Y189.727
X197.359Y190.499
X197.067Y191.271
X196.861
X196.654
Y191.559
Y191.846
X195.268Y193.874
X193.882Y195.902
X193.701Y196.037
X193.521Y196.172
X193.344Y196.877
X193.167Y197.583
X192.851Y197.704
X192.536Y197.825
X191.949Y197.350
X191.362Y196.875
Y196.587
Y196.299
X191.120
X190.879
X189.996Y194.909
X189.114Y193.520
X189.007Y193.268
X188.901Y193.015
X188.401Y192.479
X187.901Y191.942
X187.209Y190.747
X186.517Y189.552
X185.368Y188.027
X184.219Y186.503
Y186.401
Y186.299
X183.491Y185.444
X182.763Y184.589
X181.440Y183.205
X180.118Y181.820
X178.530Y180.755
X176.943Y179.690
X175.700Y179.131
X174.458Y178.571
X173.936
X173.415
X173.312Y178.264
X173.210Y177.957
X169.652Y177.976
X166.095Y177.994
X165.301Y178.414
X164.507Y178.833
X164.110Y178.839
X163.713Y178.845
X163.154Y179.436
X162.595Y180.027
X162.030Y181.081
X161.464Y182.136
X161.455Y184.124
X161.446Y186.112
X160.935Y185.054
X160.424Y183.995
X160.415Y183.056
X160.406Y182.117
X160.075Y181.785
X159.745Y181.453
X159.784Y178.927
X159.824Y176.402
X160.115Y176.111
X160.406Y175.820
Y175.186
Y174.552
X160.862Y173.717
X161.317Y172.883
X162.201Y171.366
X163.085Y169.849
X164.127Y168.796
X165.169Y167.744
X165.173Y167.535
X165.176Y167.327
X166.914Y166.136
X168.652Y164.945
X168.994Y164.628
X169.337Y164.311
X170.692Y164.131
X172.048Y163.951
Y163.721
Y163.490
X172.279Y163.490
G0Z5.080
G0X154.281Y134.130
G1Z-0.750F304.8
G1X154.453Y134.138F1016.0
X154.903Y134.480
X155.354Y134.822
X155.203Y135.397
X155.053Y135.973
X154.819
X154.585
Y136.308
Y136.642
X154.023Y137.692
X153.460Y138.742
X153.148Y139.011
X152.835Y139.280
X152.123Y140.255
X151.410Y141.229
Y141.481
Y141.734
X150.286Y142.994
X149.161Y144.254
X147.697Y145.736
X146.233Y147.218
X145.367Y147.879
X144.502Y148.541
X143.947Y149.004
X143.392Y149.467
X143.064
X142.736
X142.606Y149.805
X142.476Y150.144
X141.457Y150.665
X140.438Y151.186
X140.084Y151.517
X139.731Y151.848
X139.221
X138.710
Y152.112
Y152.377
X138.408
X138.107
X136.887Y152.972
X135.668Y153.567
X135.533Y153.745
X135.398Y153.923
X134.673Y154.105
X133.948Y154.286
Y154.502
Y154.717
X133.154Y154.891
X132.360Y155.066
Y155.280
Y155.494
X131.434Y155.668
X130.508Y155.841
Y156.073
Y156.304
X129.714Y156.479
X128.921Y156.653
Y156.863
Y157.073
X127.862Y157.242
X126.804Y157.411
Y157.644
Y157.877
X126.079Y158.059
X125.354Y158.241
X125.219Y158.418
X125.084Y158.595
X124.235Y159.191
X123.386Y159.786
X123.139
X122.892
X122.740Y160.183
X122.587Y160.580
X122.182
X121.777
Y160.827
Y161.073
X121.239Y161.244
X120.702Y161.415
X120.003Y162.062
X119.305Y162.709
X118.740Y162.851
X118.176Y162.992
X117.013Y164.763
X115.850Y166.533
X115.535Y167.988
X115.219Y169.443
X115.023Y169.924
X114.827Y170.405
X115.107Y170.983
X115.386Y171.560
X115.519Y173.941
X115.651Y176.323
X116.067Y177.116
X116.482Y177.910
X116.484Y178.266
X116.486Y178.622
X117.076Y179.450
X117.665Y180.278
X116.720Y179.557
X115.775Y178.836
X115.509
X115.244
X114.608Y178.312
X113.972Y177.788
X113.653Y177.518
X113.333Y177.249
X113.078
X112.824
X111.612Y176.037
X110.401Y174.826
Y174.472
Y174.118
X110.202Y174.029
X110.004Y173.941
X109.408Y173.092
X108.813Y172.243
Y171.989
Y171.735
X108.350Y170.854
X107.887Y169.973
X107.688Y169.884
X107.489Y169.796
X107.324Y168.760
X107.158Y167.724
X106.948
X106.738
X106.555Y166.864
X106.371Y166.004
X106.071Y165.632
X105.770Y165.261
Y160.363
Y155.465
X106.101Y155.354
X106.432Y155.244
Y154.876
Y154.509
X107.014Y153.311
X107.596Y152.113
X107.786
X107.977
X108.152Y151.319
X108.326Y150.526
X108.564
X108.803
X108.968Y149.869
X109.132Y149.213
X109.593Y149.460
X110.054Y149.707
X112.476Y149.890
X114.898Y150.072
Y150.299
Y150.526
X118.488
X122.077
X122.565Y150.264
X123.053Y150.003
X125.335Y149.828
X127.616Y149.652
X127.751Y149.435
X127.885Y149.218
X129.197Y149.044
X130.509Y148.870
Y148.663
Y148.455
X131.567Y148.277
X132.626Y148.098
Y147.857
Y147.615
X133.369
X134.112
X134.626Y147.227
X135.139Y146.838
X135.531Y146.830
X135.923Y146.822
X137.383Y146.227
X138.843Y145.632
X138.931Y145.433
X139.020Y145.235
X139.334
X139.649
X141.055Y144.309
X142.461Y143.383
X142.561
X142.661
X143.453Y142.655
X144.244Y141.928
X145.205Y141.134
X146.167Y140.340
X147.962Y138.620
X149.758Y136.900
X150.498Y136.267
X151.239Y135.633
X152.675Y134.878
X154.111Y134.122
X154.281Y134.130
G1Z-1.500F304.8
G1X154.453Y134.138F1016.0
X154.903Y134.480
X155.354Y134.822
X155.203Y135.397
X155.053Y135.973
X154.819
X154.585
Y136.308
Y136.642
X154.023Y137.692
X153.460Y138.742
X153.148Y139.011
X152.835Y139.280
X152.123Y140.255
X151.410Y141.229
Y141.481
Y141.734
X150.286Y142.994
X149.161Y144.254
X147.697Y145.736
X146.233Y147.218
X145.367Y147.879
X144.502Y148.541
X143.947Y149.004
X143.392Y149.467
X143.064
X142.736
X142.606Y149.805
X142.476Y150.144
X141.457Y150.665
X140.438Y151.186
X140.084Y151.517
X139.731Y151.848
X139.221
X138.710
Y152.112
Y152.377
X138.408
X138.107
X136.887Y152.972
X135.668Y153.567
X135.533Y153.745
X135.398Y153.923
X134.673Y154.105
X133.948Y154.286
Y154.502
Y154.717
X133.154Y154.891
X132.360Y155.066
Y155.280
Y155.494
X131.434Y155.668
X130.508Y155.841
Y156.073
Y156.304
X129.714Y156.479
X128.921Y156.653
Y156.863
Y157.073
X127.862Y157.242
X126.804Y157.411
Y157.644
Y157.877
X126.079Y158.059
X125.354Y158.241
X125.219Y158.418
X125.084Y158.595
X124.235Y159.191
X123.386Y159.786
X123.139
X122.892
X122.740Y160.183
X122.587Y160.580
X122.182
X121.777
Y160.827
Y161.073
X121.239Y161.244
X120.702Y161.415
X120.003Y162.062
X119.305Y162.709
X118.740Y162.851
X118.176Y162.992
X117.013Y164.763
X115.850Y166.533
X115.535Y167.988
X115.219Y169.443
X115.023Y169.924
X114.827Y170.405
X115.107Y170.983
X115.386Y171.560
X115.519Y173.941
X115.651Y176.323
X116.067Y177.116
X116.482Y177.910
X116.484Y178.266
X116.486Y178.622
X117.076Y179.450
X117.665Y180.278
X116.720Y179.557
X115.775Y178.836
X115.509
X115.244
X114.608Y178.312
X113.972Y177.788
X113.653Y177.518
X113.333Y177.249
X113.078
X112.824
X111.612Y176.037
X110.401Y174.826
Y174.472
Y174.118
X110.202Y174.029
X110.004Y173.941
X109.408Y173.092
X108.813Y172.243
Y171.989
Y171.735
X108.350Y170.854
X107.887Y169.973
X107.688Y169.884
X107.489Y169.796
X107.324Y168.760
X107.158Y167.724
X106.948
X106.738
X106.555Y166.864
X106.371Y166.004
X106.071Y165.632
X105.770Y165.261
Y160.363
Y155.465
X106.101Y155.354
X106.432Y155.244
Y154.876
Y154.509
X107.014Y153.311
X107.596Y152.113
X107.786
X107.977
X108.152Y151.319
X108.326Y150.526
X108.564
X108.803
X108.968Y149.869
X109.132Y149.213
X109.593Y149.460
X110.054Y149.707
X112.476Y149.890
X114.898Y150.072
Y150.299
Y150.526
X118.488
X122.077
X122.565Y150.264
X123.053Y150.003
X125.335Y149.828
X127.616Y149.652
X127.751Y149.435
X127.885Y149.218
X129.197Y149.044
X130.509Y148.870
Y148.663
Y148.455
X131.567Y148.277
X132.626Y148.098
Y147.857
Y147.615
X133.369
X134.112
X134.626Y147.227
X135.139Y146.838
X135.531Y146.830
X135.923Y146.822
X137.383Y146.227
X138.843Y145.632
X138.931Y145.433
X139.020Y145.235
X139.334
X139.649
X141.055Y144.309
X142.461Y143.383
X142.561
X142.661
X143.453Y142.655
X144.244Y141.928
X145.205Y141.134
X146.167Y140.340
X147.962Y138.620
X149.758Y136.900
X150.498Y136.267
X151.239Y135.633
X152.675Y134.878
X154.111Y134.122
X154.281Y134.130
G0Z5.080
G0X193.791Y113.446
G1Z-0.750F304.8
G1X196.257Y113.540F1016.0
X196.389Y113.744
X196.522Y113.948
X197.712Y114.145
X198.903Y114.343
X199.035Y114.509
X199.168Y114.675
X200.094Y115.030
X201.020Y115.384
X202.012Y115.657
X203.004Y115.930
Y116.162
Y116.394
X203.534
X204.064
X204.923Y116.862
X205.782Y117.329
X207.171Y118.247
X208.560Y119.164
Y119.367
Y119.569
X208.925
X209.290
X210.416Y120.662
X211.541Y121.754
X212.432Y123.493
X213.323Y125.233
Y125.825
Y126.417
X213.587Y126.581
X213.852Y126.744
Y128.036
Y129.328
X213.622Y129.470
X213.392Y129.612
X213.219Y131.143
X213.046Y132.674
X205.156Y132.670
X197.266Y132.666
X196.887Y132.980
X196.508Y133.294
X195.060Y133.482
X193.611Y133.670
X193.451Y133.916
X193.291Y134.162
X192.128Y134.313
X190.965Y134.464
X190.444Y134.822
X189.922Y135.180
X189.319
X188.717
Y135.433
Y135.685
X187.790Y135.859
X186.864Y136.033
Y136.242
Y136.451
X186.137Y136.737
X185.409Y137.022
X183.954Y137.825
X182.499Y138.627
X181.359Y139.718
X180.218Y140.809
X179.639Y142.029
X179.059Y143.250
X179.106Y147.483
X179.152Y151.716
X179.962Y153.304
X180.772Y154.891
X180.775Y155.110
X180.778Y155.329
X181.538Y156.089
X182.299Y156.849
X183.446Y157.447
X184.594Y158.046
X185.010Y158.461
X185.426Y158.877
X186.277Y160.139
X187.128Y161.400
Y161.655
Y161.910
X187.376Y162.369
X187.623Y162.829
X188.016Y163.686
X188.408Y164.543
X188.587Y165.358
X188.766Y166.172
X189.136Y166.882
X189.506Y167.591
X189.508Y168.039
X189.510Y168.486
X189.740Y168.628
X189.970Y168.770
X190.145Y169.868
X190.321Y170.966
X190.709Y171.520
X191.098Y172.075
Y172.694
Y173.313
X191.522Y174.685
X191.946Y176.058
X192.297Y176.841
X192.648Y177.624
X192.512Y177.844
X192.376Y178.064
X191.803Y177.900
X191.230Y177.736
X190.381Y177.353
X189.533Y176.970
X189.374Y176.712
X189.214Y176.455
X188.742
X188.269
X187.791Y175.926
X187.312Y175.397
X186.956
X186.600
Y175.161
Y174.925
X185.938Y174.759
X185.277Y174.593
Y174.333
Y174.074
X184.989
X184.700
X183.885Y173.346
X183.070Y172.618
X182.072Y171.692
X181.073Y170.766
X180.032Y169.809
X178.990Y168.851
X177.575Y167.031
X176.160Y165.210
X176.002Y165.078
X175.843Y164.946
X175.381Y164.020
X174.919Y163.093
X174.499Y161.903
X174.079Y160.712
X173.877Y159.654
X173.675Y158.596
X173.366Y157.405
X173.057Y156.214
X173.168Y152.725
X173.278Y149.236
X173.554Y148.889
X173.831Y148.541
X173.972Y147.227
X174.112Y145.913
X174.403Y145.816
X174.694Y145.719
Y145.271
Y144.823
X175.506Y143.257
X176.318Y141.692
X177.159Y140.623
X178.001Y139.555
X178.477Y139.021
X178.954Y138.487
X179.668Y137.760
X180.382Y137.033
X180.572Y137.032
X180.761Y137.032
X181.573Y136.238
X182.385Y135.444
X182.709
X183.033
X183.702Y134.849
X184.370Y134.254
X185.210Y133.659
X186.049Y133.063
X186.165
X186.281
X187.142Y132.336
X188.004Y131.608
X190.042Y129.624
X192.081Y127.639
X192.912Y126.081
X193.744Y124.522
X193.746Y124.096
X193.748Y123.671
X194.138Y122.921
X194.529Y122.172
X194.575Y119.614
X194.620Y117.056
X193.666Y115.487
X192.712Y113.918
X192.018Y113.635
X191.325Y113.352
X193.791Y113.446
G1Z-1.500F304.8
G1X196.257Y113.540F1016.0
X196.389Y113.744
X196.522Y113.948
X197.712Y114.145
X198.903Y114.343
X199.035Y114.509
X199.168Y114.675
X200.094Y115.030
X201.020Y115.384
X202.012Y115.657
X203.004Y115.930
Y116.162
Y116.394
X203.534
X204.064
X204.923Y116.862
X205.782Y117.329
X207.171Y118.247
X208.560Y119.164
Y119.367
Y119.569
X208.925
X209.290
X210.416Y120.662
X211.541Y121.754
X212.432Y123.493
X213.323Y125.233
Y125.825
Y126.417
X213.587Y126.581
X213.852Y126.744
Y128.036
Y129.328
X213.622Y129.470
X213.392Y129.612
X213.219Y131.143
X213.046Y132.674
X205.156Y132.670
X197.266Y132.666
X196.887Y132.980
X196.508Y133.294
X195.060Y133.482
X193.611Y133.670
X193.451Y133.916
X193.291Y134.162
X192.128Y134.313
X190.965Y134.464
X190.444Y134.822
X189.922Y135.180
X189.319
X188.717
Y135.433
Y135.685
X187.790Y135.859
X186.864Y136.033
Y136.242
Y136.451
X186.137Y136.737
X185.409Y137.022
X183.954Y137.825
X182.499Y138.627
X181.359Y139.718
X180.218Y140.809
X179.639Y142.029
X179.059Y143.250
X179.106Y147.483
X179.152Y151.716
X179.962Y153.304
X180.772Y154.891
X180.775Y155.110
X180.778Y155.329
X181.538Y156.089
X182.299Y156.849
X183.446Y157.447
X184.594Y158.046
X185.010Y158.461
X185.426Y158.877
X186.277Y160.139
X187.128Y161.400
Y161.655
Y161.910
X187.376Y162.369
X187.623Y162.829
X188.016Y163.686
X188.408Y164.543
X188.587Y165.358
X188.766Y166.172
X189.136Y166.882
X189.506Y167.591
X189.508Y168.039
X189.510Y168.486
X189.740Y168.628
X189.970Y168.770
X190.145Y169.868
X190.321Y170.966
X190.709Y171.520
X191.098Y172.075
Y172.694
Y173.313
X191.522Y174.685
X191.946Y176.058
X192.297Y176.841
X192.648Y177.624
X192.512Y177.844
X192.376Y178.064
X191.803Y177.900
X191.230Y177.736
X190.381Y177.353
X189.533Y176.970
X189.374Y176.712
X189.214Y176.455
X188.742
X188.269
X187.791Y175.926
X187.312Y175.397
X186.956
X186.600
Y175.161
Y174.925
X185.938Y174.759
X185.277Y174.593
Y174.333
Y174.074
X184.989
X184.700
X183.885Y173.346
X183.070Y172.618
X182.072Y171.692
X181.073Y170.766
X180.032Y169.809
X178.990Y168.851
X177.575Y167.031
X176.160Y165.210
X176.002Y165.078
X175.843Y164.946
X175.381Y164.020
X174.919Y163.093
X174.499Y161.903
X174.079Y160.712
X173.877Y159.654
X173.675Y158.596
X173.366Y157.405
X173.057Y156.214
X173.168Y152.725
X173.278Y149.236
X173.554Y148.889
X173.831Y148.541
X173.972Y147.227
X174.112Y145.913
X174.403Y145.816
X174.694Y145.719
Y145.271
Y144.823
X175.506Y143.257
X176.318Y141.692
X177.159Y140.623
X178.001Y139.555
X178.477Y139.021
X178.954Y138.487
X179.668Y137.760
X180.382Y137.033
X180.572Y137.032
X180.761Y137.032
X181.573Y136.238
X182.385Y135.444
X182.709
X183.033
X183.702Y134.849
X184.370Y134.254
X185.210Y133.659
X186.049Y133.063
X186.165
X186.281
X187.142Y132.336
X188.004Y131.608
X190.042Y129.624
X192.081Y127.639
X192.912Y126.081
X193.744Y124.522
X193.746Y124.096
X193.748Y123.671
X194.138Y122.921
X194.529Y122.172
X194.575Y119.614
X194.620Y117.056
X193.666Y115.487
X192.712Y113.918
X192.018Y113.635
X191.325Y113.352
X193.791Y113.446
G0Z5.080
G0X230.653Y10.521
G1Z-0.750F304.8
G1X226.155Y10.413F1016.0
X222.715Y10.574
X219.276Y10.736
X217.185Y11.312
X215.093Y11.888
X213.896Y12.481
X212.698Y13.075
X211.027Y14.742
X209.356Y16.409
X209.189Y17.454
X209.022Y18.499
X208.816
X208.610
X208.420Y19.877
X208.231Y21.256
X208.017Y21.663
X207.803Y22.070
X207.499Y23.261
X207.195Y24.452
X206.945Y26.039
X206.694Y27.627
X206.469Y28.034
X206.244Y28.441
X206.049Y29.621
X205.855Y30.802
X205.650Y31.066
X205.446Y31.331
X205.253Y32.257
X205.060Y33.183
X204.855Y33.448
X204.651Y33.712
X204.466Y34.837
X204.280Y35.961
X204.039
X203.798
X203.796Y36.556
X203.794Y37.152
X203.408Y37.890
X203.023Y38.629
X202.851Y39.544
X202.680Y40.459
X202.474
X202.268
X202.095Y41.385
X201.921Y42.311
X201.692
X201.462
X201.277Y43.436
X201.091Y44.560
X200.887Y44.825
X200.683Y45.089
X200.499Y45.949
X200.315Y46.809
X200.091
X199.866
X199.679Y48.330
X199.492Y49.852
X199.328Y49.984
X199.165Y50.116
X198.714Y51.571
X198.263Y53.027
X198.094Y54.350
X197.924Y55.673
X197.676Y55.826
X197.428Y55.980
X197.273Y58.208
X197.119Y60.435
X197.730Y61.824
X198.340Y63.213
X198.555
X198.770
Y63.683
Y64.154
X199.215Y64.808
X199.659Y65.462
X199.149Y65.028
X198.638Y64.594
X197.447Y64.400
X196.256Y64.207
X196.096Y63.954
X195.935Y63.701
X192.392Y63.564
X188.848Y63.427
X187.393Y63.700
X185.938Y63.974
X184.747Y64.294
X183.556Y64.614
X182.723Y64.972
X181.889Y65.330
X181.334
X180.778
Y65.560
Y65.789
X179.727Y65.930
X178.676Y66.071
X178.253Y66.494
X177.830Y66.917
X177.121Y66.910
X176.413Y66.903
X175.108Y65.743
X173.804Y64.583
X172.727Y64.013
X171.650Y63.442
X170.460Y62.826
X169.269Y62.210
X168.872Y62.047
X168.475Y61.885
X167.703Y61.415
X166.930Y60.945
X166.115Y59.934
X165.300Y58.922
X165.371Y55.193
X165.443Y51.464
X165.664Y51.320
X165.886Y51.175
X166.027Y49.365
X166.169Y47.554
X166.462Y47.261
X166.755Y46.968
X166.757Y46.426
X166.759Y45.883
X167.117Y45.197
X167.475Y44.511
X167.657Y43.544
X167.838Y42.576
X168.091
X168.343
X168.352Y42.113
X168.361Y41.650
X168.873Y40.592
X169.384Y39.533
X169.393Y39.203
X169.402Y38.872
X169.666
X169.931
Y38.608
Y38.344
X170.735Y36.557
X171.539Y34.771
X171.926Y34.022
X172.312Y33.273
Y33.003
Y32.734
X172.733Y31.768
X173.154Y30.802
X173.659Y29.715
X174.164Y28.627
Y28.193
Y27.759
X174.366
X174.568
X174.829Y27.276
X175.090Y26.792
X175.482Y26.019
X175.873Y25.246
X176.044Y25.113
X176.215Y24.981
X176.777Y23.927
X177.339Y22.872
Y22.538
Y22.203
X177.592
X177.845
X178.018Y21.277
X178.192Y20.351
X178.397
X178.602
X178.771Y19.226
X178.939Y18.102
X178.959Y17.837
X178.979Y17.573
X179.214Y17.134
X179.449Y16.694
X179.057Y15.943
X178.666Y15.192
X178.664Y14.910
X178.662Y14.629
X177.336Y14.051
X176.011Y13.472
X174.977
X173.943
X173.833Y13.141
X173.723Y12.810
X166.278Y12.815
X158.834Y12.820
X158.508Y13.146
X158.183Y13.471
X157.669
X157.156
X155.936Y14.038
X154.717Y14.605
X153.795Y15.030
X152.873Y15.456
X152.519Y15.787
X152.165Y16.117
X151.986Y16.121
X151.806Y16.125
X150.880Y16.912
X149.954Y17.699
X149.669Y17.934
X149.384Y18.169
X148.743Y18.371
X148.102Y18.573
X146.912Y19.843
X145.721Y21.114
X145.401Y21.503
X145.081Y21.892
X144.909Y22.576
X144.738Y23.261
X144.502
X144.266
X144.264Y23.591
X144.262Y23.922
X143.891Y24.632
X143.521Y25.342
X143.343Y26.153
X143.165Y26.965
X142.921
X142.678
Y27.218
Y27.471
X141.898Y28.792
X141.119Y30.114
X140.943Y31.053
X140.767Y31.992
X140.565
X140.364
X140.191Y33.298
X140.018Y34.604
X139.630Y35.348
X139.241Y36.093
X139.239Y36.515
X139.237Y36.938
X138.830Y37.754
X138.422Y38.571
X137.656Y38.304
X136.890Y38.037
X136.248Y37.462
X135.606Y36.887
X135.107Y36.554
X134.607Y36.222
X134.210Y36.050
X133.813Y35.877
X131.432Y34.449
X129.051Y33.020
X128.522Y32.705
X127.992Y32.389
X127.860Y32.256
X127.728Y32.124
X126.537Y31.519
X125.347Y30.914
X124.950Y30.671
X124.553Y30.429
X123.494Y29.968
X122.436Y29.506
X122.304Y29.341
X122.172Y29.177
X120.964Y28.600
X119.756Y28.023
X119.461
X119.167
X118.817Y27.692
X118.467Y27.362
X117.248Y26.766
X116.028Y26.171
X115.610
X115.191
X115.047Y25.937
X114.902Y25.704
X113.378Y25.487
X111.853Y25.269
X111.059Y25.318
X110.265Y25.367
X110.794Y25.126
X111.324Y24.885
X110.728Y24.867
X110.133Y24.848
Y25.084
Y25.320
X109.486Y25.482
X108.839Y25.645
X106.311Y28.148
X103.783Y30.651
Y30.778
Y30.904
X102.858Y31.911
X101.933Y32.918
X101.932Y33.226
X101.931Y33.535
X101.733Y33.623
X101.535Y33.712
X100.797Y35.167
X100.060Y36.622
X99.408Y37.788
X98.756Y38.954
Y39.426
Y39.898
X98.492Y40.062
X98.227Y40.225
X98.226Y40.805
X98.224Y41.384
X97.799Y42.178
X97.375Y42.972
X97.348Y46.657
X97.321Y50.343
X97.642Y50.450
X97.963Y50.557
Y50.841
Y51.126
X98.944Y53.084
X99.925Y55.043
X101.429Y56.561
X102.932Y58.079
X105.044Y58.793
X107.155Y59.508
X107.718
X108.282
Y59.773
Y60.038
X108.679
X109.077
X110.064Y60.567
X111.052Y61.096
X111.386
X111.721
Y61.360
Y61.625
X112.231
X112.742
X113.104Y61.987
X113.466Y62.349
X114.006Y62.520
X114.546Y62.692
X115.448Y63.509
X116.351Y64.327
X117.013Y64.756
X117.674Y65.184
X117.886Y65.521
X118.097Y65.858
X118.388
X118.678
X121.362Y68.601
X124.045Y71.344
X124.696Y72.595
X125.347Y73.847
X126.899Y73.711
X128.451Y73.576
X128.738Y73.289
X129.025Y73.002
X130.147
X131.269
X131.418Y73.244
X131.568Y73.485
X132.625Y73.664
X133.682Y73.842
Y74.084
Y74.325
X134.116
X134.550
X135.769Y74.920
X136.989Y75.515
X137.121Y75.653
X137.253Y75.791
X137.967Y76.104
X138.681Y76.418
X139.104Y77.064
X139.528Y77.711
X139.349Y79.061
X139.170Y80.410
X138.939
X138.709
X138.707Y81.006
X138.705Y81.601
X138.334Y82.311
X137.964Y83.021
X137.787Y83.898
X137.609Y84.776
X137.187Y85.967
X136.765Y87.157
X136.566Y87.425
X136.367Y87.692
X136.175Y89.388
X135.983Y91.085
X135.627Y91.767
X135.272Y92.449
X135.270Y92.780
X135.268Y93.110
X135.143
X135.019
X134.002Y92.580
X132.984Y92.050
X131.935Y90.916
X130.886Y89.782
X130.364Y89.396
X129.842Y89.009
X128.057Y86.995
X126.272Y84.981
Y84.702
Y84.423
X126.063Y84.335
X125.854Y84.247
X125.005Y82.854
X124.155Y81.461
Y81.241
Y81.021
X123.692Y80.476
X123.229Y79.931
X122.832Y79.346
X122.435Y78.762
X121.518Y77.536
X120.601Y76.309
X120.327Y75.960
X120.054Y75.611
X119.591Y75.174
X119.128Y74.737
Y74.534
Y74.330
X116.965Y72.211
X114.803Y70.092
X114.621
X114.439
X113.507Y69.232
X112.575Y68.372
X111.778Y67.710
X110.981Y67.049
X110.138Y66.586
X109.295Y66.123
X109.007
X108.719
X108.291Y66.510
X107.863Y66.897
X106.905Y66.047
X105.946Y65.197
X105.284Y64.623
X104.621Y64.049
X104.003Y63.724
X103.385Y63.398
X103.253Y63.239
X103.121Y63.080
X101.401Y62.232
X99.681Y61.384
X98.887Y61.203
X98.094Y61.023
X97.829Y60.825
X97.564Y60.628
X96.638Y60.440
X95.712Y60.253
X94.389Y59.815
X93.067Y59.376
X92.934Y59.202
X92.801Y59.028
X91.806Y58.841
X90.812Y58.655
X90.676Y58.435
X90.541Y58.216
X89.356Y58.038
X88.172Y57.861
Y57.642
Y57.424
X86.915Y57.257
X85.658Y57.091
X85.129Y56.850
X84.600Y56.608
X79.592Y56.351
X74.585Y56.093
X71.658Y56.367
X68.730Y56.640
X68.595Y56.852
X68.460Y57.063
X67.071Y57.252
X65.682Y57.441
Y57.647
Y57.853
X64.359Y58.028
X63.036Y58.204
Y58.447
Y58.691
X62.107Y58.865
X61.178Y59.039
X61.033Y59.274
X60.888Y59.508
X60.441Y59.520
X59.994Y59.531
X58.142Y60.712
X56.289Y61.893
X55.913Y62.070
X55.536Y62.246
X55.030Y62.752
X54.523Y63.259
X53.620Y63.636
X52.718Y64.013
X52.721Y64.340
X52.725Y64.668
X52.867Y65.197
X53.009Y65.726
X53.710Y66.057
X54.411Y66.387
X55.019
X55.628
Y66.123
Y65.858
X58.935
X62.243
Y66.097
Y66.335
X63.632Y66.617
X65.021Y66.899
X66.524Y67.243
X68.028Y67.586
X68.222Y67.781
X68.416Y67.975
X69.364Y68.008
X70.312Y68.041
X68.888Y68.248
X67.464Y68.455
X67.300Y68.711
X67.137Y68.967
X66.220Y69.166
X65.303Y69.365
X64.897Y69.584
X64.491Y69.804
X62.479Y70.741
X60.467Y71.679
X60.167
X59.864
Y71.881
Y72.083
X58.591Y72.688
X57.317Y73.293
X56.618Y73.941
X55.919Y74.590
X55.668
X55.418
X54.429Y75.449
X53.440Y76.309
X51.691Y78.075
X49.943Y79.841
X49.281Y81.113
X48.620Y82.385
X48.355Y82.712
X48.090Y83.038
X47.760Y83.433
X47.429Y83.828
X47.420Y84.169
X47.411Y84.511
X46.900Y85.570
X46.389Y86.628
X46.380Y86.959
X46.371Y87.290
X46.106
X45.841
X45.840Y87.753
X45.838Y88.216
X45.440Y88.978
X45.043Y89.741
X44.906Y90.698
X44.768Y91.655
X44.683Y92.184
X44.598Y92.713
X44.363Y93.243
X44.127Y93.772
X44.124Y101.158
X44.122Y108.543
X44.452Y108.654
X44.783Y108.765
X44.792Y109.206
X44.801Y109.647
X45.312Y110.705
X45.824Y111.763
X45.833Y112.094
X45.842Y112.425
X46.070
X46.298
X47.130Y114.115
X47.962Y115.804
X48.820Y116.466
X49.678Y117.127
X50.340Y117.682
X51.001Y118.236
X51.274Y118.439
X51.546Y118.643
X52.861Y119.304
X54.176Y119.966
X54.311Y120.143
X54.446Y120.320
X55.237Y120.514
X56.028Y120.708
X56.160Y120.880
X56.293Y121.051
X57.548Y121.522
X58.803Y121.992
X60.855Y122.256
X62.907Y122.520
X64.948Y122.652
X66.988Y122.783
X67.652Y122.300
X68.315Y121.818
X68.323Y121.336
X68.331Y120.854
X67.988Y120.511
X67.645Y120.168
X66.996Y119.965
X66.347Y119.762
X66.215Y119.585
X66.082Y119.408
X65.024Y118.766
X63.966Y118.124
X63.320Y117.589
X62.674Y117.055
X62.129Y116.483
X61.584Y115.912
X60.585Y114.038
X59.586Y112.165
X59.573Y110.108
X59.559Y108.051
X60.277Y106.622
X60.995Y105.193
X61.738Y104.509
X62.481Y103.826
X62.892Y103.485
X63.303Y103.145
X65.078Y102.979
X66.854Y102.813
X66.336Y102.611
X65.818Y102.408
X67.604Y102.389
X69.390Y102.371
Y102.611
Y102.850
X70.779Y103.057
X72.168Y103.263
X72.366Y103.214
X72.565Y103.165
Y103.396
Y103.628
X73.399Y103.795
X74.234Y103.961
X75.383Y104.688
X76.532Y105.414
X76.533Y105.583
X76.533Y105.752
X77.453Y106.773
X78.373Y107.795
X78.379Y108.012
X78.385Y108.229
X78.782Y108.626
X79.179Y109.023
Y109.533
Y110.044
X79.432
X79.684
X79.858Y110.970
X80.032Y111.896
X80.237
X80.442
X80.619Y113.080
X80.797Y114.265
X81.015Y114.400
X81.233Y114.534
X81.418Y116.258
X81.602Y117.981
X81.820
X82.037
X82.222Y119.569
X82.406Y121.157
X82.620Y121.289
X82.834Y121.421
X83.015Y122.744
X83.197Y124.066
X83.414Y124.200
X83.631Y124.334
X83.809Y125.390
X83.988Y126.445
X84.206Y126.580
X84.425Y126.715
X84.612Y127.826
X84.800Y128.937
X85.561Y130.344
X86.323Y131.752
Y132.259
Y132.767
X86.604Y132.940
X86.885Y133.114
X87.144Y133.684
X87.404Y134.253
X87.765Y134.884
X88.127Y135.515
X88.376Y135.678
X88.625Y135.841
X89.318Y136.948
X90.011Y138.055
X90.492Y138.535
X90.973Y139.016
X91.704Y140.008
X92.435Y141.000
X92.752Y141.007
X93.070Y141.014
X93.849Y141.808
X94.629Y142.603
X95.238Y142.756
X95.848Y142.909
Y143.116
Y143.323
X96.573Y143.505
X97.298Y143.687
X97.433Y143.865
X97.568Y144.042
X99.682Y145.100
X101.796Y146.159
X102.148Y146.489
X102.500Y146.820
X103.143
X103.785
Y147.069
Y147.317
X104.976Y147.495
X106.167Y147.674
Y147.880
Y148.086
X106.894Y148.279
X107.622Y148.473
X107.225Y148.615
X106.828Y148.758
X106.506Y149.178
X106.184Y149.598
X105.249Y151.357
X104.314Y153.115
Y153.672
Y154.228
X104.071
X103.827
X103.670Y155.882
X103.513Y157.536
X103.393Y158.859
X103.274Y160.182
X103.100Y161.703
X102.926Y163.224
X103.202
X103.479
X103.663Y164.944
X103.847Y166.664
X104.081
X104.314
Y167.263
Y167.862
X104.844Y168.850
X105.373Y169.837
Y170.235
Y170.633
X105.616
X105.860
X106.034Y171.426
X106.209Y172.220
X106.452
X106.696
Y172.730
Y173.241
X107.081Y173.626
X107.466Y174.011
X108.053Y175.166
X108.640Y176.321
X109.726Y177.380
X110.812Y178.438
X111.856Y178.967
X112.899Y179.496
X113.171Y179.700
X113.443Y179.903
X114.078Y180.427
X114.714Y180.951
X115.181
X115.647
X115.736Y181.150
X115.824Y181.348
X117.043Y181.944
X118.263Y182.539
X119.072
X119.882
X120.300Y182.378
X120.719Y182.218
Y181.440
Y180.662
X120.092Y180.079
X119.466Y179.496
X118.902Y178.254
X118.337Y177.012
Y176.521
Y176.030
X118.007Y175.699
X117.676Y175.369
X117.679Y171.744
X117.682Y168.119
X118.080Y167.458
X118.479Y166.796
X119.003Y166.002
X119.528Y165.209
X120.162Y164.613
X120.796Y164.018
X121.041
X121.286
X121.654Y163.687
X122.023Y163.357
X122.363Y163.088
X122.703Y162.819
X125.358Y161.037
X128.012Y159.256
X128.313
X128.613
X129.495Y158.813
X130.376Y158.370
X131.078Y158.019
X131.780Y157.668
X132.203
X132.625
Y157.403
Y157.139
X132.956Y157.130
X133.286Y157.121
X134.345Y156.610
X135.403Y156.098
X135.734Y156.089
X136.064Y156.080
Y155.845
Y155.609
X136.726Y155.443
X137.387Y155.277
Y155.017
Y154.758
X137.746
X138.105
X140.896Y153.352
X143.687Y151.947
X144.539Y151.302
X145.392Y150.657
X145.887Y150.193
X146.383Y149.730
X146.513
X146.644
X147.372Y149.135
X148.101Y148.540
X149.689Y146.927
X151.278Y145.314
X152.204Y144.192
X153.130Y143.071
X153.390Y142.498
X153.650Y141.925
X153.985Y141.576
X154.321Y141.226
X154.325Y141.046
X154.329Y140.867
X155.118Y139.971
X155.908Y139.075
Y138.582
Y138.089
X156.172
X156.437
Y137.724
Y137.360
X156.834Y137.030
X157.231Y136.701
Y136.220
Y135.739
X157.958Y136.118
X158.686Y136.498
X159.017Y136.500
X159.347Y136.502
Y136.746
Y136.989
X160.141Y137.163
X160.935Y137.338
Y137.530
Y137.723
X162.059Y138.202
X163.184Y138.681
X163.942Y139.042
X164.700Y139.402
X165.992Y139.574
X167.285Y139.745
Y139.976
Y140.206
X170.286
X173.288
X173.726Y139.722
X174.164Y139.238
Y138.717
Y138.195
X173.846Y137.878
X173.529Y137.560
X172.804
X172.078
X171.908Y137.836
X171.738Y138.112
X170.768Y137.973
X169.798Y137.835
X167.946Y137.530
X166.094Y137.224
X165.962Y137.036
X165.830Y136.848
X165.036Y136.670
X164.242Y136.492
X162.522Y135.637
X160.802Y134.782
X160.670Y134.650
X160.538Y134.517
X159.318Y133.922
X158.099Y133.327
X157.819
X157.539
X157.451Y133.117
X157.363Y132.908
X156.305Y132.268
X155.246Y131.627
X154.076Y130.559
X152.906Y129.491
X150.761Y127.374
