(VECTRIC POST REV.)
(82074C4DCA892683619619E26FA56BD3)

G20 G21
G0Z20.320
G0X0.000Y0.000S18000M3
G0X41.582Y173.708
G0Z5.080
G1Z-0.750F304.8
G1X41.583Y171.412F1016.0
X38.200
X34.818
Y174.095
X34.793Y174.817
X34.761Y175.155
X34.715Y175.481
X34.654Y175.796
X34.578Y176.103
X34.485Y176.402
X34.375Y176.696
X34.247Y176.987
X34.101Y177.277
X33.935Y177.567
X33.749Y177.859
X33.314Y178.458
X32.788Y179.089
X32.000Y180.010
X31.355Y180.811
X30.919Y181.404
X30.800Y181.596
X30.759Y181.705
X30.815Y181.811
X30.976Y181.997
X31.566Y182.569
X32.440Y183.337
X33.508Y184.219
X34.378Y184.909
X35.064Y185.419
X35.350Y185.610
X35.605Y185.760
X35.833Y185.870
X36.040Y185.941
X36.231Y185.976
X36.410Y185.974
X36.582Y185.939
X36.753Y185.869
X36.926Y185.768
X37.108Y185.637
X37.516Y185.287
X37.798Y185.053
X38.086Y184.855
X38.378Y184.693
X38.673Y184.567
X38.969Y184.475
X39.264Y184.420
X39.557Y184.399
X39.846Y184.412
X40.130Y184.461
X40.406Y184.544
X40.674Y184.662
X40.932Y184.813
X41.177Y184.999
X41.409Y185.218
X41.626Y185.471
X41.826Y185.757
X42.004Y186.083
X42.067Y186.239
X42.111Y186.392
X42.136Y186.543
X42.142Y186.694
X42.128Y186.846
X42.094Y187.001
X42.040Y187.159
X41.965Y187.324
X41.752Y187.674
X41.451Y188.062
X41.059Y188.501
X39.565Y190.091
X42.255Y192.717
X44.945Y195.344
X46.639Y193.753
X47.189Y193.244
X47.625Y192.876
X47.811Y192.743
X47.980Y192.644
X48.138Y192.578
X48.288Y192.544
X48.434Y192.543
X48.581Y192.573
X48.731Y192.635
X48.891Y192.727
X49.251Y193.001
X49.694Y193.392
X49.993Y193.672
X50.252Y193.935
X50.472Y194.184
X50.652Y194.423
X50.792Y194.653
X50.892Y194.878
X50.953Y195.101
X50.973Y195.324
X50.954Y195.549
X50.895Y195.781
X50.796Y196.021
X50.658Y196.273
X50.479Y196.539
X50.261Y196.822
X50.003Y197.125
X49.706Y197.451
X48.359Y198.885
X51.041Y201.505
X51.905Y202.340
X52.581Y202.957
X52.861Y203.189
X53.111Y203.372
X53.334Y203.508
X53.537Y203.599
X53.724Y203.647
X53.901Y203.653
X54.073Y203.620
X54.245Y203.550
X54.424Y203.444
X54.613Y203.304
X55.044Y202.930
X55.336Y202.687
X55.632Y202.481
X55.931Y202.311
X56.231Y202.177
X56.532Y202.080
X56.831Y202.018
X57.128Y201.992
X57.420Y202.002
X57.706Y202.047
X57.984Y202.128
X58.254Y202.244
X58.513Y202.395
X58.760Y202.580
X58.993Y202.801
X59.212Y203.056
X59.414Y203.346
X59.592Y203.674
X59.654Y203.831
X59.697Y203.985
X59.720Y204.138
X59.723Y204.292
X59.707Y204.447
X59.669Y204.606
X59.610Y204.769
X59.530Y204.939
X59.303Y205.303
X58.984Y205.710
X58.569Y206.172
X56.998Y207.844
X59.212Y210.599
X60.043Y211.615
X60.710Y212.372
X60.992Y212.657
X61.247Y212.884
X61.479Y213.053
X61.692Y213.167
X61.891Y213.227
X62.080Y213.236
X62.263Y213.194
X62.446Y213.105
X62.632Y212.970
X62.827Y212.791
X63.033Y212.569
X63.257Y212.307
X63.475Y212.078
X63.717Y211.887
X63.978Y211.733
X64.255Y211.615
X64.544Y211.534
X64.843Y211.488
X65.147Y211.477
X65.453Y211.501
X65.758Y211.560
X66.058Y211.652
X66.349Y211.777
X66.629Y211.936
X66.893Y212.126
X67.138Y212.349
X67.361Y212.603
X67.558Y212.888
X67.748Y213.243
X67.814Y213.408
X67.858Y213.567
X67.881Y213.721
X67.882Y213.873
X67.860Y214.024
X67.815Y214.177
X67.745Y214.333
X67.650Y214.493
X67.529Y214.661
X67.382Y214.838
X67.006Y215.224
X66.516Y215.668
X64.729Y217.223
X66.516Y220.024
X66.963Y220.695
X67.377Y221.254
X67.761Y221.704
X68.118Y222.046
X68.286Y222.178
X68.449Y222.283
X68.606Y222.363
X68.758Y222.417
X68.905Y222.446
X69.047Y222.450
X69.184Y222.429
X69.318Y222.384
X69.557Y222.294
X69.846Y222.207
X70.532Y222.053
X71.287Y221.937
X72.024Y221.876
X72.482Y221.877
X72.860Y221.923
X73.022Y221.965
X73.167Y222.021
X73.297Y222.092
X73.411Y222.179
X73.512Y222.282
X73.600Y222.403
X73.676Y222.543
X73.742Y222.701
X73.845Y223.080
X73.917Y223.547
X73.949Y224.008
X73.927Y224.411
X73.894Y224.594
X73.846Y224.765
X73.782Y224.926
X73.702Y225.078
X73.604Y225.221
X73.489Y225.357
X73.356Y225.486
X73.204Y225.610
X72.841Y225.845
X72.395Y226.070
X72.161Y226.186
X71.943Y226.313
X71.740Y226.450
X71.554Y226.596
X71.384Y226.750
X71.230Y226.913
X71.092Y227.082
X70.970Y227.258
X70.863Y227.439
X70.773Y227.625
X70.698Y227.815
X70.639Y228.008
X70.596Y228.204
X70.568Y228.402
X70.556Y228.600
X70.560Y228.799
X70.579Y228.998
X70.614Y229.195
X70.664Y229.390
X70.729Y229.583
X70.810Y229.772
X70.906Y229.957
X71.018Y230.137
X71.144Y230.311
X71.286Y230.479
X71.443Y230.640
X71.615Y230.793
X71.802Y230.937
X72.004Y231.072
X72.222Y231.197
X72.454Y231.311
X72.701Y231.413
X73.458Y231.724
X73.764Y231.874
X74.024Y232.024
X74.237Y232.176
X74.405Y232.333
X74.529Y232.498
X74.609Y232.672
X74.645Y232.858
X74.640Y233.058
X74.593Y233.276
X74.506Y233.513
X74.378Y233.771
X74.212Y234.055
X73.766Y234.704
X73.449Y235.122
X73.179Y235.422
X73.052Y235.528
X72.924Y235.605
X72.792Y235.653
X72.651Y235.673
X72.498Y235.663
X72.328Y235.625
X72.137Y235.558
X71.922Y235.463
X71.402Y235.189
X70.735Y234.803
X70.061Y234.414
X69.523Y234.141
X69.291Y234.047
X69.077Y233.984
X68.875Y233.951
X68.679Y233.948
X68.484Y233.975
X68.284Y234.034
X68.075Y234.124
X67.849Y234.246
X67.329Y234.587
X66.680Y235.059
X66.106Y235.499
X65.668Y235.879
X65.497Y236.054
X65.357Y236.221
X65.247Y236.384
X65.165Y236.545
X65.111Y236.707
X65.083Y236.873
X65.080Y237.045
X65.100Y237.226
X65.144Y237.418
X65.210Y237.625
X65.402Y238.090
X65.566Y238.487
X65.690Y238.868
X65.775Y239.231
X65.821Y239.575
X65.828Y239.899
X65.798Y240.202
X65.731Y240.482
X65.628Y240.738
X65.489Y240.969
X65.315Y241.173
X65.106Y241.349
X64.865Y241.496
X64.589Y241.613
X64.282Y241.698
X63.943Y241.749
X63.572Y241.767
X63.094Y241.746
X62.886Y241.718
X62.697Y241.677
X62.525Y241.621
X62.370Y241.549
X62.229Y241.460
X62.103Y241.352
X61.988Y241.225
X61.885Y241.076
X61.791Y240.906
X61.706Y240.711
X61.556Y240.247
X61.424Y239.673
X61.285Y239.038
X61.141Y238.553
X61.060Y238.362
X60.970Y238.203
X60.868Y238.075
X60.751Y237.975
X60.618Y237.901
X60.465Y237.853
X60.290Y237.827
X60.089Y237.823
X59.862Y237.838
X59.604Y237.870
X58.989Y237.981
X58.106Y238.138
X57.192Y238.266
X56.355Y238.353
X55.704Y238.385
X55.364Y238.410
X55.218Y238.443
X55.086Y238.492
X54.969Y238.557
X54.866Y238.640
X54.775Y238.741
X54.697Y238.863
X54.630Y239.007
X54.575Y239.172
X54.494Y239.576
X54.449Y240.085
X54.435Y240.707
X54.419Y241.313
X54.365Y241.828
X54.272Y242.261
X54.208Y242.448
X54.133Y242.618
X54.046Y242.772
X53.946Y242.910
X53.833Y243.033
X53.706Y243.143
X53.565Y243.241
X53.409Y243.327
X53.050Y243.469
X52.686Y243.561
X52.334Y243.605
X51.996Y243.603
X51.674Y243.556
X51.371Y243.468
X51.088Y243.339
X50.827Y243.173
X50.592Y242.971
X50.383Y242.736
X50.204Y242.469
X50.056Y242.173
X49.941Y241.850
X49.861Y241.501
X49.819Y241.129
X49.817Y240.737
X49.857Y240.326
X49.918Y239.801
X49.926Y239.370
X49.908Y239.187
X49.873Y239.022
X49.820Y238.874
X49.749Y238.743
X49.659Y238.625
X49.548Y238.519
X49.416Y238.425
X49.261Y238.339
X48.878Y238.189
X48.393Y238.057
X46.829Y237.665
X45.507Y237.303
X45.361Y237.269
X45.216Y237.253
X45.074Y237.255
X44.932Y237.276
X44.792Y237.316
X44.653Y237.374
X44.515Y237.452
X44.378Y237.549
X44.106Y237.800
X43.835Y238.129
X43.564Y238.538
X43.291Y239.027
X43.068Y239.433
X42.843Y239.794
X42.617Y240.108
X42.389Y240.377
X42.159Y240.599
X41.927Y240.775
X41.693Y240.905
X41.458Y240.989
X41.220Y241.027
X40.980Y241.019
X40.738Y240.965
X40.494Y240.865
X40.247Y240.719
X39.999Y240.527
X39.748Y240.289
X39.494Y240.006
X39.248Y239.681
X39.077Y239.379
X39.019Y239.231
X38.981Y239.082
X38.962Y238.929
X38.963Y238.770
X38.983Y238.603
X39.023Y238.426
X39.162Y238.033
X39.381Y237.571
X39.682Y237.024
X40.026Y236.407
X40.259Y235.913
X40.331Y235.698
X40.371Y235.499
X40.379Y235.310
X40.353Y235.126
X40.292Y234.942
X40.195Y234.752
X40.061Y234.553
X39.888Y234.338
X39.421Y233.842
X38.786Y233.225
X38.202Y232.681
X37.711Y232.269
X37.493Y232.110
X37.291Y231.981
X37.100Y231.881
X36.920Y231.810
X36.745Y231.766
X36.575Y231.748
X36.406Y231.756
X36.235Y231.789
X36.060Y231.845
X35.877Y231.924
X35.480Y232.148
X35.141Y232.348
X34.813Y232.519
X34.497Y232.661
X34.193Y232.772
X33.901Y232.854
X33.621Y232.906
X33.353Y232.928
X33.097Y232.920
X32.853Y232.883
X32.622Y232.816
X32.402Y232.719
X32.195Y232.592
X32.000Y232.436
X31.817Y232.250
X31.647Y232.034
X31.489Y231.789
X31.123Y231.197
X31.001Y231.046
X30.953Y231.007
X30.912Y230.991
X30.878Y230.999
X30.851Y231.030
X30.812Y231.165
X30.790Y231.393
X30.779Y231.714
X30.799Y231.967
X30.865Y232.261
X30.973Y232.587
X31.117Y232.932
X31.292Y233.287
X31.494Y233.642
X31.717Y233.984
X31.958Y234.304
X33.158Y235.786
X34.430Y234.379
X34.711Y234.083
X34.982Y233.823
X35.244Y233.601
X35.499Y233.415
X35.747Y233.266
X35.989Y233.154
X36.226Y233.078
X36.458Y233.039
X36.686Y233.036
X36.911Y233.070
X37.133Y233.140
X37.354Y233.246
X37.574Y233.388
X37.794Y233.567
X38.014Y233.781
X38.236Y234.032
X38.473Y234.347
X38.636Y234.644
X38.689Y234.791
X38.723Y234.941
X38.738Y235.094
X38.734Y235.254
X38.710Y235.422
X38.667Y235.601
X38.520Y235.998
X38.292Y236.463
X37.981Y237.011
X37.541Y237.788
X37.180Y238.483
X36.936Y239.020
X36.870Y239.205
X36.847Y239.323
X36.864Y239.372
X36.915Y239.436
X37.110Y239.609
X37.418Y239.831
X37.825Y240.096
X38.885Y240.717
X40.178Y241.403
X43.510Y243.092
X43.951Y241.084
X44.051Y240.660
X44.157Y240.278
X44.270Y239.936
X44.392Y239.633
X44.523Y239.369
X44.664Y239.142
X44.818Y238.952
X44.986Y238.797
X45.168Y238.677
X45.366Y238.590
X45.581Y238.535
X45.815Y238.512
X46.069Y238.519
X46.343Y238.555
X46.640Y238.620
X46.961Y238.712
X47.129Y238.774
X47.285Y238.850
X47.431Y238.939
X47.567Y239.044
X47.692Y239.163
X47.808Y239.299
X47.914Y239.450
X48.010Y239.619
X48.098Y239.805
X48.176Y240.008
X48.308Y240.471
X48.408Y241.010
X48.477Y241.631
X48.685Y244.135
X52.194Y244.338
X55.703Y244.541
X55.915Y241.970
X55.990Y241.183
X56.085Y240.574
X56.146Y240.329
X56.218Y240.120
X56.306Y239.945
X56.410Y239.800
X56.534Y239.683
X56.680Y239.591
X56.850Y239.521
X57.048Y239.469
X57.274Y239.435
X57.533Y239.413
X58.156Y239.399
X58.762Y239.414
X59.016Y239.436
X59.240Y239.469
X59.436Y239.518
X59.607Y239.583
X59.755Y239.667
X59.882Y239.772
X59.990Y239.900
X60.081Y240.054
X60.158Y240.235
X60.222Y240.446
X60.323Y240.965
X60.400Y241.629
X60.495Y242.429
X60.560Y242.746
X60.644Y243.007
X60.756Y243.213
X60.825Y243.296
X60.903Y243.366
X60.992Y243.422
X61.092Y243.464
X61.204Y243.494
X61.330Y243.510
X61.623Y243.503
X61.980Y243.444
X62.406Y243.334
X62.910Y243.173
X63.498Y242.961
X64.178Y242.699
X65.840Y242.028
X66.440Y241.767
X66.918Y241.522
X67.281Y241.284
X67.422Y241.165
X67.536Y241.044
X67.625Y240.922
X67.690Y240.796
X67.731Y240.665
X67.749Y240.530
X67.746Y240.387
X67.722Y240.237
X67.677Y240.079
X67.614Y239.910
X67.214Y238.892
X67.060Y238.441
X66.938Y238.026
X66.847Y237.647
X66.788Y237.301
X66.761Y236.988
X66.765Y236.704
X66.801Y236.450
X66.869Y236.223
X66.970Y236.021
X67.102Y235.844
X67.267Y235.689
X67.464Y235.555
X67.694Y235.440
X67.956Y235.343
X68.339Y235.249
X68.711Y235.214
X68.895Y235.219
X69.078Y235.238
X69.261Y235.274
X69.443Y235.324
X69.809Y235.472
X70.181Y235.684
X70.560Y235.960
X70.952Y236.302
X71.437Y236.748
X71.823Y237.071
X71.988Y237.187
X72.137Y237.272
X72.274Y237.328
X72.404Y237.354
X72.527Y237.351
X72.649Y237.319
X72.772Y237.258
X72.899Y237.169
X73.178Y236.907
X73.514Y236.535
X73.994Y235.942
X74.458Y235.288
X74.892Y234.600
X75.281Y233.908
X75.609Y233.240
X75.862Y232.625
X75.956Y232.346
X76.025Y232.090
X76.068Y231.862
X76.083Y231.664
X76.075Y231.591
X76.052Y231.519
X75.963Y231.384
X75.822Y231.260
X75.636Y231.152
X75.410Y231.062
X75.152Y230.994
X74.867Y230.950
X74.561Y230.933
X74.221Y230.922
X73.899Y230.893
X73.596Y230.849
X73.311Y230.789
X73.046Y230.715
X72.799Y230.628
X72.572Y230.528
X72.365Y230.416
X72.177Y230.294
X72.009Y230.163
X71.861Y230.022
X71.733Y229.874
X71.626Y229.718
X71.540Y229.557
X71.474Y229.391
X71.429Y229.220
X71.405Y229.046
X71.403Y228.870
X71.422Y228.693
X71.463Y228.515
X71.526Y228.337
X71.611Y228.161
X71.718Y227.987
X71.848Y227.817
X72.000Y227.650
X72.175Y227.489
X72.373Y227.333
X72.595Y227.185
X72.839Y227.044
X73.107Y226.912
X73.399Y226.790
X73.715Y226.679
X74.521Y226.409
X75.215Y226.160
X75.723Y225.958
X75.970Y225.833
X75.986Y225.798
X75.988Y225.732
X75.950Y225.515
X75.861Y225.196
X75.727Y224.789
X75.339Y223.762
X74.825Y222.543
X74.579Y222.017
X74.327Y221.537
X74.072Y221.103
X73.814Y220.717
X73.554Y220.380
X73.295Y220.092
X73.037Y219.854
X72.782Y219.667
X72.531Y219.533
X72.285Y219.451
X72.047Y219.423
X71.817Y219.449
X71.597Y219.531
X71.388Y219.670
X71.192Y219.866
X71.009Y220.119
X70.854Y220.324
X70.668Y220.491
X70.455Y220.620
X70.220Y220.713
X69.968Y220.770
X69.701Y220.793
X69.425Y220.782
X69.144Y220.738
X68.862Y220.663
X68.584Y220.556
X68.312Y220.419
X68.053Y220.254
X67.810Y220.060
X67.588Y219.838
X67.390Y219.590
X67.221Y219.317
X67.003Y218.872
X66.925Y218.675
X66.870Y218.491
X66.838Y218.318
X66.831Y218.152
X66.849Y217.991
X66.894Y217.833
X66.965Y217.675
X67.065Y217.513
X67.195Y217.346
X67.355Y217.171
X67.769Y216.785
X68.317Y216.333
X70.204Y214.828
X68.013Y212.062
X67.192Y211.040
X66.537Y210.283
X66.258Y209.998
X66.003Y209.772
X65.767Y209.604
X65.543Y209.491
X65.327Y209.430
X65.112Y209.420
X64.892Y209.458
X64.663Y209.542
X64.417Y209.669
X64.150Y209.837
X63.528Y210.289
X63.179Y210.542
X62.849Y210.756
X62.539Y210.931
X62.246Y211.067
X61.970Y211.163
X61.709Y211.220
X61.462Y211.237
X61.229Y211.213
X61.007Y211.150
X60.796Y211.045
X60.594Y210.900
X60.401Y210.714
X60.215Y210.487
X60.035Y210.218
X59.860Y209.907
X59.688Y209.554
X59.461Y209.024
X59.313Y208.583
X59.270Y208.389
X59.249Y208.209
X59.251Y208.040
X59.276Y207.879
X59.324Y207.725
X59.397Y207.573
X59.494Y207.421
X59.617Y207.267
X59.943Y206.941
X60.379Y206.571
X60.960Y206.069
X61.437Y205.598
X61.620Y205.391
X61.758Y205.211
X61.846Y205.066
X61.877Y204.961
X61.826Y204.826
X61.682Y204.591
X61.454Y204.271
X61.152Y203.878
X60.367Y202.924
X59.409Y201.832
X56.941Y199.101
X55.319Y200.624
X54.872Y201.025
X54.477Y201.333
X54.121Y201.551
X53.955Y201.628
X53.794Y201.684
X53.638Y201.719
X53.485Y201.734
X53.333Y201.729
X53.181Y201.705
X53.028Y201.661
X52.871Y201.599
X52.545Y201.421
X52.255Y201.219
X52.000Y201.000
X51.779Y200.767
X51.593Y200.520
X51.442Y200.261
X51.326Y199.991
X51.246Y199.712
X51.201Y199.427
X51.191Y199.135
X51.217Y198.838
X51.278Y198.539
X51.376Y198.238
X51.510Y197.938
X51.680Y197.639
X51.886Y197.343
X52.129Y197.051
X52.503Y196.620
X52.642Y196.431
X52.749Y196.252
X52.819Y196.080
X52.852Y195.908
X52.845Y195.731
X52.798Y195.544
X52.707Y195.341
X52.571Y195.118
X52.388Y194.868
X52.156Y194.588
X51.539Y193.912
X50.703Y193.048
X48.084Y190.366
X46.650Y191.713
X46.021Y192.268
X45.738Y192.486
X45.472Y192.665
X45.220Y192.804
X44.980Y192.902
X44.748Y192.961
X44.522Y192.981
X44.300Y192.960
X44.077Y192.900
X43.852Y192.799
X43.622Y192.659
X43.383Y192.479
X43.133Y192.260
X42.870Y192.000
X42.590Y191.701
X42.199Y191.258
X41.925Y190.898
X41.833Y190.738
X41.772Y190.588
X41.742Y190.441
X41.743Y190.295
X41.777Y190.145
X41.843Y189.987
X41.942Y189.818
X42.075Y189.632
X42.443Y189.196
X42.951Y188.646
X44.543Y186.952
X41.916Y184.262
X39.289Y181.572
X37.790Y182.980
X37.472Y183.259
X37.152Y183.498
X36.832Y183.698
X36.514Y183.860
X36.197Y183.982
X35.885Y184.065
X35.577Y184.110
X35.275Y184.115
X34.980Y184.082
X34.693Y184.010
X34.417Y183.899
X34.150Y183.750
X33.896Y183.563
X33.655Y183.336
X33.428Y183.072
X33.217Y182.769
X33.037Y182.434
X32.977Y182.273
X32.937Y182.115
X32.918Y181.956
X32.921Y181.796
X32.947Y181.632
X32.995Y181.464
X33.067Y181.288
X33.163Y181.104
X33.431Y180.704
X33.802Y180.249
X34.283Y179.725
X34.707Y179.241
X35.081Y178.731
X35.406Y178.196
X35.683Y177.634
X35.910Y177.047
X36.087Y176.434
X36.215Y175.796
X36.294Y175.134
X36.369Y174.335
X36.462Y173.708
X36.520Y173.452
X36.588Y173.232
X36.667Y173.045
X36.760Y172.889
X36.868Y172.760
X36.993Y172.657
X37.137Y172.576
X37.301Y172.516
X37.488Y172.474
X37.699Y172.446
X38.200Y172.428
X38.695Y172.447
X38.904Y172.473
X39.090Y172.515
X39.253Y172.573
X39.397Y172.651
X39.523Y172.749
X39.632Y172.872
X39.725Y173.020
X39.806Y173.196
X39.874Y173.402
X39.933Y173.640
X40.027Y174.224
X40.101Y174.965
X40.311Y177.501
X43.950
X47.589
X47.799Y174.965
X47.873Y174.224
X47.966Y173.640
X48.025Y173.402
X48.094Y173.196
X48.174Y173.020
X48.268Y172.872
X48.377Y172.749
X48.502Y172.651
X48.646Y172.573
X48.810Y172.515
X48.996Y172.473
X49.205Y172.447
X49.700Y172.428
X50.195Y172.447
X50.404Y172.473
X50.590Y172.515
X50.754Y172.573
X50.898Y172.651
X51.023Y172.749
X51.132Y172.872
X51.226Y173.020
X51.306Y173.196
X51.375Y173.402
X51.433Y173.640
X51.527Y174.224
X51.601Y174.965
X51.811Y177.501
X55.110
X56.172Y177.495
X56.981Y177.459
X57.302Y177.424
X57.574Y177.373
X57.802Y177.303
X57.989Y177.212
X58.142Y177.097
X58.264Y176.954
X58.360Y176.782
X58.436Y176.577
X58.495Y176.336
X58.542Y176.057
X58.620Y175.371
X58.671Y174.985
X58.742Y174.623
X58.832Y174.284
X58.940Y173.969
X59.064Y173.678
X59.203Y173.410
X59.355Y173.167
X59.519Y172.948
X59.693Y172.753
X59.877Y172.582
X60.067Y172.435
X60.264Y172.313
X60.466Y172.215
X60.671Y172.142
X60.877Y172.093
X61.083Y172.069
X61.289Y172.070
X61.491Y172.096
X61.690Y172.146
X61.883Y172.222
X62.068Y172.323
X62.246Y172.449
X62.413Y172.600
X62.569Y172.777
X62.712Y172.979
X62.840Y173.206
X62.953Y173.460
X63.049Y173.738
X63.126Y174.043
X63.183Y174.374
X63.218Y174.730
X63.230Y175.112
Y177.501
X66.612
X67.687Y177.494
X68.506Y177.461
X68.831Y177.428
X69.105Y177.382
X69.333Y177.320
X69.518Y177.239
X69.666Y177.137
X69.780Y177.012
X69.865Y176.861
X69.926Y176.683
X69.965Y176.474
X69.989Y176.232
X70.005Y175.641
X70.018Y175.169
X70.051Y174.732
X70.105Y174.330
X70.180Y173.963
X70.276Y173.631
X70.393Y173.333
X70.532Y173.070
X70.692Y172.840
X70.874Y172.644
X71.079Y172.482
X71.305Y172.353
X71.554Y172.257
X71.825Y172.194
X72.119Y172.164
X72.437Y172.166
X72.777Y172.199
X73.229Y172.287
X73.423Y172.346
X73.598Y172.417
X73.754Y172.504
X73.892Y172.607
X74.015Y172.728
X74.122Y172.870
X74.217Y173.034
X74.298Y173.223
X74.369Y173.437
X74.430Y173.679
X74.528Y174.255
X74.602Y174.965
X74.667Y175.588
X74.750Y176.119
X74.848Y176.560
X74.958Y176.910
X75.076Y177.171
X75.200Y177.343
X75.264Y177.397
X75.327Y177.429
X75.390Y177.440
X75.453Y177.429
X75.515Y177.397
X75.576Y177.344
X75.692Y177.175
X75.799Y176.923
X75.893Y176.589
X75.972Y176.175
X76.031Y175.681
X76.070Y175.108
X76.083Y174.457
Y171.413
X72.743
X71.659Y171.419
X70.837Y171.453
X70.511Y171.489
X70.236Y171.540
X70.007Y171.611
X69.818Y171.704
X69.665Y171.822
X69.544Y171.969
X69.448Y172.147
X69.374Y172.359
X69.316Y172.608
X69.270Y172.898
X69.192Y173.612
X69.114Y174.263
X69.008Y174.778
X68.939Y174.990
X68.857Y175.175
X68.758Y175.335
X68.642Y175.472
X68.504Y175.589
X68.344Y175.687
X68.159Y175.770
X67.947Y175.839
X67.706Y175.896
X67.432Y175.944
X66.781Y176.022
X66.081Y176.081
X65.548Y176.090
X65.337Y176.068
X65.159Y176.025
X65.011Y175.959
X64.891Y175.866
X64.796Y175.744
X64.722Y175.589
X64.668Y175.399
X64.630Y175.171
X64.591Y174.590
X64.583Y173.824
Y171.413
X61.243
X60.159Y171.419
X59.336Y171.453
X59.011Y171.489
X58.736Y171.540
X58.506Y171.611
X58.318Y171.704
X58.165Y171.822
X58.043Y171.969
X57.948Y172.147
X57.874Y172.359
X57.816Y172.608
X57.769Y172.898
X57.691Y173.612
X57.615Y174.264
X57.515Y174.776
X57.450Y174.983
X57.373Y175.162
X57.282Y175.313
X57.174Y175.440
X57.047Y175.544
X56.899Y175.627
X56.728Y175.692
X56.531Y175.740
X56.307Y175.774
X56.054Y175.795
X55.450Y175.810
X54.846Y175.795
X54.369Y175.740
X54.172Y175.692
X54.001Y175.627
X53.853Y175.544
X53.726Y175.440
X53.618Y175.313
X53.527Y175.162
X53.450Y174.983
X53.385Y174.776
X53.285Y174.264
X53.209Y173.612
X53.131Y172.898
X53.084Y172.608
X53.026Y172.359
X52.952Y172.147
X52.857Y171.969
X52.735Y171.822
X52.582Y171.704
X52.394Y171.611
X52.164Y171.540
X51.889Y171.489
X51.564Y171.453
X50.741Y171.419
X49.657Y171.413
X46.317
Y173.735
X46.300Y174.320
X46.248Y174.824
X46.158Y175.254
X46.098Y175.443
X46.028Y175.614
X45.947Y175.770
X45.855Y175.909
X45.752Y176.034
X45.638Y176.145
X45.512Y176.242
X45.373Y176.326
X45.223Y176.397
X45.060Y176.456
X44.654Y176.569
X44.271Y176.642
X43.912Y176.677
X43.577Y176.672
X43.266Y176.629
X42.981Y176.548
X42.720Y176.429
X42.486Y176.272
X42.277Y176.079
X42.095Y175.848
X41.940Y175.581
X41.812Y175.278
X41.712Y174.938
X41.640Y174.564
X41.597Y174.153
X41.582Y173.708
G1Z-1.500F304.8
G1X41.583Y171.412F1016.0
X38.200
X34.818
Y174.095
X34.793Y174.817
X34.761Y175.155
X34.715Y175.481
X34.654Y175.796
X34.578Y176.103
X34.485Y176.402
X34.375Y176.696
X34.247Y176.987
X34.101Y177.277
X33.935Y177.567
X33.749Y177.859
X33.314Y178.458
X32.788Y179.089
X32.000Y180.010
X31.355Y180.811
X30.919Y181.404
X30.800Y181.596
X30.759Y181.705
X30.815Y181.811
X30.976Y181.997
X31.566Y182.569
X32.440Y183.337
X33.508Y184.219
X34.378Y184.909
X35.064Y185.419
X35.350Y185.610
X35.605Y185.760
X35.833Y185.870
X36.040Y185.941
X36.231Y185.976
X36.410Y185.974
X36.582Y185.939
X36.753Y185.869
X36.926Y185.768
X37.108Y185.637
X37.516Y185.287
X37.798Y185.053
X38.086Y184.855
X38.378Y184.693
X38.673Y184.567
X38.969Y184.475
X39.264Y184.420
X39.557Y184.399
X39.846Y184.412
X40.130Y184.461
X40.406Y184.544
X40.674Y184.662
X40.932Y184.813
X41.177Y184.999
X41.409Y185.218
X41.626Y185.471
X41.826Y185.757
X42.004Y186.083
X42.067Y186.239
X42.111Y186.392
X42.136Y186.543
X42.142Y186.694
X42.128Y186.846
X42.094Y187.001
X42.040Y187.159
X41.965Y187.324
X41.752Y187.674
X41.451Y188.062
X41.059Y188.501
X39.565Y190.091
X42.255Y192.717
X44.945Y195.344
X46.639Y193.753
X47.189Y193.244
X47.625Y192.876
X47.811Y192.743
X47.980Y192.644
X48.138Y192.578
X48.288Y192.544
X48.434Y192.543
X48.581Y192.573
X48.731Y192.635
X48.891Y192.727
X49.251Y193.001
X49.694Y193.392
X49.993Y193.672
X50.252Y193.935
X50.472Y194.184
X50.652Y194.423
X50.792Y194.653
X50.892Y194.878
X50.953Y195.101
X50.973Y195.324
X50.954Y195.549
X50.895Y195.781
X50.796Y196.021
X50.658Y196.273
X50.479Y196.539
X50.261Y196.822
X50.003Y197.125
X49.706Y197.451
X48.359Y198.885
X51.041Y201.505
X51.905Y202.340
X52.581Y202.957
X52.861Y203.189
X53.111Y203.372
X53.334Y203.508
X53.537Y203.599
X53.724Y203.647
X53.901Y203.653
X54.073Y203.620
X54.245Y203.550
X54.424Y203.444
X54.613Y203.304
X55.044Y202.930
X55.336Y202.687
X55.632Y202.481
X55.931Y202.311
X56.231Y202.177
X56.532Y202.080
X56.831Y202.018
X57.128Y201.992
X57.420Y202.002
X57.706Y202.047
X57.984Y202.128
X58.254Y202.244
X58.513Y202.395
X58.760Y202.580
X58.993Y202.801
X59.212Y203.056
X59.414Y203.346
X59.592Y203.674
X59.654Y203.831
X59.697Y203.985
X59.720Y204.138
X59.723Y204.292
X59.707Y204.447
X59.669Y204.606
X59.610Y204.769
X59.530Y204.939
X59.303Y205.303
X58.984Y205.710
X58.569Y206.172
X56.998Y207.844
X59.212Y210.599
X60.043Y211.615
X60.710Y212.372
X60.992Y212.657
X61.247Y212.884
X61.479Y213.053
X61.692Y213.167
X61.891Y213.227
X62.080Y213.236
X62.263Y213.194
X62.446Y213.105
X62.632Y212.970
X62.827Y212.791
X63.033Y212.569
X63.257Y212.307
X63.475Y212.078
X63.717Y211.887
X63.978Y211.733
X64.255Y211.615
X64.544Y211.534
X64.843Y211.488
X65.147Y211.477
X65.453Y211.501
X65.758Y211.560
X66.058Y211.652
X66.349Y211.777
X66.629Y211.936
X66.893Y212.126
X67.138Y212.349
X67.361Y212.603
X67.558Y212.888
X67.748Y213.243
X67.814Y213.408
X67.858Y213.567
X67.881Y213.721
X67.882Y213.873
X67.860Y214.024
X67.815Y214.177
X67.745Y214.333
X67.650Y214.493
X67.529Y214.661
X67.382Y214.838
X67.006Y215.224
X66.516Y215.668
X64.729Y217.223
X66.516Y220.024
X66.963Y220.695
X67.377Y221.254
X67.761Y221.704
X68.118Y222.046
X68.286Y222.178
X68.449Y222.283
X68.606Y222.363
X68.758Y222.417
X68.905Y222.446
X69.047Y222.450
X69.184Y222.429
X69.318Y222.384
X69.557Y222.294
X69.846Y222.207
X70.532Y222.053
X71.287Y221.937
X72.024Y221.876
X72.482Y221.877
X72.860Y221.923
X73.022Y221.965
X73.167Y222.021
X73.297Y222.092
X73.411Y222.179
X73.512Y222.282
X73.600Y222.403
X73.676Y222.543
X73.742Y222.701
X73.845Y223.080
X73.917Y223.547
X73.949Y224.008
X73.927Y224.411
X73.894Y224.594
X73.846Y224.765
X73.782Y224.926
X73.702Y225.078
X73.604Y225.221
X73.489Y225.357
X73.356Y225.486
X73.204Y225.610
X72.841Y225.845
X72.395Y226.070
X72.161Y226.186
X71.943Y226.313
X71.740Y226.450
X71.554Y226.596
X71.384Y226.750
X71.230Y226.913
X71.092Y227.082
X70.970Y227.258
X70.863Y227.439
X70.773Y227.625
X70.698Y227.815
X70.639Y228.008
X70.596Y228.204
X70.568Y228.402
X70.556Y228.600
X70.560Y228.799
X70.579Y228.998
X70.614Y229.195
X70.664Y229.390
X70.729Y229.583
X70.810Y229.772
X70.906Y229.957
X71.018Y230.137
X71.144Y230.311
X71.286Y230.479
X71.443Y230.640
X71.615Y230.793
X71.802Y230.937
X72.004Y231.072
X72.222Y231.197
X72.454Y231.311
X72.701Y231.413
X73.458Y231.724
X73.764Y231.874
X74.024Y232.024
X74.237Y232.176
X74.405Y232.333
X74.529Y232.498
X74.609Y232.672
X74.645Y232.858
X74.640Y233.058
X74.593Y233.276
X74.506Y233.513
X74.378Y233.771
X74.212Y234.055
X73.766Y234.704
X73.449Y235.122
X73.179Y235.422
X73.052Y235.528
X72.924Y235.605
X72.792Y235.653
X72.651Y235.673
X72.498Y235.663
X72.328Y235.625
X72.137Y235.558
X71.922Y235.463
X71.402Y235.189
X70.735Y234.803
X70.061Y234.414
X69.523Y234.141
X69.291Y234.047
X69.077Y233.984
X68.875Y233.951
X68.679Y233.948
X68.484Y233.975
X68.284Y234.034
X68.075Y234.124
X67.849Y234.246
X67.329Y234.587
X66.680Y235.059
X66.106Y235.499
X65.668Y235.879
X65.497Y236.054
X65.357Y236.221
X65.247Y236.384
X65.165Y236.545
X65.111Y236.707
X65.083Y236.873
X65.080Y237.045
X65.100Y237.226
X65.144Y237.418
X65.210Y237.625
X65.402Y238.090
X65.566Y238.487
X65.690Y238.868
X65.775Y239.231
X65.821Y239.575
X65.828Y239.899
X65.798Y240.202
X65.731Y240.482
X65.628Y240.738
X65.489Y240.969
X65.315Y241.173
X65.106Y241.349
X64.865Y241.496
X64.589Y241.613
X64.282Y241.698
X63.943Y241.749
X63.572Y241.767
X63.094Y241.746
X62.886Y241.718
X62.697Y241.677
X62.525Y241.621
X62.370Y241.549
X62.229Y241.460
X62.103Y241.352
X61.988Y241.225
X61.885Y241.076
X61.791Y240.906
X61.706Y240.711
X61.556Y240.247
X61.424Y239.673
X61.285Y239.038
X61.141Y238.553
X61.060Y238.362
X60.970Y238.203
X60.868Y238.075
X60.751Y237.975
X60.618Y237.901
X60.465Y237.853
X60.290Y237.827
X60.089Y237.823
X59.862Y237.838
X59.604Y237.870
X58.989Y237.981
X58.106Y238.138
X57.192Y238.266
X56.355Y238.353
X55.704Y238.385
X55.364Y238.410
X55.218Y238.443
X55.086Y238.492
X54.969Y238.557
X54.866Y238.640
X54.775Y238.741
X54.697Y238.863
X54.630Y239.007
X54.575Y239.172
X54.494Y239.576
X54.449Y240.085
X54.435Y240.707
X54.419Y241.313
X54.365Y241.828
X54.272Y242.261
X54.208Y242.448
X54.133Y242.618
X54.046Y242.772
X53.946Y242.910
X53.833Y243.033
X53.706Y243.143
X53.565Y243.241
X53.409Y243.327
X53.050Y243.469
X52.686Y243.561
X52.334Y243.605
X51.996Y243.603
X51.674Y243.556
X51.371Y243.468
X51.088Y243.339
X50.827Y243.173
X50.592Y242.971
X50.383Y242.736
X50.204Y242.469
X50.056Y242.173
X49.941Y241.850
X49.861Y241.501
X49.819Y241.129
X49.817Y240.737
X49.857Y240.326
X49.918Y239.801
X49.926Y239.370
X49.908Y239.187
X49.873Y239.022
X49.820Y238.874
X49.749Y238.743
X49.659Y238.625
X49.548Y238.519
X49.416Y238.425
X49.261Y238.339
X48.878Y238.189
X48.393Y238.057
X46.829Y237.665
X45.507Y237.303
X45.361Y237.269
X45.216Y237.253
X45.074Y237.255
X44.932Y237.276
X44.792Y237.316
X44.653Y237.374
X44.515Y237.452
X44.378Y237.549
X44.106Y237.800
X43.835Y238.129
X43.564Y238.538
X43.291Y239.027
X43.068Y239.433
X42.843Y239.794
X42.617Y240.108
X42.389Y240.377
X42.159Y240.599
X41.927Y240.775
X41.693Y240.905
X41.458Y240.989
X41.220Y241.027
X40.980Y241.019
X40.738Y240.965
X40.494Y240.865
X40.247Y240.719
X39.999Y240.527
X39.748Y240.289
X39.494Y240.006
X39.248Y239.681
X39.077Y239.379
X39.019Y239.231
X38.981Y239.082
X38.962Y238.929
X38.963Y238.770
X38.983Y238.603
X39.023Y238.426
X39.162Y238.033
X39.381Y237.571
X39.682Y237.024
X40.026Y236.407
X40.259Y235.913
X40.331Y235.698
X40.371Y235.499
X40.379Y235.310
X40.353Y235.126
X40.292Y234.942
X40.195Y234.752
X40.061Y234.553
X39.888Y234.338
X39.421Y233.842
X38.786Y233.225
X38.202Y232.681
X37.711Y232.269
X37.493Y232.110
X37.291Y231.981
X37.100Y231.881
X36.920Y231.810
X36.745Y231.766
X36.575Y231.748
X36.406Y231.756
X36.235Y231.789
X36.060Y231.845
X35.877Y231.924
X35.480Y232.148
X35.141Y232.348
X34.813Y232.519
X34.497Y232.661
X34.193Y232.772
X33.901Y232.854
X33.621Y232.906
X33.353Y232.928
X33.097Y232.920
X32.853Y232.883
X32.622Y232.816
X32.402Y232.719
X32.195Y232.592
X32.000Y232.436
X31.817Y232.250
X31.647Y232.034
X31.489Y231.789
X31.123Y231.197
X31.001Y231.046
X30.953Y231.007
X30.912Y230.991
X30.878Y230.999
X30.851Y231.030
X30.812Y231.165
X30.790Y231.393
X30.779Y231.714
X30.799Y231.967
X30.865Y232.261
X30.973Y232.587
X31.117Y232.932
X31.292Y233.287
X31.494Y233.642
X31.717Y233.984
X31.958Y234.304
X33.158Y235.786
X34.430Y234.379
X34.711Y234.083
X34.982Y233.823
X35.244Y233.601
X35.499Y233.415
X35.747Y233.266
X35.989Y233.154
X36.226Y233.078
X36.458Y233.039
X36.686Y233.036
X36.911Y233.070
X37.133Y233.140
X37.354Y233.246
X37.574Y233.388
X37.794Y233.567
X38.014Y233.781
X38.236Y234.032
X38.473Y234.347
X38.636Y234.644
X38.689Y234.791
X38.723Y234.941
X38.738Y235.094
X38.734Y235.254
X38.710Y235.422
X38.667Y235.601
X38.520Y235.998
X38.292Y236.463
X37.981Y237.011
X37.541Y237.788
X37.180Y238.483
X36.936Y239.020
X36.870Y239.205
X36.847Y239.323
X36.864Y239.372
X36.915Y239.436
X37.110Y239.609
X37.418Y239.831
X37.825Y240.096
X38.885Y240.717
X40.178Y241.403
X43.510Y243.092
X43.951Y241.084
X44.051Y240.660
X44.157Y240.278
X44.270Y239.936
X44.392Y239.633
X44.523Y239.369
X44.664Y239.142
X44.818Y238.952
X44.986Y238.797
X45.168Y238.677
X45.366Y238.590
X45.581Y238.535
X45.815Y238.512
X46.069Y238.519
X46.343Y238.555
X46.640Y238.620
X46.961Y238.712
X47.129Y238.774
X47.285Y238.850
X47.431Y238.939
X47.567Y239.044
X47.692Y239.163
X47.808Y239.299
X47.914Y239.450
X48.010Y239.619
X48.098Y239.805
X48.176Y240.008
X48.308Y240.471
X48.408Y241.010
X48.477Y241.631
X48.685Y244.135
X52.194Y244.338
X55.703Y244.541
X55.915Y241.970
X55.990Y241.183
X56.085Y240.574
X56.146Y240.329
X56.218Y240.120
X56.306Y239.945
X56.410Y239.800
X56.534Y239.683
X56.680Y239.591
X56.850Y239.521
X57.048Y239.469
X57.274Y239.435
X57.533Y239.413
X58.156Y239.399
X58.762Y239.414
X59.016Y239.436
X59.240Y239.469
X59.436Y239.518
X59.607Y239.583
X59.755Y239.667
X59.882Y239.772
X59.990Y239.900
X60.081Y240.054
X60.158Y240.235
X60.222Y240.446
X60.323Y240.965
X60.400Y241.629
X60.495Y242.429
X60.560Y242.746
X60.644Y243.007
X60.756Y243.213
X60.825Y243.296
X60.903Y243.366
X60.992Y243.422
X61.092Y243.464
X61.204Y243.494
X61.330Y243.510
X61.623Y243.503
X61.980Y243.444
X62.406Y243.334
X62.910Y243.173
X63.498Y242.961
X64.178Y242.699
X65.840Y242.028
X66.440Y241.767
X66.918Y241.522
X67.281Y241.284
X67.422Y241.165
X67.536Y241.044
X67.625Y240.922
X67.690Y240.796
X67.731Y240.665
X67.749Y240.530
X67.746Y240.387
X67.722Y240.237
X67.677Y240.079
X67.614Y239.910
X67.214Y238.892
X67.060Y238.441
X66.938Y238.026
X66.847Y237.647
X66.788Y237.301
X66.761Y236.988
X66.765Y236.704
X66.801Y236.450
X66.869Y236.223
X66.970Y236.021
X67.102Y235.844
X67.267Y235.689
X67.464Y235.555
X67.694Y235.440
X67.956Y235.343
X68.339Y235.249
X68.711Y235.214
X68.895Y235.219
X69.078Y235.238
X69.261Y235.274
X69.443Y235.324
X69.809Y235.472
X70.181Y235.684
X70.560Y235.960
X70.952Y236.302
X71.437Y236.748
X71.823Y237.071
X71.988Y237.187
X72.137Y237.272
X72.274Y237.328
X72.404Y237.354
X72.527Y237.351
X72.649Y237.319
X72.772Y237.258
X72.899Y237.169
X73.178Y236.907
X73.514Y236.535
X73.994Y235.942
X74.458Y235.288
X74.892Y234.600
X75.281Y233.908
X75.609Y233.240
X75.862Y232.625
X75.956Y232.346
X76.025Y232.090
X76.068Y231.862
X76.083Y231.664
X76.075Y231.591
X76.052Y231.519
X75.963Y231.384
X75.822Y231.260
X75.636Y231.152
X75.410Y231.062
X75.152Y230.994
X74.867Y230.950
X74.561Y230.933
X74.221Y230.922
X73.899Y230.893
X73.596Y230.849
X73.311Y230.789
X73.046Y230.715
X72.799Y230.628
X72.572Y230.528
X72.365Y230.416
X72.177Y230.294
X72.009Y230.163
X71.861Y230.022
X71.733Y229.874
X71.626Y229.718
X71.540Y229.557
X71.474Y229.391
X71.429Y229.220
X71.405Y229.046
X71.403Y228.870
X71.422Y228.693
X71.463Y228.515
X71.526Y228.337
X71.611Y228.161
X71.718Y227.987
X71.848Y227.817
X72.000Y227.650
X72.175Y227.489
X72.373Y227.333
X72.595Y227.185
X72.839Y227.044
X73.107Y226.912
X73.399Y226.790
X73.715Y226.679
X74.521Y226.409
X75.215Y226.160
X75.723Y225.958
X75.970Y225.833
X75.986Y225.798
X75.988Y225.732
X75.950Y225.515
X75.861Y225.196
X75.727Y224.789
X75.339Y223.762
X74.825Y222.543
X74.579Y222.017
X74.327Y221.537
X74.072Y221.103
X73.814Y220.717
X73.554Y220.380
X73.295Y220.092
X73.037Y219.854
X72.782Y219.667
X72.531Y219.533
X72.285Y219.451
X72.047Y219.423
X71.817Y219.449
X71.597Y219.531
X71.388Y219.670
X71.192Y219.866
X71.009Y220.119
X70.854Y220.324
X70.668Y220.491
X70.455Y220.620
X70.220Y220.713
X69.968Y220.770
X69.701Y220.793
X69.425Y220.782
X69.144Y220.738
X68.862Y220.663
X68.584Y220.556
X68.312Y220.419
X68.053Y220.254
X67.810Y220.060
X67.588Y219.838
X67.390Y219.590
X67.221Y219.317
X67.003Y218.872
X66.925Y218.675
X66.870Y218.491
X66.838Y218.318
X66.831Y218.152
X66.849Y217.991
X66.894Y217.833
X66.965Y217.675
X67.065Y217.513
X67.195Y217.346
X67.355Y217.171
X67.769Y216.785
X68.317Y216.333
X70.204Y214.828
X68.013Y212.062
X67.192Y211.040
X66.537Y210.283
X66.258Y209.998
X66.003Y209.772
X65.767Y209.604
X65.543Y209.491
X65.327Y209.430
X65.112Y209.420
X64.892Y209.458
X64.663Y209.542
X64.417Y209.669
X64.150Y209.837
X63.528Y210.289
X63.179Y210.542
X62.849Y210.756
X62.539Y210.931
X62.246Y211.067
X61.970Y211.163
X61.709Y211.220
X61.462Y211.237
X61.229Y211.213
X61.007Y211.150
X60.796Y211.045
X60.594Y210.900
X60.401Y210.714
X60.215Y210.487
X60.035Y210.218
X59.860Y209.907
X59.688Y209.554
X59.461Y209.024
X59.313Y208.583
X59.270Y208.389
X59.249Y208.209
X59.251Y208.040
X59.276Y207.879
X59.324Y207.725
X59.397Y207.573
X59.494Y207.421
X59.617Y207.267
X59.943Y206.941
X60.379Y206.571
X60.960Y206.069
X61.437Y205.598
X61.620Y205.391
X61.758Y205.211
X61.846Y205.066
X61.877Y204.961
X61.826Y204.826
X61.682Y204.591
X61.454Y204.271
X61.152Y203.878
X60.367Y202.924
X59.409Y201.832
X56.941Y199.101
X55.319Y200.624
X54.872Y201.025
X54.477Y201.333
X54.121Y201.551
X53.955Y201.628
X53.794Y201.684
X53.638Y201.719
X53.485Y201.734
X53.333Y201.729
X53.181Y201.705
X53.028Y201.661
X52.871Y201.599
X52.545Y201.421
X52.255Y201.219
X52.000Y201.000
X51.779Y200.767
X51.593Y200.520
X51.442Y200.261
X51.326Y199.991
X51.246Y199.712
X51.201Y199.427
X51.191Y199.135
X51.217Y198.838
X51.278Y198.539
X51.376Y198.238
X51.510Y197.938
X51.680Y197.639
X51.886Y197.343
X52.129Y197.051
X52.503Y196.620
X52.642Y196.431
X52.749Y196.252
X52.819Y196.080
X52.852Y195.908
X52.845Y195.731
X52.798Y195.544
X52.707Y195.341
X52.571Y195.118
X52.388Y194.868
X52.156Y194.588
X51.539Y193.912
X50.703Y193.048
X48.084Y190.366
X46.650Y191.713
X46.021Y192.268
X45.738Y192.486
X45.472Y192.665
X45.220Y192.804
X44.980Y192.902
X44.748Y192.961
X44.522Y192.981
X44.300Y192.960
X44.077Y192.900
X43.852Y192.799
X43.622Y192.659
X43.383Y192.479
X43.133Y192.260
X42.870Y192.000
X42.590Y191.701
X42.199Y191.258
X41.925Y190.898
X41.833Y190.738
X41.772Y190.588
X41.742Y190.441
X41.743Y190.295
X41.777Y190.145
X41.843Y189.987
X41.942Y189.818
X42.075Y189.632
X42.443Y189.196
X42.951Y188.646
X44.543Y186.952
X41.916Y184.262
X39.289Y181.572
X37.790Y182.980
X37.472Y183.259
X37.152Y183.498
X36.832Y183.698
X36.514Y183.860
X36.197Y183.982
X35.885Y184.065
X35.577Y184.110
X35.275Y184.115
X34.980Y184.082
X34.693Y184.010
X34.417Y183.899
X34.150Y183.750
X33.896Y183.563
X33.655Y183.336
X33.428Y183.072
X33.217Y182.769
X33.037Y182.434
X32.977Y182.273
X32.937Y182.115
X32.918Y181.956
X32.921Y181.796
X32.947Y181.632
X32.995Y181.464
X33.067Y181.288
X33.163Y181.104
X33.431Y180.704
X33.802Y180.249
X34.283Y179.725
X34.707Y179.241
X35.081Y178.731
X35.406Y178.196
X35.683Y177.634
X35.910Y177.047
X36.087Y176.434
X36.215Y175.796
X36.294Y175.134
X36.369Y174.335
X36.462Y173.708
X36.520Y173.452
X36.588Y173.232
X36.667Y173.045
X36.760Y172.889
X36.868Y172.760
X36.993Y172.657
X37.137Y172.576
X37.301Y172.516
X37.488Y172.474
X37.699Y172.446
X38.200Y172.428
X38.695Y172.447
X38.904Y172.473
X39.090Y172.515
X39.253Y172.573
X39.397Y172.651
X39.523Y172.749
X39.632Y172.872
X39.725Y173.020
X39.806Y173.196
X39.874Y173.402
X39.933Y173.640
X40.027Y174.224
X40.101Y174.965
X40.311Y177.501
X43.950
X47.589
X47.799Y174.965
X47.873Y174.224
X47.966Y173.640
X48.025Y173.402
X48.094Y173.196
X48.174Y173.020
X48.268Y172.872
X48.377Y172.749
X48.502Y172.651
X48.646Y172.573
X48.810Y172.515
X48.996Y172.473
X49.205Y172.447
X49.700Y172.428
X50.195Y172.447
X50.404Y172.473
X50.590Y172.515
X50.754Y172.573
X50.898Y172.651
X51.023Y172.749
X51.132Y172.872
X51.226Y173.020
X51.306Y173.196
X51.375Y173.402
X51.433Y173.640
X51.527Y174.224
X51.601Y174.965
X51.811Y177.501
X55.110
X56.172Y177.495
X56.981Y177.459
X57.302Y177.424
X57.574Y177.373
X57.802Y177.303
X57.989Y177.212
X58.142Y177.097
X58.264Y176.954
X58.360Y176.782
X58.436Y176.577
X58.495Y176.336
X58.542Y176.057
X58.620Y175.371
X58.671Y174.985
X58.742Y174.623
X58.832Y174.284
X58.940Y173.969
X59.064Y173.678
X59.203Y173.410
X59.355Y173.167
X59.519Y172.948
X59.693Y172.753
X59.877Y172.582
X60.067Y172.435
X60.264Y172.313
X60.466Y172.215
X60.671Y172.142
X60.877Y172.093
X61.083Y172.069
X61.289Y172.070
X61.491Y172.096
X61.690Y172.146
X61.883Y172.222
X62.068Y172.323
X62.246Y172.449
X62.413Y172.600
X62.569Y172.777
X62.712Y172.979
X62.840Y173.206
X62.953Y173.460
X63.049Y173.738
X63.126Y174.043
X63.183Y174.374
X63.218Y174.730
X63.230Y175.112
Y177.501
X66.612
X67.687Y177.494
X68.506Y177.461
X68.831Y177.428
X69.105Y177.382
X69.333Y177.320
X69.518Y177.239
X69.666Y177.137
X69.780Y177.012
X69.865Y176.861
X69.926Y176.683
X69.965Y176.474
X69.989Y176.232
X70.005Y175.641
X70.018Y175.169
X70.051Y174.732
X70.105Y174.330
X70.180Y173.963
X70.276Y173.631
X70.393Y173.333
X70.532Y173.070
X70.692Y172.840
X70.874Y172.644
X71.079Y172.482
X71.305Y172.353
X71.554Y172.257
X71.825Y172.194
X72.119Y172.164
X72.437Y172.166
X72.777Y172.199
X73.229Y172.287
X73.423Y172.346
X73.598Y172.417
X73.754Y172.504
X73.892Y172.607
X74.015Y172.728
X74.122Y172.870
X74.217Y173.034
X74.298Y173.223
X74.369Y173.437
X74.430Y173.679
X74.528Y174.255
X74.602Y174.965
X74.667Y175.588
X74.750Y176.119
X74.848Y176.560
X74.958Y176.910
X75.076Y177.171
X75.200Y177.343
X75.264Y177.397
X75.327Y177.429
X75.390Y177.440
X75.453Y177.429
X75.515Y177.397
X75.576Y177.344
X75.692Y177.175
X75.799Y176.923
X75.893Y176.589
X75.972Y176.175
X76.031Y175.681
X76.070Y175.108
X76.083Y174.457
Y171.413
X72.743
X71.659Y171.419
X70.837Y171.453
X70.511Y171.489
X70.236Y171.540
X70.007Y171.611
X69.818Y171.704
X69.665Y171.822
X69.544Y171.969
X69.448Y172.147
X69.374Y172.359
X69.316Y172.608
X69.270Y172.898
X69.192Y173.612
X69.114Y174.263
X69.008Y174.778
X68.939Y174.990
X68.857Y175.175
X68.758Y175.335
X68.642Y175.472
X68.504Y175.589
X68.344Y175.687
X68.159Y175.770
X67.947Y175.839
X67.706Y175.896
X67.432Y175.944
X66.781Y176.022
X66.081Y176.081
X65.548Y176.090
X65.337Y176.068
X65.159Y176.025
X65.011Y175.959
X64.891Y175.866
X64.796Y175.744
X64.722Y175.589
X64.668Y175.399
X64.630Y175.171
X64.591Y174.590
X64.583Y173.824
Y171.413
X61.243
X60.159Y171.419
X59.336Y171.453
X59.011Y171.489
X58.736Y171.540
X58.506Y171.611
X58.318Y171.704
X58.165Y171.822
X58.043Y171.969
X57.948Y172.147
X57.874Y172.359
X57.816Y172.608
X57.769Y172.898
X57.691Y173.612
X57.615Y174.264
X57.515Y174.776
X57.450Y174.983
X57.373Y175.162
X57.282Y175.313
X57.174Y175.440
X57.047Y175.544
X56.899Y175.627
X56.728Y175.692
X56.531Y175.740
X56.307Y175.774
X56.054Y175.795
X55.450Y175.810
X54.846Y175.795
X54.369Y175.740
X54.172Y175.692
X54.001Y175.627
X53.853Y175.544
X53.726Y175.440
X53.618Y175.313
X53.527Y175.162
X53.450Y174.983
X53.385Y174.776
X53.285Y174.264
X53.209Y173.612
X53.131Y172.898
X53.084Y172.608
X53.026Y172.359
X52.952Y172.147
X52.857Y171.969
X52.735Y171.822
X52.582Y171.704
X52.394Y171.611
X52.164Y171.540
X51.889Y171.489
X51.564Y171.453
X50.741Y171.419
X49.657Y171.413
X46.317
Y173.735
X46.300Y174.320
X46.248Y174.824
X46.158Y175.254
X46.098Y175.443
X46.028Y175.614
X45.947Y175.770
X45.855Y175.909
X45.752Y176.034
X45.638Y176.145
X45.512Y176.242
X45.373Y176.326
X45.223Y176.397
X45.060Y176.456
X44.654Y176.569
X44.271Y176.642
X43.912Y176.677
X43.577Y176.672
X43.266Y176.629
X42.981Y176.548
X42.720Y176.429
X42.486Y176.272
X42.277Y176.079
X42.095Y175.848
X41.940Y175.581
X41.812Y175.278
X41.712Y174.938
X41.640Y174.564
X41.597Y174.153
X41.582Y173.708
G0Z5.080
G0X42.935Y180.646
G1Z-0.750F304.8
G1X42.949Y180.718F1016.0
X42.992Y180.818
X43.159Y181.100
X43.432Y181.484
X43.803Y181.965
X44.821Y183.193
X46.167Y184.733
X47.797Y186.533
X49.666Y188.543
X51.728Y190.713
X53.938Y192.992
X57.133Y196.287
X60.085Y199.406
X61.473Y200.902
X62.802Y202.356
X64.072Y203.769
X65.286Y205.143
X66.442Y206.478
X67.543Y207.775
X68.588Y209.036
X69.578Y210.259
X70.514Y211.448
X71.396Y212.602
X72.225Y213.722
X73.001Y214.809
X73.725Y215.865
X74.399Y216.889
X75.021Y217.884
X75.593Y218.849
X76.116Y219.785
X76.590Y220.694
X77.016Y221.577
X77.394Y222.433
X77.725Y223.264
X78.009Y224.072
X78.248Y224.856
X78.441Y225.617
X78.590Y226.357
X78.694Y227.077
X78.756Y227.776
X78.774Y228.457
X78.747Y229.314
X78.672Y230.160
X78.551Y230.992
X78.385Y231.811
X78.175Y232.616
X77.920Y233.405
X77.622Y234.179
X77.283Y234.937
X76.901Y235.677
X76.479Y236.399
X76.017Y237.103
X75.516Y237.788
X74.977Y238.453
X74.400Y239.097
X73.786Y239.720
X73.136Y240.321
X72.452Y240.899
X71.732Y241.454
X70.980Y241.985
X70.194Y242.491
X69.376Y242.971
X68.527Y243.426
X67.648Y243.853
X66.739Y244.253
X65.801Y244.624
X64.835Y244.967
X63.842Y245.280
X62.822Y245.563
X61.777Y245.814
X60.707Y246.034
X59.612Y246.221
X58.494Y246.376
X57.266Y246.506
X56.035Y246.598
X54.805Y246.652
X53.578Y246.669
X52.359Y246.650
X51.150Y246.594
X49.954Y246.502
X48.775Y246.374
X47.616Y246.212
X46.480Y246.014
X45.371Y245.782
X44.290Y245.516
X43.243Y245.217
X42.231Y244.884
X41.259Y244.518
X40.329Y244.120
X39.503Y243.715
X38.659Y243.248
X37.804Y242.723
X36.945Y242.149
X36.087Y241.529
X35.238Y240.871
X34.404Y240.180
X33.592Y239.463
X32.807Y238.725
X32.058Y237.972
X31.350Y237.210
X30.690Y236.446
X30.084Y235.685
X29.540Y234.933
X29.063Y234.196
X28.660Y233.481
X28.195Y232.614
X27.987Y232.258
X27.791Y231.951
X27.603Y231.692
X27.419Y231.478
X27.237Y231.306
X27.052Y231.176
X26.861Y231.084
X26.661Y231.029
X26.447Y231.009
X26.218Y231.021
X25.968Y231.064
X25.695Y231.135
X25.063Y231.355
X24.823Y231.462
X24.616Y231.588
X24.441Y231.734
X24.298Y231.901
X24.187Y232.089
X24.108Y232.300
X24.062Y232.535
X24.048Y232.795
X24.067Y233.080
X24.117Y233.392
X24.200Y233.732
X24.316Y234.101
X24.463Y234.499
X24.643Y234.928
X25.101Y235.882
X25.399Y236.447
X25.714Y237.004
X26.043Y237.552
X26.388Y238.091
X26.747Y238.622
X27.122Y239.144
X27.511Y239.657
X27.914Y240.161
X28.333Y240.656
X28.765Y241.141
X29.212Y241.618
X29.672Y242.084
X30.147Y242.542
X30.635Y242.989
X31.137Y243.427
X31.652Y243.855
X32.181Y244.272
X32.723Y244.680
X33.278Y245.077
X33.846Y245.464
X34.427Y245.841
X35.020Y246.207
X35.626Y246.562
X36.244Y246.907
X36.874Y247.240
X37.517Y247.563
X38.171Y247.874
X38.838Y248.174
X39.516Y248.463
X40.205Y248.740
X41.618Y249.260
X42.120Y249.424
X42.651Y249.579
X43.793Y249.863
X45.031Y250.113
X46.349Y250.326
X47.734Y250.503
X49.171Y250.644
X50.646Y250.748
X52.143Y250.814
X53.650Y250.843
X55.150Y250.833
X56.631Y250.784
X58.077Y250.696
X59.475Y250.568
X60.809Y250.400
X62.065Y250.191
X62.660Y250.072
X63.230Y249.942
X64.387Y249.643
X65.512Y249.317
X66.604Y248.964
X67.664Y248.585
X68.691Y248.179
X69.685Y247.747
X70.645Y247.290
X71.571Y246.807
X72.462Y246.300
X73.320Y245.768
X74.142Y245.211
X74.930Y244.631
X75.682Y244.027
X76.398Y243.400
X77.078Y242.750
X77.722Y242.077
X78.329Y241.381
X78.900Y240.664
X79.433Y239.925
X79.929Y239.165
X80.387Y238.384
X80.806Y237.582
X81.188Y236.760
X81.530Y235.918
X81.834Y235.056
X82.098Y234.174
X82.323Y233.274
X82.507Y232.355
X82.652Y231.418
X82.756Y230.462
X82.819Y229.489
X82.841Y228.498
X82.825Y227.063
X82.801Y226.426
X82.763Y225.831
X82.709Y225.270
X82.637Y224.736
X82.546Y224.219
X82.433Y223.712
X82.296Y223.207
X82.133Y222.695
X81.942Y222.168
X81.722Y221.619
X81.183Y220.418
X80.501Y219.028
X79.820Y217.732
X79.058Y216.391
X78.216Y215.005
X77.295Y213.575
X76.295Y212.101
X75.217Y210.585
X74.063Y209.027
X72.831Y207.429
X71.524Y205.790
X70.141Y204.112
X68.684Y202.396
X67.152Y200.643
X65.548Y198.853
X63.870Y197.027
X62.121Y195.166
X60.300Y193.270
X51.590Y184.299
X63.256Y184.114
X66.596Y184.052
X69.267Y183.978
X71.348Y183.884
X72.191Y183.827
X72.915Y183.763
X73.531Y183.689
X74.047Y183.605
X74.475Y183.510
X74.822Y183.404
X75.100Y183.284
X75.317Y183.150
X75.484Y183.001
X75.610Y182.837
X75.740Y182.595
X75.844Y182.325
X75.921Y182.037
X75.971Y181.740
X75.993Y181.443
X75.984Y181.154
X75.945Y180.883
X75.873Y180.638
X75.783Y180.464
X75.640Y180.308
X75.430Y180.171
X75.137Y180.051
X74.743Y179.946
X74.234Y179.856
X73.592Y179.780
X72.801Y179.716
X71.846Y179.664
X70.711Y179.622
X67.832Y179.566
X64.035Y179.539
X59.192Y179.531
X54.287Y179.538
X50.471Y179.564
X47.610Y179.619
X46.496Y179.660
X45.570Y179.712
X44.815Y179.775
X44.216Y179.852
X43.755Y179.942
X43.415Y180.048
X43.180Y180.170
X43.096Y180.238
X43.033Y180.310
X42.987Y180.387
X42.957Y180.468
X42.935Y180.646
G1X42.935Y180.646Z-1.500F304.8
G1X42.949Y180.718F1016.0
X42.992Y180.818
X43.159Y181.100
X43.432Y181.484
X43.803Y181.965
X44.821Y183.193
X46.167Y184.733
X47.797Y186.533
X49.666Y188.543
X51.728Y190.713
X53.938Y192.992
X57.133Y196.287
X60.085Y199.406
X61.473Y200.902
X62.802Y202.356
X64.072Y203.769
X65.286Y205.143
X66.442Y206.478
X67.543Y207.775
X68.588Y209.036
X69.578Y210.259
X70.514Y211.448
X71.396Y212.602
X72.225Y213.722
X73.001Y214.809
X73.725Y215.865
X74.399Y216.889
X75.021Y217.884
X75.593Y218.849
X76.116Y219.785
X76.590Y220.694
X77.016Y221.577
X77.394Y222.433
X77.725Y223.264
X78.009Y224.072
X78.248Y224.856
X78.441Y225.617
X78.590Y226.357
X78.694Y227.077
X78.756Y227.776
X78.774Y228.457
X78.747Y229.314
X78.672Y230.160
X78.551Y230.992
X78.385Y231.811
X78.175Y232.616
X77.920Y233.405
X77.622Y234.179
X77.283Y234.937
X76.901Y235.677
X76.479Y236.399
X76.017Y237.103
X75.516Y237.788
X74.977Y238.453
X74.400Y239.097
X73.786Y239.720
X73.136Y240.321
X72.452Y240.899
X71.732Y241.454
X70.980Y241.985
X70.194Y242.491
X69.376Y242.971
X68.527Y243.426
X67.648Y243.853
X66.739Y244.253
X65.801Y244.624
X64.835Y244.967
X63.842Y245.280
X62.822Y245.563
X61.777Y245.814
X60.707Y246.034
X59.612Y246.221
X58.494Y246.376
X57.266Y246.506
X56.035Y246.598
X54.805Y246.652
X53.578Y246.669
X52.359Y246.650
X51.150Y246.594
X49.954Y246.502
X48.775Y246.374
X47.616Y246.212
X46.480Y246.014
X45.371Y245.782
X44.290Y245.516
X43.243Y245.217
X42.231Y244.884
X41.259Y244.518
X40.329Y244.120
X39.503Y243.715
X38.659Y243.248
X37.804Y242.723
X36.945Y242.149
X36.087Y241.529
X35.238Y240.871
X34.404Y240.180
X33.592Y239.463
X32.807Y238.725
X32.058Y237.972
X31.350Y237.210
X30.690Y236.446
X30.084Y235.685
X29.540Y234.933
X29.063Y234.196
X28.660Y233.481
X28.195Y232.614
X27.987Y232.258
X27.791Y231.951
X27.603Y231.692
X27.419Y231.478
X27.237Y231.306
X27.052Y231.176
X26.861Y231.084
X26.661Y231.029
X26.447Y231.009
X26.218Y231.021
X25.968Y231.064
X25.695Y231.135
X25.063Y231.355
X24.823Y231.462
X24.616Y231.588
X24.441Y231.734
X24.298Y231.901
X24.187Y232.089
X24.108Y232.300
X24.062Y232.535
X24.048Y232.795
X24.067Y233.080
X24.117Y233.392
X24.200Y233.732
X24.316Y234.101
X24.463Y234.499
X24.643Y234.928
X25.101Y235.882
X25.399Y236.447
X25.714Y237.004
X26.043Y237.552
X26.388Y238.091
X26.747Y238.622
X27.122Y239.144
X27.511Y239.657
X27.914Y240.161
X28.333Y240.656
X28.765Y241.141
X29.212Y241.618
X29.672Y242.084
X30.147Y242.542
X30.635Y242.989
X31.137Y243.427
X31.652Y243.855
X32.181Y244.272
X32.723Y244.680
X33.278Y245.077
X33.846Y245.464
X34.427Y245.841
X35.020Y246.207
X35.626Y246.562
X36.244Y246.907
X36.874Y247.240
X37.517Y247.563
X38.171Y247.874
X38.838Y248.174
X39.516Y248.463
X40.205Y248.740
X41.618Y249.260
X42.120Y249.424
X42.651Y249.579
X43.793Y249.863
X45.031Y250.113
X46.349Y250.326
X47.734Y250.503
X49.171Y250.644
X50.646Y250.748
X52.143Y250.814
X53.650Y250.843
X55.150Y250.833
X56.631Y250.784
X58.077Y250.696
X59.475Y250.568
X60.809Y250.400
X62.065Y250.191
X62.660Y250.072
X63.230Y249.942
X64.387Y249.643
X65.512Y249.317
X66.604Y248.964
X67.664Y248.585
X68.691Y248.179
X69.685Y247.747
X70.645Y247.290
X71.571Y246.807
X72.462Y246.300
X73.320Y245.768
X74.142Y245.211
X74.930Y244.631
X75.682Y244.027
X76.398Y243.400
X77.078Y242.750
X77.722Y242.077
X78.329Y241.381
X78.900Y240.664
X79.433Y239.925
X79.929Y239.165
X80.387Y238.384
X80.806Y237.582
X81.188Y236.760
X81.530Y235.918
X81.834Y235.056
X82.098Y234.174
X82.323Y233.274
X82.507Y232.355
X82.652Y231.418
X82.756Y230.462
X82.819Y229.489
X82.841Y228.498
X82.825Y227.063
X82.801Y226.426
X82.763Y225.831
X82.709Y225.270
X82.637Y224.736
X82.546Y224.219
X82.433Y223.712
X82.296Y223.207
X82.133Y222.695
X81.942Y222.168
X81.722Y221.619
X81.183Y220.418
X80.501Y219.028
X79.820Y217.732
X79.058Y216.391
X78.216Y215.005
X77.295Y213.575
X76.295Y212.101
X75.217Y210.585
X74.063Y209.027
X72.831Y207.429
X71.524Y205.790
X70.141Y204.112
X68.684Y202.396
X67.152Y200.643
X65.548Y198.853
X63.870Y197.027
X62.121Y195.166
X60.300Y193.270
X51.590Y184.299
X63.256Y184.114
X66.596Y184.052
X69.267Y183.978
X71.348Y183.884
X72.191Y183.827
X72.915Y183.763
X73.531Y183.689
X74.047Y183.605
X74.475Y183.510
X74.822Y183.404
X75.100Y183.284
X75.317Y183.150
X75.484Y183.001
X75.610Y182.837
X75.740Y182.595
X75.844Y182.325
X75.921Y182.037
X75.971Y181.740
X75.993Y181.443
X75.984Y181.154
X75.945Y180.883
X75.873Y180.638
X75.783Y180.464
X75.640Y180.308
X75.430Y180.171
X75.137Y180.051
X74.743Y179.946
X74.234Y179.856
X73.592Y179.780
X72.801Y179.716
X71.846Y179.664
X70.711Y179.622
X67.832Y179.566
X64.035Y179.539
X59.192Y179.531
X54.287Y179.538
X50.471Y179.564
X47.610Y179.619
X46.496Y179.660
X45.570Y179.712
X44.815Y179.775
X44.216Y179.852
X43.755Y179.942
X43.415Y180.048
X43.180Y180.170
X43.096Y180.238
X43.033Y180.310
X42.987Y180.387
X42.957Y180.468
X42.935Y180.646
G0X42.935Y180.646Z5.080
G0X79.254Y169.820
G1Z-0.750F304.8
G1X79.085Y170.019F1016.0
X78.950Y170.237
X78.849Y170.470
X78.779Y170.713
X78.740Y170.961
X78.730Y171.209
X78.749Y171.453
X78.794Y171.688
X78.865Y171.908
X78.960Y172.109
X79.078Y172.286
X79.218Y172.434
X79.379Y172.548
X79.559Y172.623
X79.758Y172.654
X79.973Y172.637
X80.211Y172.565
X80.432Y172.447
X80.633Y172.289
X80.809Y172.098
X80.954Y171.879
X81.063Y171.640
X81.132Y171.385
X81.157Y171.122
X81.144Y170.877
X81.108Y170.647
X81.049Y170.433
X80.972Y170.238
X80.876Y170.063
X80.765Y169.908
X80.641Y169.775
X80.505Y169.667
X80.360Y169.583
X80.207Y169.526
X80.049Y169.497
X79.888Y169.497
X79.726Y169.528
X79.565Y169.592
X79.407Y169.689
X79.254Y169.820
G1Z-1.500F304.8
G1X79.085Y170.019F1016.0
X78.950Y170.237
X78.849Y170.470
X78.779Y170.713
X78.740Y170.961
X78.730Y171.209
X78.749Y171.453
X78.794Y171.688
X78.865Y171.908
X78.960Y172.109
X79.078Y172.286
X79.218Y172.434
X79.379Y172.548
X79.559Y172.623
X79.758Y172.654
X79.973Y172.637
X80.211Y172.565
X80.432Y172.447
X80.633Y172.289
X80.809Y172.098
X80.954Y171.879
X81.063Y171.640
X81.132Y171.385
X81.157Y171.122
X81.144Y170.877
X81.108Y170.647
X81.049Y170.433
X80.972Y170.238
X80.876Y170.063
X80.765Y169.908
X80.641Y169.775
X80.505Y169.667
X80.360Y169.583
X80.207Y169.526
X80.049Y169.497
X79.888Y169.497
X79.726Y169.528
X79.565Y169.592
X79.407Y169.689
X79.254Y169.820
G0Z5.080
G0X72.380Y233.519
G1Z-0.750F304.8
G1X72.431Y233.434F1016.0
X72.431Y233.336
X72.384Y233.229
X72.291Y233.116
X72.158Y233.001
X71.987Y232.888
X71.782Y232.779
X71.546Y232.679
X70.987Y232.489
X70.827Y232.461
X70.777Y232.464
X70.746Y232.480
X70.734Y232.507
X70.741Y232.547
X70.811Y232.665
X70.953Y232.834
X71.167Y233.057
X71.342Y233.218
X71.521Y233.354
X71.698Y233.462
X71.868Y233.540
X72.026Y233.587
X72.167Y233.600
X72.287Y233.578
X72.380Y233.519
G1Z-1.500F304.8
G1X72.431Y233.434F1016.0
X72.431Y233.336
X72.384Y233.229
X72.291Y233.116
X72.158Y233.001
X71.987Y232.888
X71.782Y232.779
X71.546Y232.679
X70.987Y232.489
X70.827Y232.461
X70.777Y232.464
X70.746Y232.480
X70.734Y232.507
X70.741Y232.547
X70.811Y232.665
X70.953Y232.834
X71.167Y233.057
X71.342Y233.218
X71.521Y233.354
X71.698Y233.462
X71.868Y233.540
X72.026Y233.587
X72.167Y233.600
X72.287Y233.578
X72.380Y233.519
G0Z5.080
G0X108.666Y164.649
G1Z-0.750F304.8
G1X108.666Y164.648F1016.0
X108.531Y163.830
X108.447Y163.498
X108.348Y163.217
X108.228Y162.983
X108.083Y162.797
X107.909Y162.656
X107.701Y162.559
X107.454Y162.505
X107.165Y162.491
X106.828Y162.517
X106.440Y162.582
X105.996Y162.682
X105.491Y162.818
X104.282Y163.189
X103.394Y163.488
X102.685Y163.761
X102.141Y164.018
X101.926Y164.145
X101.748Y164.271
X101.603Y164.400
X101.491Y164.531
X101.410Y164.666
X101.358Y164.808
X101.334Y164.956
X101.335Y165.113
X101.360Y165.280
X101.407Y165.457
X102.191Y167.973
X102.268Y168.301
X102.284Y168.606
X102.270Y168.751
X102.240Y168.891
X102.194Y169.026
X102.133Y169.157
X102.055Y169.284
X101.962Y169.408
X101.725Y169.646
X101.422Y169.873
X101.050Y170.094
X100.583Y170.326
X100.379Y170.411
X100.189Y170.473
X100.012Y170.512
X99.845Y170.526
X99.684Y170.515
X99.528Y170.479
X99.373Y170.415
X99.216Y170.323
X99.055Y170.203
X98.887Y170.053
X98.518Y169.660
X98.086Y169.137
X97.498Y168.445
X96.948Y167.878
X96.706Y167.660
X96.497Y167.495
X96.327Y167.391
X96.206Y167.354
X96.065Y167.398
X95.837Y167.522
X95.536Y167.719
X95.172Y167.979
X94.304Y168.654
X93.328Y169.479
X90.908Y171.604
X92.375Y173.165
X92.582Y173.401
X92.762Y173.639
X92.916Y173.878
X93.045Y174.118
X93.149Y174.357
X93.230Y174.594
X93.289Y174.829
X93.325Y175.060
X93.340Y175.286
X93.334Y175.507
X93.309Y175.721
X93.265Y175.928
X93.202Y176.126
X93.122Y176.314
X93.025Y176.492
X92.912Y176.658
X92.783Y176.812
X92.640Y176.952
X92.483Y177.078
X92.314Y177.188
X92.132Y177.281
X91.938Y177.357
X91.734Y177.414
X91.519Y177.452
X91.295Y177.469
X91.063Y177.465
X90.823Y177.438
X90.576Y177.388
X90.323Y177.313
X90.064Y177.213
X89.800Y177.086
X89.532Y176.932
X89.178Y176.718
X88.854Y176.542
X88.556Y176.404
X88.282Y176.306
X88.028Y176.252
X87.790Y176.241
X87.564Y176.277
X87.347Y176.361
X87.135Y176.494
X86.924Y176.679
X86.711Y176.918
X86.493Y177.212
X86.266Y177.563
X86.025Y177.973
X85.491Y178.977
X85.037Y179.880
X84.709Y180.581
X84.591Y180.869
X84.505Y181.120
X84.449Y181.340
X84.423Y181.533
X84.427Y181.705
X84.461Y181.859
X84.524Y182.002
X84.616Y182.137
X84.736Y182.269
X84.886Y182.404
X85.268Y182.698
X85.785Y183.044
X86.291Y183.328
X86.727Y183.520
X86.901Y183.572
X87.036Y183.590
X87.092Y183.601
X87.146Y183.633
X87.248Y183.757
X87.341Y183.953
X87.422Y184.212
X87.489Y184.525
X87.540Y184.884
X87.572Y185.281
X87.583Y185.706
X87.576Y186.393
X87.536Y186.906
X87.494Y187.104
X87.432Y187.265
X87.348Y187.393
X87.237Y187.488
X87.096Y187.555
X86.921Y187.595
X86.709Y187.610
X86.455Y187.603
X85.809Y187.533
X84.955Y187.402
X84.171Y187.287
X83.550Y187.227
X83.292Y187.221
X83.067Y187.231
X82.870Y187.260
X82.700Y187.307
X82.552Y187.375
X82.425Y187.463
X82.315Y187.574
X82.219Y187.708
X82.134Y187.867
X82.058Y188.051
X81.920Y188.499
X81.838Y188.848
X81.761Y189.258
X81.630Y190.204
X81.540Y191.216
X81.504Y192.172
X81.514Y192.823
X81.564Y193.334
X81.609Y193.543
X81.671Y193.724
X81.752Y193.880
X81.854Y194.012
X81.978Y194.125
X82.129Y194.219
X82.307Y194.297
X82.515Y194.363
X82.756Y194.417
X83.031Y194.463
X83.693Y194.540
X84.346Y194.617
X84.857Y194.717
X85.065Y194.782
X85.244Y194.858
X85.395Y194.950
X85.522Y195.058
X85.626Y195.185
X85.709Y195.333
X85.774Y195.504
X85.822Y195.700
X85.856Y195.924
X85.877Y196.178
X85.892Y196.782
X85.877Y197.386
X85.822Y197.863
X85.774Y198.059
X85.709Y198.230
X85.626Y198.378
X85.522Y198.505
X85.395Y198.613
X85.244Y198.705
X85.065Y198.782
X84.857Y198.846
X84.346Y198.947
X83.693Y199.023
X83.252Y199.079
X82.840Y199.158
X82.466Y199.257
X82.140Y199.370
X81.871Y199.496
X81.668Y199.630
X81.540Y199.768
X81.506Y199.838
X81.495Y199.907
X81.511Y200.143
X81.559Y200.475
X81.729Y201.364
X81.975Y202.451
X82.264Y203.615
X82.565Y204.734
X82.846Y205.684
X83.075Y206.344
X83.161Y206.526
X83.195Y206.574
X83.222Y206.591
X83.449Y206.536
X83.907Y206.388
X85.254Y205.900
X85.571Y205.793
X85.878Y205.715
X86.175Y205.666
X86.461Y205.643
X86.735Y205.646
X86.997Y205.672
X87.246Y205.721
X87.481Y205.792
X87.701Y205.881
X87.907Y205.989
X88.097Y206.114
X88.270Y206.254
X88.426Y206.408
X88.564Y206.575
X88.684Y206.752
X88.785Y206.940
X88.866Y207.135
X88.926Y207.338
X88.966Y207.546
X88.983Y207.758
X88.978Y207.972
X88.950Y208.188
X88.898Y208.403
X88.821Y208.617
X88.720Y208.827
X88.592Y209.034
X88.438Y209.234
X88.256Y209.427
X88.047Y209.611
X87.809Y209.785
X87.542Y209.947
X87.245Y210.096
X86.905Y210.263
X86.588Y210.441
X86.301Y210.626
X86.050Y210.812
X85.843Y210.992
X85.687Y211.162
X85.588Y211.317
X85.554Y211.449
X85.592Y211.640
X85.702Y211.920
X85.874Y212.278
X86.099Y212.697
X86.669Y213.666
X87.336Y214.713
X88.027Y215.724
X88.666Y216.588
X88.943Y216.928
X89.179Y217.189
X89.364Y217.356
X89.435Y217.400
X89.490Y217.415
X89.597Y217.384
X89.760Y217.297
X90.219Y216.978
X90.802Y216.505
X91.446Y215.928
X93.028Y214.441
X94.491Y215.904
X94.930Y216.355
X95.251Y216.728
X95.368Y216.891
X95.458Y217.044
X95.520Y217.188
X95.555Y217.326
X95.564Y217.462
X95.546Y217.598
X95.503Y217.737
X95.434Y217.881
X95.223Y218.199
X94.916Y218.575
X94.271Y219.356
X94.023Y219.692
X93.826Y219.999
X93.680Y220.281
X93.586Y220.543
X93.545Y220.789
X93.558Y221.025
X93.626Y221.254
X93.749Y221.482
X93.928Y221.713
X94.164Y221.952
X94.459Y222.203
X94.812Y222.473
X95.697Y223.082
X96.806Y223.801
X97.269Y224.083
X97.678Y224.315
X98.040Y224.496
X98.357Y224.627
X98.637Y224.707
X98.885Y224.736
X99.104Y224.715
X99.302Y224.644
X99.482Y224.522
X99.651Y224.351
X99.813Y224.129
X99.974Y223.857
X100.139Y223.536
X100.313Y223.165
X100.462Y222.868
X100.625Y222.601
X100.799Y222.363
X100.983Y222.153
X101.176Y221.972
X101.376Y221.818
X101.582Y221.690
X101.793Y221.588
X102.006Y221.512
X102.222Y221.460
X102.437Y221.431
X102.652Y221.426
X102.864Y221.444
X103.072Y221.483
X103.274Y221.544
X103.470Y221.624
X103.657Y221.725
X103.835Y221.845
X104.001Y221.984
X104.155Y222.140
X104.296Y222.313
X104.420Y222.503
X104.528Y222.708
X104.618Y222.929
X104.688Y223.164
X104.737Y223.412
X104.764Y223.674
X104.766Y223.949
X104.744Y224.234
X104.694Y224.532
X104.617Y224.839
X104.510Y225.156
X104.022Y226.502
X103.873Y226.961
X103.819Y227.187
X103.835Y227.215
X103.883Y227.248
X104.066Y227.334
X104.726Y227.564
X105.676Y227.845
X106.794Y228.146
X107.958Y228.435
X109.046Y228.681
X109.934Y228.851
X110.266Y228.898
X110.502Y228.915
X110.572Y228.904
X110.641Y228.870
X110.711Y228.816
X110.780Y228.741
X110.914Y228.538
X111.039Y228.269
X111.153Y227.943
X111.251Y227.570
X111.330Y227.158
X111.386Y226.716
X111.463Y226.063
X111.563Y225.552
X111.628Y225.345
X111.705Y225.166
X111.796Y225.014
X111.904Y224.888
X112.031Y224.784
X112.179Y224.701
X112.350Y224.636
X112.547Y224.588
X112.770Y224.554
X113.024Y224.532
X113.628Y224.518
X114.232Y224.532
X114.709Y224.588
X114.905Y224.636
X115.076Y224.701
X115.224Y224.784
X115.351Y224.888
X115.460Y225.014
X115.551Y225.166
X115.628Y225.345
X115.692Y225.552
X115.793Y226.063
X115.869Y226.716
X115.947Y227.413
X115.994Y227.698
X116.050Y227.945
X116.121Y228.156
X116.209Y228.334
X116.318Y228.481
X116.454Y228.601
X116.618Y228.697
X116.816Y228.770
X117.050Y228.824
X117.326Y228.862
X118.015Y228.900
X118.913Y228.905
X119.580Y228.895
X120.179Y228.871
X120.713Y228.829
X121.185Y228.767
X121.598Y228.682
X121.957Y228.572
X122.263Y228.434
X122.521Y228.266
X122.733Y228.065
X122.903Y227.828
X123.034Y227.554
X123.129Y227.239
X123.192Y226.881
X123.225Y226.478
X123.232Y226.027
X123.216Y225.525
X123.194Y224.828
X123.212Y224.277
X123.240Y224.050
X123.282Y223.852
X123.341Y223.681
X123.417Y223.535
X123.512Y223.411
X123.627Y223.306
X123.765Y223.219
X123.926Y223.147
X124.112Y223.088
X124.325Y223.039
X124.835Y222.963
X125.296Y222.931
X125.699Y222.953
X125.882Y222.986
X126.053Y223.034
X126.214Y223.098
X126.366Y223.178
X126.509Y223.276
X126.645Y223.391
X126.774Y223.524
X126.898Y223.676
X127.133Y224.039
X127.358Y224.485
X127.534Y224.853
X127.709Y225.174
X127.885Y225.447
X128.067Y225.673
X128.258Y225.852
X128.461Y225.985
X128.681Y226.071
X128.920Y226.111
X129.183Y226.105
X129.473Y226.054
X129.794Y225.957
X130.148Y225.815
X130.541Y225.628
X130.975Y225.397
X131.982Y224.801
X132.808Y224.269
X133.144Y224.030
X133.430Y223.806
X133.667Y223.591
X133.858Y223.383
X134.003Y223.177
X134.104Y222.972
X134.161Y222.762
X134.178Y222.544
X134.154Y222.315
X134.091Y222.071
X133.990Y221.809
X133.854Y221.525
X133.682Y221.216
X133.477Y220.877
X133.313Y220.579
X133.186Y220.275
X133.097Y219.969
X133.044Y219.663
X133.026Y219.359
X133.043Y219.060
X133.093Y218.769
X133.176Y218.489
X133.290Y218.222
X133.435Y217.971
X133.610Y217.739
X133.813Y217.527
X134.044Y217.340
X134.302Y217.178
X134.585Y217.046
X134.894Y216.945
X135.175Y216.853
X135.411Y216.735
X135.602Y216.593
X135.746Y216.430
X135.840Y216.248
X135.884Y216.049
X135.877Y215.836
X135.815Y215.611
X135.756Y215.480
X135.689Y215.373
X135.612Y215.291
X135.525Y215.236
X135.425Y215.207
X135.312Y215.205
X135.185Y215.230
X135.042Y215.284
X134.882Y215.367
X134.705Y215.478
X134.290Y215.791
X133.788Y216.228
X133.190Y216.792
X132.465Y217.503
X131.932Y218.069
X131.732Y218.312
X131.575Y218.536
X131.460Y218.747
X131.384Y218.950
X131.346Y219.153
X131.345Y219.359
X131.378Y219.576
X131.444Y219.809
X131.542Y220.063
X131.669Y220.346
X132.007Y221.017
X132.329Y221.655
X132.556Y222.163
X132.633Y222.375
X132.686Y222.565
X132.715Y222.736
X132.719Y222.891
X132.699Y223.033
X132.653Y223.166
X132.582Y223.294
X132.486Y223.419
X132.364Y223.544
X132.217Y223.674
X131.843Y223.961
X131.505Y224.197
X131.185Y224.394
X130.883Y224.552
X130.596Y224.671
X130.324Y224.750
X130.064Y224.789
X129.816Y224.788
X129.579Y224.746
X129.350Y224.663
X129.128Y224.539
X128.912Y224.372
X128.701Y224.164
X128.492Y223.912
X128.286Y223.618
X128.079Y223.281
X127.872Y222.899
X127.537Y222.269
X127.248Y221.803
X127.109Y221.629
X126.967Y221.491
X126.817Y221.389
X126.654Y221.321
X126.473Y221.285
X126.269Y221.280
X126.039Y221.304
X125.776Y221.357
X125.133Y221.540
X124.303Y221.817
X123.543Y222.094
X123.224Y222.228
X122.941Y222.364
X122.693Y222.504
X122.475Y222.652
X122.285Y222.811
X122.122Y222.985
X121.981Y223.177
X121.860Y223.390
X121.757Y223.628
X121.669Y223.893
X121.592Y224.189
X121.525Y224.519
X121.408Y225.296
X121.296Y226.047
X121.167Y226.647
X121.092Y226.896
X121.007Y227.114
X120.912Y227.304
X120.803Y227.468
X120.679Y227.608
X120.539Y227.726
X120.381Y227.825
X120.203Y227.907
X120.003Y227.974
X119.779Y228.029
X119.255Y228.110
X118.713Y228.158
X118.486Y228.162
X118.285Y228.151
X118.109Y228.122
X117.955Y228.074
X117.822Y228.004
X117.708Y227.910
X117.610Y227.791
X117.527Y227.645
X117.456Y227.469
X117.396Y227.262
X117.301Y226.746
X117.225Y226.080
X117.145Y225.371
X117.095Y225.079
X117.033Y224.824
X116.955Y224.603
X116.856Y224.412
X116.733Y224.249
X116.580Y224.110
X116.394Y223.991
X116.170Y223.890
X115.905Y223.804
X115.593Y223.728
X114.813Y223.598
X113.797Y223.472
X112.825Y223.368
X112.069Y223.314
X111.764Y223.307
X111.503Y223.316
X111.283Y223.342
X111.100Y223.385
X110.951Y223.447
X110.832Y223.528
X110.741Y223.630
X110.673Y223.753
X110.626Y223.900
X110.596Y224.070
X110.573Y224.487
X110.559Y224.878
X110.522Y225.243
X110.463Y225.581
X110.381Y225.894
X110.279Y226.179
X110.154Y226.437
X110.009Y226.668
X109.843Y226.871
X109.656Y227.045
X109.449Y227.191
X109.223Y227.309
X108.976Y227.397
X108.711Y227.456
X108.426Y227.485
X108.123Y227.483
X107.801Y227.452
X107.335Y227.366
X107.138Y227.309
X106.965Y227.240
X106.814Y227.157
X106.682Y227.058
X106.570Y226.939
X106.475Y226.798
X106.396Y226.633
X106.333Y226.443
X106.282Y226.223
X106.244Y225.973
X106.199Y225.369
X106.187Y224.613
X106.173Y223.809
X106.151Y223.471
X106.116Y223.169
X106.065Y222.900
X105.995Y222.660
X105.903Y222.446
X105.786Y222.252
X105.643Y222.075
X105.469Y221.911
X105.262Y221.757
X105.020Y221.608
X104.739Y221.460
X104.417Y221.309
X103.638Y220.984
X102.811Y220.661
X102.165Y220.440
X101.896Y220.371
X101.657Y220.330
X101.442Y220.320
X101.245Y220.340
X101.062Y220.392
X100.887Y220.477
X100.714Y220.596
X100.538Y220.750
X100.354Y220.940
X100.156Y221.166
X99.699Y221.735
X99.158Y222.406
X98.709Y222.897
X98.510Y223.078
X98.321Y223.216
X98.138Y223.313
X97.957Y223.369
X97.774Y223.385
X97.584Y223.363
X97.383Y223.302
X97.168Y223.204
X96.932Y223.070
X96.673Y222.901
X96.067Y222.458
X95.643Y222.128
X95.339Y221.850
X95.231Y221.719
X95.154Y221.588
X95.105Y221.453
X95.086Y221.310
X95.097Y221.154
X95.136Y220.982
X95.205Y220.789
X95.303Y220.570
X95.584Y220.041
X95.980Y219.362
X97.218Y217.266
X95.176Y215.224
X94.521Y214.579
X93.998Y214.104
X93.774Y213.927
X93.570Y213.790
X93.380Y213.689
X93.200Y213.625
X93.025Y213.597
X92.851Y213.602
X92.673Y213.641
X92.486Y213.711
X92.286Y213.811
X92.068Y213.941
X91.561Y214.284
X91.158Y214.555
X90.783Y214.786
X90.435Y214.975
X90.113Y215.123
X89.815Y215.229
X89.541Y215.293
X89.289Y215.315
X89.058Y215.295
X88.847Y215.232
X88.654Y215.126
X88.480Y214.977
X88.322Y214.785
X88.179Y214.549
X88.051Y214.270
X87.936Y213.947
X87.832Y213.580
X87.729Y213.087
X87.686Y212.650
X87.688Y212.448
X87.707Y212.256
X87.742Y212.071
X87.795Y211.894
X87.866Y211.721
X87.955Y211.552
X88.063Y211.386
X88.191Y211.220
X88.507Y210.886
X88.907Y210.537
X89.389Y210.135
X89.740Y209.789
X89.869Y209.626
X89.968Y209.463
X90.036Y209.294
X90.076Y209.116
X90.087Y208.923
X90.070Y208.711
X90.026Y208.475
X89.956Y208.209
X89.738Y207.572
X89.422Y206.762
X89.098Y205.986
X88.948Y205.666
X88.800Y205.386
X88.651Y205.145
X88.497Y204.939
X88.333Y204.766
X88.157Y204.622
X87.963Y204.506
X87.748Y204.415
X87.509Y204.345
X87.240Y204.293
X86.938Y204.259
X86.600Y204.237
X85.797Y204.223
X85.014Y204.212
X84.399Y204.167
X84.147Y204.128
X83.929Y204.076
X83.742Y204.008
X83.582Y203.922
X83.448Y203.818
X83.336Y203.693
X83.244Y203.545
X83.168Y203.372
X83.106Y203.174
X83.055Y202.947
X82.976Y202.401
X82.929Y201.856
X82.927Y201.626
X82.942Y201.421
X82.975Y201.239
X83.030Y201.077
X83.108Y200.934
X83.211Y200.808
X83.342Y200.695
X83.503Y200.595
X83.696Y200.504
X83.923Y200.421
X84.488Y200.268
X85.215Y200.120
X85.822Y199.992
X86.322Y199.854
X86.719Y199.704
X86.879Y199.624
X87.015Y199.539
X87.127Y199.450
X87.216Y199.356
X87.282Y199.257
X87.326Y199.153
X87.347Y199.042
X87.347Y198.926
X87.327Y198.803
X87.285Y198.673
X87.209Y198.435
X87.138Y198.135
X87.018Y197.402
X86.937Y196.568
X86.907Y195.731
X86.888Y195.172
X86.862Y194.931
X86.822Y194.713
X86.768Y194.516
X86.697Y194.338
X86.607Y194.178
X86.498Y194.034
X86.367Y193.903
X86.213Y193.783
X86.034Y193.674
X85.829Y193.572
X85.331Y193.385
X84.708Y193.206
X84.119Y193.036
X83.638Y192.853
X83.435Y192.754
X83.255Y192.649
X83.098Y192.536
X82.963Y192.414
X82.847Y192.283
X82.751Y192.140
X82.672Y191.985
X82.611Y191.817
X82.565Y191.635
X82.533Y191.436
X82.509Y190.989
X82.530Y190.511
X82.560Y190.307
X82.605Y190.125
X82.668Y189.962
X82.751Y189.818
X82.855Y189.689
X82.984Y189.576
X83.140Y189.475
X83.324Y189.386
X83.539Y189.307
X83.787Y189.236
X84.390Y189.113
X85.151Y189.002
X85.940Y188.885
X86.276Y188.818
X86.576Y188.742
X86.845Y188.654
X87.085Y188.552
X87.301Y188.432
X87.494Y188.293
X87.670Y188.130
X87.830Y187.943
X87.979Y187.726
X88.120Y187.479
X88.256Y187.198
X88.390Y186.881
X88.667Y186.126
X88.945Y185.301
X89.128Y184.663
X89.180Y184.401
X89.204Y184.172
X89.198Y183.969
X89.161Y183.789
X89.091Y183.626
X88.986Y183.475
X88.845Y183.332
X88.667Y183.191
X88.450Y183.049
X88.192Y182.899
X87.548Y182.557
X86.858Y182.182
X86.575Y182.010
X86.331Y181.843
X86.125Y181.679
X85.956Y181.516
X85.822Y181.350
X85.721Y181.178
X85.653Y180.998
X85.616Y180.806
X85.608Y180.600
X85.629Y180.376
X85.676Y180.132
X85.749Y179.865
X85.964Y179.248
X86.070Y179.031
X86.208Y178.839
X86.378Y178.672
X86.576Y178.530
X86.800Y178.414
X87.048Y178.323
X87.318Y178.259
X87.606Y178.220
X87.912Y178.208
X88.232Y178.222
X88.564Y178.263
X88.906Y178.330
X89.256Y178.425
X89.610Y178.547
X89.968Y178.697
X90.326Y178.874
X90.708Y179.049
X90.887Y179.104
X91.062Y179.136
X91.234Y179.144
X91.405Y179.128
X91.579Y179.085
X91.757Y179.015
X91.942Y178.917
X92.136Y178.789
X92.341Y178.632
X92.560Y178.443
X93.047Y177.967
X93.615Y177.352
X94.264Y176.622
X94.736Y176.054
X94.908Y175.818
X95.039Y175.607
X95.130Y175.416
X95.182Y175.239
X95.195Y175.072
X95.171Y174.910
X95.111Y174.746
X95.016Y174.577
X94.886Y174.397
X94.722Y174.200
X94.300Y173.738
X93.980Y173.374
X93.708Y173.021
X93.482Y172.677
X93.304Y172.345
X93.172Y172.026
X93.087Y171.720
X93.049Y171.428
X93.057Y171.153
X93.112Y170.894
X93.212Y170.653
X93.359Y170.430
X93.552Y170.228
X93.790Y170.046
X94.074Y169.887
X94.404Y169.751
X94.780Y169.638
X95.268Y169.536
X95.699Y169.494
X95.897Y169.497
X96.085Y169.517
X96.265Y169.553
X96.437Y169.608
X96.604Y169.681
X96.767Y169.772
X96.927Y169.883
X97.086Y170.014
X97.406Y170.338
X97.739Y170.748
X98.913Y172.305
X101.365Y170.790
X102.132Y170.303
X102.713Y169.888
X102.940Y169.694
X103.128Y169.503
X103.279Y169.309
X103.396Y169.108
X103.481Y168.894
X103.536Y168.663
X103.565Y168.409
X103.570Y168.127
X103.553Y167.813
X103.516Y167.461
X103.393Y166.623
X103.261Y165.759
X103.189Y165.107
X103.181Y164.850
X103.196Y164.636
X103.236Y164.460
X103.303Y164.318
X103.399Y164.206
X103.528Y164.122
X103.690Y164.061
X103.890Y164.019
X104.128Y163.993
X104.408Y163.979
X105.102Y163.972
X105.726Y163.988
X106.227Y164.045
X106.437Y164.093
X106.623Y164.157
X106.788Y164.239
X106.933Y164.339
X107.060Y164.461
X107.172Y164.606
X107.272Y164.775
X107.361Y164.971
X107.441Y165.195
X107.515Y165.450
X107.652Y166.055
X107.781Y166.634
X107.919Y167.089
X107.995Y167.273
X108.076Y167.430
X108.165Y167.561
X108.262Y167.667
X108.369Y167.749
X108.486Y167.809
X108.616Y167.847
X108.760Y167.864
X108.918Y167.863
X109.093Y167.844
X109.495Y167.756
X110.178Y167.607
X110.983Y167.483
X111.809Y167.398
X112.557Y167.364
X112.970Y167.351
X113.298Y167.319
X113.544Y167.272
X113.711Y167.211
X113.805Y167.139
X113.825Y167.100
X113.828Y167.059
X113.786Y166.973
X113.681Y166.884
X113.518Y166.795
X113.300Y166.708
X113.032Y166.626
X112.718Y166.551
X112.361Y166.487
X111.966Y166.435
X111.536Y166.399
X111.075Y166.380
X110.461Y166.353
X109.964Y166.292
X109.755Y166.245
X109.570Y166.186
X109.407Y166.113
X109.265Y166.026
X109.141Y165.922
X109.035Y165.802
X108.945Y165.663
X108.868Y165.504
X108.803Y165.324
X108.749Y165.123
X108.666Y164.649
G1Z-1.500F304.8
G1X108.666Y164.648F1016.0
X108.531Y163.830
X108.447Y163.498
X108.348Y163.217
X108.228Y162.983
X108.083Y162.797
X107.909Y162.656
X107.701Y162.559
X107.454Y162.505
X107.165Y162.491
X106.828Y162.517
X106.440Y162.582
X105.996Y162.682
X105.491Y162.818
X104.282Y163.189
X103.394Y163.488
X102.685Y163.761
X102.141Y164.018
X101.926Y164.145
X101.748Y164.271
X101.603Y164.400
X101.491Y164.531
X101.410Y164.666
X101.358Y164.808
X101.334Y164.956
X101.335Y165.113
X101.360Y165.280
X101.407Y165.457
X102.191Y167.973
X102.268Y168.301
X102.284Y168.606
X102.270Y168.751
X102.240Y168.891
X102.194Y169.026
X102.133Y169.157
X102.055Y169.284
X101.962Y169.408
X101.725Y169.646
X101.422Y169.873
X101.050Y170.094
X100.583Y170.326
X100.379Y170.411
X100.189Y170.473
X100.012Y170.512
X99.845Y170.526
X99.684Y170.515
X99.528Y170.479
X99.373Y170.415
X99.216Y170.323
X99.055Y170.203
X98.887Y170.053
X98.518Y169.660
X98.086Y169.137
X97.498Y168.445
X96.948Y167.878
X96.706Y167.660
X96.497Y167.495
X96.327Y167.391
X96.206Y167.354
X96.065Y167.398
X95.837Y167.522
X95.536Y167.719
X95.172Y167.979
X94.304Y168.654
X93.328Y169.479
X90.908Y171.604
X92.375Y173.165
X92.582Y173.401
X92.762Y173.639
X92.916Y173.878
X93.045Y174.118
X93.149Y174.357
X93.230Y174.594
X93.289Y174.829
X93.325Y175.060
X93.340Y175.286
X93.334Y175.507
X93.309Y175.721
X93.265Y175.928
X93.202Y176.126
X93.122Y176.314
X93.025Y176.492
X92.912Y176.658
X92.783Y176.812
X92.640Y176.952
X92.483Y177.078
X92.314Y177.188
X92.132Y177.281
X91.938Y177.357
X91.734Y177.414
X91.519Y177.452
X91.295Y177.469
X91.063Y177.465
X90.823Y177.438
X90.576Y177.388
X90.323Y177.313
X90.064Y177.213
X89.800Y177.086
X89.532Y176.932
X89.178Y176.718
X88.854Y176.542
X88.556Y176.404
X88.282Y176.306
X88.028Y176.252
X87.790Y176.241
X87.564Y176.277
X87.347Y176.361
X87.135Y176.494
X86.924Y176.679
X86.711Y176.918
X86.493Y177.212
X86.266Y177.563
X86.025Y177.973
X85.491Y178.977
X85.037Y179.880
X84.709Y180.581
X84.591Y180.869
X84.505Y181.120
X84.449Y181.340
X84.423Y181.533
X84.427Y181.705
X84.461Y181.859
X84.524Y182.002
X84.616Y182.137
X84.736Y182.269
X84.886Y182.404
X85.268Y182.698
X85.785Y183.044
X86.291Y183.328
X86.727Y183.520
X86.901Y183.572
X87.036Y183.590
X87.092Y183.601
X87.146Y183.633
X87.248Y183.757
X87.341Y183.953
X87.422Y184.212
X87.489Y184.525
X87.540Y184.884
X87.572Y185.281
X87.583Y185.706
X87.576Y186.393
X87.536Y186.906
X87.494Y187.104
X87.432Y187.265
X87.348Y187.393
X87.237Y187.488
X87.096Y187.555
X86.921Y187.595
X86.709Y187.610
X86.455Y187.603
X85.809Y187.533
X84.955Y187.402
X84.171Y187.287
X83.550Y187.227
X83.292Y187.221
X83.067Y187.231
X82.870Y187.260
X82.700Y187.307
X82.552Y187.375
X82.425Y187.463
X82.315Y187.574
X82.219Y187.708
X82.134Y187.867
X82.058Y188.051
X81.920Y188.499
X81.838Y188.848
X81.761Y189.258
X81.630Y190.204
X81.540Y191.216
X81.504Y192.172
X81.514Y192.823
X81.564Y193.334
X81.609Y193.543
X81.671Y193.724
X81.752Y193.880
X81.854Y194.012
X81.978Y194.125
X82.129Y194.219
X82.307Y194.297
X82.515Y194.363
X82.756Y194.417
X83.031Y194.463
X83.693Y194.540
X84.346Y194.617
X84.857Y194.717
X85.065Y194.782
X85.244Y194.858
X85.395Y194.950
X85.522Y195.058
X85.626Y195.185
X85.709Y195.333
X85.774Y195.504
X85.822Y195.700
X85.856Y195.924
X85.877Y196.178
X85.892Y196.782
X85.877Y197.386
X85.822Y197.863
X85.774Y198.059
X85.709Y198.230
X85.626Y198.378
X85.522Y198.505
X85.395Y198.613
X85.244Y198.705
X85.065Y198.782
X84.857Y198.846
X84.346Y198.947
X83.693Y199.023
X83.252Y199.079
X82.840Y199.158
X82.466Y199.257
X82.140Y199.370
X81.871Y199.496
X81.668Y199.630
X81.540Y199.768
X81.506Y199.838
X81.495Y199.907
X81.511Y200.143
X81.559Y200.475
X81.729Y201.364
X81.975Y202.451
X82.264Y203.615
X82.565Y204.734
X82.846Y205.684
X83.075Y206.344
X83.161Y206.526
X83.195Y206.574
X83.222Y206.591
X83.449Y206.536
X83.907Y206.388
X85.254Y205.900
X85.571Y205.793
X85.878Y205.715
X86.175Y205.666
X86.461Y205.643
X86.735Y205.646
X86.997Y205.672
X87.246Y205.721
X87.481Y205.792
X87.701Y205.881
X87.907Y205.989
X88.097Y206.114
X88.270Y206.254
X88.426Y206.408
X88.564Y206.575
X88.684Y206.752
X88.785Y206.940
X88.866Y207.135
X88.926Y207.338
X88.966Y207.546
X88.983Y207.758
X88.978Y207.972
X88.950Y208.188
X88.898Y208.403
X88.821Y208.617
X88.720Y208.827
X88.592Y209.034
X88.438Y209.234
X88.256Y209.427
X88.047Y209.611
X87.809Y209.785
X87.542Y209.947
X87.245Y210.096
X86.905Y210.263
X86.588Y210.441
X86.301Y210.626
X86.050Y210.812
X85.843Y210.992
X85.687Y211.162
X85.588Y211.317
X85.554Y211.449
X85.592Y211.640
X85.702Y211.920
X85.874Y212.278
X86.099Y212.697
X86.669Y213.666
X87.336Y214.713
X88.027Y215.724
X88.666Y216.588
X88.943Y216.928
X89.179Y217.189
X89.364Y217.356
X89.435Y217.400
X89.490Y217.415
X89.597Y217.384
X89.760Y217.297
X90.219Y216.978
X90.802Y216.505
X91.446Y215.928
X93.028Y214.441
X94.491Y215.904
X94.930Y216.355
X95.251Y216.728
X95.368Y216.891
X95.458Y217.044
X95.520Y217.188
X95.555Y217.326
X95.564Y217.462
X95.546Y217.598
X95.503Y217.737
X95.434Y217.881
X95.223Y218.199
X94.916Y218.575
X94.271Y219.356
X94.023Y219.692
X93.826Y219.999
X93.680Y220.281
X93.586Y220.543
X93.545Y220.789
X93.558Y221.025
X93.626Y221.254
X93.749Y221.482
X93.928Y221.713
X94.164Y221.952
X94.459Y222.203
X94.812Y222.473
X95.697Y223.082
X96.806Y223.801
X97.269Y224.083
X97.678Y224.315
X98.040Y224.496
X98.357Y224.627
X98.637Y224.707
X98.885Y224.736
X99.104Y224.715
X99.302Y224.644
X99.482Y224.522
X99.651Y224.351
X99.813Y224.129
X99.974Y223.857
X100.139Y223.536
X100.313Y223.165
X100.462Y222.868
X100.625Y222.601
X100.799Y222.363
X100.983Y222.153
X101.176Y221.972
X101.376Y221.818
X101.582Y221.690
X101.793Y221.588
X102.006Y221.512
X102.222Y221.460
X102.437Y221.431
X102.652Y221.426
X102.864Y221.444
X103.072Y221.483
X103.274Y221.544
X103.470Y221.624
X103.657Y221.725
X103.835Y221.845
X104.001Y221.984
X104.155Y222.140
X104.296Y222.313
X104.420Y222.503
X104.528Y222.708
X104.618Y222.929
X104.688Y223.164
X104.737Y223.412
X104.764Y223.674
X104.766Y223.949
X104.744Y224.234
X104.694Y224.532
X104.617Y224.839
X104.510Y225.156
X104.022Y226.502
X103.873Y226.961
X103.819Y227.187
X103.835Y227.215
X103.883Y227.248
X104.066Y227.334
X104.726Y227.564
X105.676Y227.845
X106.794Y228.146
X107.958Y228.435
X109.046Y228.681
X109.934Y228.851
X110.266Y228.898
X110.502Y228.915
X110.572Y228.904
X110.641Y228.870
X110.711Y228.816
X110.780Y228.741
X110.914Y228.538
X111.039Y228.269
X111.153Y227.943
X111.251Y227.570
X111.330Y227.158
X111.386Y226.716
X111.463Y226.063
X111.563Y225.552
X111.628Y225.345
X111.705Y225.166
X111.796Y225.014
X111.904Y224.888
X112.031Y224.784
X112.179Y224.701
X112.350Y224.636
X112.547Y224.588
X112.770Y224.554
X113.024Y224.532
X113.628Y224.518
X114.232Y224.532
X114.709Y224.588
X114.905Y224.636
X115.076Y224.701
X115.224Y224.784
X115.351Y224.888
X115.460Y225.014
X115.551Y225.166
X115.628Y225.345
X115.692Y225.552
X115.793Y226.063
X115.869Y226.716
X115.947Y227.413
X115.994Y227.698
X116.050Y227.945
X116.121Y228.156
X116.209Y228.334
X116.318Y228.481
X116.454Y228.601
X116.618Y228.697
X116.816Y228.770
X117.050Y228.824
X117.326Y228.862
X118.015Y228.900
X118.913Y228.905
X119.580Y228.895
X120.179Y228.871
X120.713Y228.829
X121.185Y228.767
X121.598Y228.682
X121.957Y228.572
X122.263Y228.434
X122.521Y228.266
X122.733Y228.065
X122.903Y227.828
X123.034Y227.554
X123.129Y227.239
X123.192Y226.881
X123.225Y226.478
X123.232Y226.027
X123.216Y225.525
X123.194Y224.828
X123.212Y224.277
X123.240Y224.050
X123.282Y223.852
X123.341Y223.681
X123.417Y223.535
X123.512Y223.411
X123.627Y223.306
X123.765Y223.219
X123.926Y223.147
X124.112Y223.088
X124.325Y223.039
X124.835Y222.963
X125.296Y222.931
X125.699Y222.953
X125.882Y222.986
X126.053Y223.034
X126.214Y223.098
X126.366Y223.178
X126.509Y223.276
X126.645Y223.391
X126.774Y223.524
X126.898Y223.676
X127.133Y224.039
X127.358Y224.485
X127.534Y224.853
X127.709Y225.174
X127.885Y225.447
X128.067Y225.673
X128.258Y225.852
X128.461Y225.985
X128.681Y226.071
X128.920Y226.111
X129.183Y226.105
X129.473Y226.054
X129.794Y225.957
X130.148Y225.815
X130.541Y225.628
X130.975Y225.397
X131.982Y224.801
X132.808Y224.269
X133.144Y224.030
X133.430Y223.806
X133.667Y223.591
X133.858Y223.383
X134.003Y223.177
X134.104Y222.972
X134.161Y222.762
X134.178Y222.544
X134.154Y222.315
X134.091Y222.071
X133.990Y221.809
X133.854Y221.525
X133.682Y221.216
X133.477Y220.877
X133.313Y220.579
X133.186Y220.275
X133.097Y219.969
X133.044Y219.663
X133.026Y219.359
X133.043Y219.060
X133.093Y218.769
X133.176Y218.489
X133.290Y218.222
X133.435Y217.971
X133.610Y217.739
X133.813Y217.527
X134.044Y217.340
X134.302Y217.178
X134.585Y217.046
X134.894Y216.945
X135.175Y216.853
X135.411Y216.735
X135.602Y216.593
X135.746Y216.430
X135.840Y216.248
X135.884Y216.049
X135.877Y215.836
X135.815Y215.611
X135.756Y215.480
X135.689Y215.373
X135.612Y215.291
X135.525Y215.236
X135.425Y215.207
X135.312Y215.205
X135.185Y215.230
X135.042Y215.284
X134.882Y215.367
X134.705Y215.478
X134.290Y215.791
X133.788Y216.228
X133.190Y216.792
X132.465Y217.503
X131.932Y218.069
X131.732Y218.312
X131.575Y218.536
X131.460Y218.747
X131.384Y218.950
X131.346Y219.153
X131.345Y219.359
X131.378Y219.576
X131.444Y219.809
X131.542Y220.063
X131.669Y220.346
X132.007Y221.017
X132.329Y221.655
X132.556Y222.163
X132.633Y222.375
X132.686Y222.565
X132.715Y222.736
X132.719Y222.891
X132.699Y223.033
X132.653Y223.166
X132.582Y223.294
X132.486Y223.419
X132.364Y223.544
X132.217Y223.674
X131.843Y223.961
X131.505Y224.197
X131.185Y224.394
X130.883Y224.552
X130.596Y224.671
X130.324Y224.750
X130.064Y224.789
X129.816Y224.788
X129.579Y224.746
X129.350Y224.663
X129.128Y224.539
X128.912Y224.372
X128.701Y224.164
X128.492Y223.912
X128.286Y223.618
X128.079Y223.281
X127.872Y222.899
X127.537Y222.269
X127.248Y221.803
X127.109Y221.629
X126.967Y221.491
X126.817Y221.389
X126.654Y221.321
X126.473Y221.285
X126.269Y221.280
X126.039Y221.304
X125.776Y221.357
X125.133Y221.540
X124.303Y221.817
X123.543Y222.094
X123.224Y222.228
X122.941Y222.364
X122.693Y222.504
X122.475Y222.652
X122.285Y222.811
X122.122Y222.985
X121.981Y223.177
X121.860Y223.390
X121.757Y223.628
X121.669Y223.893
X121.592Y224.189
X121.525Y224.519
X121.408Y225.296
X121.296Y226.047
X121.167Y226.647
X121.092Y226.896
X121.007Y227.114
X120.912Y227.304
X120.803Y227.468
X120.679Y227.608
X120.539Y227.726
X120.381Y227.825
X120.203Y227.907
X120.003Y227.974
X119.779Y228.029
X119.255Y228.110
X118.713Y228.158
X118.486Y228.162
X118.285Y228.151
X118.109Y228.122
X117.955Y228.074
X117.822Y228.004
X117.708Y227.910
X117.610Y227.791
X117.527Y227.645
X117.456Y227.469
X117.396Y227.262
X117.301Y226.746
X117.225Y226.080
X117.145Y225.371
X117.095Y225.079
X117.033Y224.824
X116.955Y224.603
X116.856Y224.412
X116.733Y224.249
X116.580Y224.110
X116.394Y223.991
X116.170Y223.890
X115.905Y223.804
X115.593Y223.728
X114.813Y223.598
X113.797Y223.472
X112.825Y223.368
X112.069Y223.314
X111.764Y223.307
X111.503Y223.316
X111.283Y223.342
X111.100Y223.385
X110.951Y223.447
X110.832Y223.528
X110.741Y223.630
X110.673Y223.753
X110.626Y223.900
X110.596Y224.070
X110.573Y224.487
X110.559Y224.878
X110.522Y225.243
X110.463Y225.581
X110.381Y225.894
X110.279Y226.179
X110.154Y226.437
X110.009Y226.668
X109.843Y226.871
X109.656Y227.045
X109.449Y227.191
X109.223Y227.309
X108.976Y227.397
X108.711Y227.456
X108.426Y227.485
X108.123Y227.483
X107.801Y227.452
X107.335Y227.366
X107.138Y227.309
X106.965Y227.240
X106.814Y227.157
X106.682Y227.058
X106.570Y226.939
X106.475Y226.798
X106.396Y226.633
X106.333Y226.443
X106.282Y226.223
X106.244Y225.973
X106.199Y225.369
X106.187Y224.613
X106.173Y223.809
X106.151Y223.471
X106.116Y223.169
X106.065Y222.900
X105.995Y222.660
X105.903Y222.446
X105.786Y222.252
X105.643Y222.075
X105.469Y221.911
X105.262Y221.757
X105.020Y221.608
X104.739Y221.460
X104.417Y221.309
X103.638Y220.984
X102.811Y220.661
X102.165Y220.440
X101.896Y220.371
X101.657Y220.330
X101.442Y220.320
X101.245Y220.340
X101.062Y220.392
X100.887Y220.477
X100.714Y220.596
X100.538Y220.750
X100.354Y220.940
X100.156Y221.166
X99.699Y221.735
X99.158Y222.406
X98.709Y222.897
X98.510Y223.078
X98.321Y223.216
X98.138Y223.313
X97.957Y223.369
X97.774Y223.385
X97.584Y223.363
X97.383Y223.302
X97.168Y223.204
X96.932Y223.070
X96.673Y222.901
X96.067Y222.458
X95.643Y222.128
X95.339Y221.850
X95.231Y221.719
X95.154Y221.588
X95.105Y221.453
X95.086Y221.310
X95.097Y221.154
X95.136Y220.982
X95.205Y220.789
X95.303Y220.570
X95.584Y220.041
X95.980Y219.362
X97.218Y217.266
X95.176Y215.224
X94.521Y214.579
X93.998Y214.104
X93.774Y213.927
X93.570Y213.790
X93.380Y213.689
X93.200Y213.625
X93.025Y213.597
X92.851Y213.602
X92.673Y213.641
X92.486Y213.711
X92.286Y213.811
X92.068Y213.941
X91.561Y214.284
X91.158Y214.555
X90.783Y214.786
X90.435Y214.975
X90.113Y215.123
X89.815Y215.229
X89.541Y215.293
X89.289Y215.315
X89.058Y215.295
X88.847Y215.232
X88.654Y215.126
X88.480Y214.977
X88.322Y214.785
X88.179Y214.549
X88.051Y214.270
X87.936Y213.947
X87.832Y213.580
X87.729Y213.087
X87.686Y212.650
X87.688Y212.448
X87.707Y212.256
X87.742Y212.071
X87.795Y211.894
X87.866Y211.721
X87.955Y211.552
X88.063Y211.386
X88.191Y211.220
X88.507Y210.886
X88.907Y210.537
X89.389Y210.135
X89.740Y209.789
X89.869Y209.626
X89.968Y209.463
X90.036Y209.294
X90.076Y209.116
X90.087Y208.923
X90.070Y208.711
X90.026Y208.475
X89.956Y208.209
X89.738Y207.572
X89.422Y206.762
X89.098Y205.986
X88.948Y205.666
X88.800Y205.386
X88.651Y205.145
X88.497Y204.939
X88.333Y204.766
X88.157Y204.622
X87.963Y204.506
X87.748Y204.415
X87.509Y204.345
X87.240Y204.293
X86.938Y204.259
X86.600Y204.237
X85.797Y204.223
X85.014Y204.212
X84.399Y204.167
X84.147Y204.128
X83.929Y204.076
X83.742Y204.008
X83.582Y203.922
X83.448Y203.818
X83.336Y203.693
X83.244Y203.545
X83.168Y203.372
X83.106Y203.174
X83.055Y202.947
X82.976Y202.401
X82.929Y201.856
X82.927Y201.626
X82.942Y201.421
X82.975Y201.239
X83.030Y201.077
X83.108Y200.934
X83.211Y200.808
X83.342Y200.695
X83.503Y200.595
X83.696Y200.504
X83.923Y200.421
X84.488Y200.268
X85.215Y200.120
X85.822Y199.992
X86.322Y199.854
X86.719Y199.704
X86.879Y199.624
X87.015Y199.539
X87.127Y199.450
X87.216Y199.356
X87.282Y199.257
X87.326Y199.153
X87.347Y199.042
X87.347Y198.926
X87.327Y198.803
X87.285Y198.673
X87.209Y198.435
X87.138Y198.135
X87.018Y197.402
X86.937Y196.568
X86.907Y195.731
X86.888Y195.172
X86.862Y194.931
X86.822Y194.713
X86.768Y194.516
X86.697Y194.338
X86.607Y194.178
X86.498Y194.034
X86.367Y193.903
X86.213Y193.783
X86.034Y193.674
X85.829Y193.572
X85.331Y193.385
X84.708Y193.206
X84.119Y193.036
X83.638Y192.853
X83.435Y192.754
X83.255Y192.649
X83.098Y192.536
X82.963Y192.414
X82.847Y192.283
X82.751Y192.140
X82.672Y191.985
X82.611Y191.817
X82.565Y191.635
X82.533Y191.436
X82.509Y190.989
X82.530Y190.511
X82.560Y190.307
X82.605Y190.125
X82.668Y189.962
X82.751Y189.818
X82.855Y189.689
X82.984Y189.576
X83.140Y189.475
X83.324Y189.386
X83.539Y189.307
X83.787Y189.236
X84.390Y189.113
X85.151Y189.002
X85.940Y188.885
X86.276Y188.818
X86.576Y188.742
X86.845Y188.654
X87.085Y188.552
X87.301Y188.432
X87.494Y188.293
X87.670Y188.130
X87.830Y187.943
X87.979Y187.726
X88.120Y187.479
X88.256Y187.198
X88.390Y186.881
X88.667Y186.126
X88.945Y185.301
X89.128Y184.663
X89.180Y184.401
X89.204Y184.172
X89.198Y183.969
X89.161Y183.789
X89.091Y183.626
X88.986Y183.475
X88.845Y183.332
X88.667Y183.191
X88.450Y183.049
X88.192Y182.899
X87.548Y182.557
X86.858Y182.182
X86.575Y182.010
X86.331Y181.843
X86.125Y181.679
X85.956Y181.516
X85.822Y181.350
X85.721Y181.178
X85.653Y180.998
X85.616Y180.806
X85.608Y180.600
X85.629Y180.376
X85.676Y180.132
X85.749Y179.865
X85.964Y179.248
X86.070Y179.031
X86.208Y178.839
X86.378Y178.672
X86.576Y178.530
X86.800Y178.414
X87.048Y178.323
X87.318Y178.259
X87.606Y178.220
X87.912Y178.208
X88.232Y178.222
X88.564Y178.263
X88.906Y178.330
X89.256Y178.425
X89.610Y178.547
X89.968Y178.697
X90.326Y178.874
X90.708Y179.049
X90.887Y179.104
X91.062Y179.136
X91.234Y179.144
X91.405Y179.128
X91.579Y179.085
X91.757Y179.015
X91.942Y178.917
X92.136Y178.789
X92.341Y178.632
X92.560Y178.443
X93.047Y177.967
X93.615Y177.352
X94.264Y176.622
X94.736Y176.054
X94.908Y175.818
X95.039Y175.607
X95.130Y175.416
X95.182Y175.239
X95.195Y175.072
X95.171Y174.910
X95.111Y174.746
X95.016Y174.577
X94.886Y174.397
X94.722Y174.200
X94.300Y173.738
X93.980Y173.374
X93.708Y173.021
X93.482Y172.677
X93.304Y172.345
X93.172Y172.026
X93.087Y171.720
X93.049Y171.428
X93.057Y171.153
X93.112Y170.894
X93.212Y170.653
X93.359Y170.430
X93.552Y170.228
X93.790Y170.046
X94.074Y169.887
X94.404Y169.751
X94.780Y169.638
X95.268Y169.536
X95.699Y169.494
X95.897Y169.497
X96.085Y169.517
X96.265Y169.553
X96.437Y169.608
X96.604Y169.681
X96.767Y169.772
X96.927Y169.883
X97.086Y170.014
X97.406Y170.338
X97.739Y170.748
X98.913Y172.305
X101.365Y170.790
X102.132Y170.303
X102.713Y169.888
X102.940Y169.694
X103.128Y169.503
X103.279Y169.309
X103.396Y169.108
X103.481Y168.894
X103.536Y168.663
X103.565Y168.409
X103.570Y168.127
X103.553Y167.813
X103.516Y167.461
X103.393Y166.623
X103.261Y165.759
X103.189Y165.107
X103.181Y164.850
X103.196Y164.636
X103.236Y164.460
X103.303Y164.318
X103.399Y164.206
X103.528Y164.122
X103.690Y164.061
X103.890Y164.019
X104.128Y163.993
X104.408Y163.979
X105.102Y163.972
X105.726Y163.988
X106.227Y164.045
X106.437Y164.093
X106.623Y164.157
X106.788Y164.239
X106.933Y164.339
X107.060Y164.461
X107.172Y164.606
X107.272Y164.775
X107.361Y164.971
X107.441Y165.195
X107.515Y165.450
X107.652Y166.055
X107.781Y166.634
X107.919Y167.089
X107.995Y167.273
X108.076Y167.430
X108.165Y167.561
X108.262Y167.667
X108.369Y167.749
X108.486Y167.809
X108.616Y167.847
X108.760Y167.864
X108.918Y167.863
X109.093Y167.844
X109.495Y167.756
X110.178Y167.607
X110.983Y167.483
X111.809Y167.398
X112.557Y167.364
X112.970Y167.351
X113.298Y167.319
X113.544Y167.272
X113.711Y167.211
X113.805Y167.139
X113.825Y167.100
X113.828Y167.059
X113.786Y166.973
X113.681Y166.884
X113.518Y166.795
X113.300Y166.708
X113.032Y166.626
X112.718Y166.551
X112.361Y166.487
X111.966Y166.435
X111.536Y166.399
X111.075Y166.380
X110.461Y166.353
X109.964Y166.292
X109.755Y166.245
X109.570Y166.186
X109.407Y166.113
X109.265Y166.026
X109.141Y165.922
X109.035Y165.802
X108.945Y165.663
X108.868Y165.504
X108.803Y165.324
X108.749Y165.123
X108.666Y164.649
G0Z5.080
G0X102.427Y156.725
G1Z-0.750F304.8
G1X101.300Y157.126F1016.0
X100.192Y157.555
X99.101Y158.012
X98.028Y158.496
X96.974Y159.007
X95.939Y159.544
X94.924Y160.108
X93.928Y160.697
X92.952Y161.312
X91.997Y161.952
X91.063Y162.617
X90.150Y163.306
X89.259Y164.019
X88.390Y164.756
X87.543Y165.516
X86.719Y166.299
X85.918Y167.104
X85.141Y167.932
X84.388Y168.781
X83.659Y169.652
X82.954Y170.544
X82.275Y171.457
X81.621Y172.389
X80.992Y173.342
X80.390Y174.315
X79.814Y175.307
X79.266Y176.317
X78.744Y177.347
X78.250Y178.394
X77.784Y179.459
X77.347Y180.542
X76.938Y181.641
X76.727Y182.260
X76.526Y182.897
X76.156Y184.222
X75.829Y185.607
X75.545Y187.043
X75.304Y188.520
X75.109Y190.030
X74.957Y191.562
X74.851Y193.107
X74.791Y194.656
X74.777Y196.200
X74.810Y197.729
X74.890Y199.234
X75.018Y200.705
X75.195Y202.133
X75.420Y203.509
X75.551Y204.174
X75.694Y204.823
X76.030Y206.146
X76.418Y207.457
X76.855Y208.754
X77.340Y210.037
X77.873Y211.304
X78.451Y212.554
X79.073Y213.785
X79.739Y214.996
X80.447Y216.186
X81.195Y217.353
X81.982Y218.496
X82.807Y219.614
X83.668Y220.706
X84.565Y221.769
X85.496Y222.804
X86.459Y223.808
X87.454Y224.780
X88.479Y225.718
X89.532Y226.623
X90.613Y227.491
X91.720Y228.323
X92.851Y229.116
X94.007Y229.869
X95.184Y230.581
X96.382Y231.251
X97.599Y231.877
X98.835Y232.458
X100.088Y232.992
X101.356Y233.479
X102.639Y233.917
X103.934Y234.304
X105.242Y234.640
X106.107Y234.833
X106.979Y235.007
X107.859Y235.162
X108.744Y235.298
X109.634Y235.415
X110.530Y235.513
X111.429Y235.592
X112.331Y235.652
X113.236Y235.693
X114.143Y235.716
X115.052Y235.720
X115.961Y235.706
X116.870Y235.673
X117.778Y235.622
X118.685Y235.552
X119.590Y235.465
X120.492Y235.359
X121.391Y235.235
X122.286Y235.093
X123.176Y234.933
X124.061Y234.755
X124.940Y234.559
X125.812Y234.346
X126.676Y234.115
X127.533Y233.866
X128.380Y233.600
X129.219Y233.316
X130.047Y233.015
X130.865Y232.697
X131.671Y232.361
X132.465Y232.009
X133.246Y231.639
X134.315Y231.103
X135.312Y230.575
X136.238Y230.055
X137.090Y229.545
X137.869Y229.044
X138.574Y228.552
X139.204Y228.072
X139.759Y227.603
X140.238Y227.145
X140.640Y226.700
X140.965Y226.267
X141.098Y226.056
X141.212Y225.849
X141.306Y225.644
X141.381Y225.444
X141.435Y225.247
X141.470Y225.054
X141.485Y224.864
X141.479Y224.679
X141.454Y224.497
X141.408Y224.320
X141.278Y223.956
X141.131Y223.647
X140.964Y223.393
X140.775Y223.194
X140.671Y223.115
X140.560Y223.050
X140.441Y222.999
X140.315Y222.962
X140.181Y222.940
X140.038Y222.932
X139.726Y222.958
X139.375Y223.043
X138.982Y223.186
X138.543Y223.387
X138.056Y223.649
X137.517Y223.970
X136.923Y224.352
X136.271Y224.795
X135.558Y225.299
X134.870Y225.776
X134.157Y226.236
X133.420Y226.679
X132.662Y227.105
X131.883Y227.514
X131.084Y227.905
X130.267Y228.278
X129.432Y228.633
X128.583Y228.969
X127.719Y229.286
X126.841Y229.584
X125.952Y229.863
X125.053Y230.123
X124.144Y230.362
X123.228Y230.582
X122.305Y230.781
X121.376Y230.959
X120.444Y231.117
X119.509Y231.253
X118.572Y231.368
X117.636Y231.461
X116.701Y231.532
X115.768Y231.581
X114.839Y231.608
X113.915Y231.611
X112.997Y231.592
X112.088Y231.550
X111.187Y231.483
X110.297Y231.394
X109.418Y231.279
X108.552Y231.141
X107.700Y230.978
X106.797Y230.774
X105.890Y230.536
X104.981Y230.265
X104.070Y229.962
X103.159Y229.628
X102.250Y229.264
X101.342Y228.871
X100.438Y228.450
X99.539Y228.002
X98.646Y227.527
X97.761Y227.027
X96.884Y226.503
X96.017Y225.955
X95.160Y225.385
X94.317Y224.793
X93.486Y224.181
X92.671Y223.548
X91.871Y222.897
X91.089Y222.229
X90.325Y221.543
X89.581Y220.841
X88.858Y220.125
X88.157Y219.394
X87.480Y218.650
X86.827Y217.894
X86.201Y217.127
X85.601Y216.350
X85.030Y215.563
X84.489Y214.768
X83.979Y213.965
X83.500Y213.156
X83.056Y212.341
X82.704Y211.651
X82.367Y210.958
X82.046Y210.262
X81.740Y209.562
X81.449Y208.860
X81.174Y208.155
X80.914Y207.447
X80.669Y206.738
X80.439Y206.026
X80.225Y205.312
X79.841Y203.879
X79.518Y202.440
X79.254Y200.998
X79.051Y199.553
X78.907Y198.107
X78.822Y196.662
X78.796Y195.219
X78.829Y193.779
X78.920Y192.345
X79.070Y190.917
X79.278Y189.498
X79.543Y188.088
X79.866Y186.690
X80.246Y185.304
X80.683Y183.933
X81.177Y182.578
X81.727Y181.240
X82.333Y179.921
X82.996Y178.622
X83.714Y177.345
X84.487Y176.092
X84.895Y175.474
X85.316Y174.863
X85.751Y174.259
X86.199Y173.662
X86.662Y173.071
X87.138Y172.488
X87.627Y171.912
X88.130Y171.344
X88.647Y170.783
X89.177Y170.231
X89.721Y169.686
X90.278Y169.150
X91.251Y168.260
X92.243Y167.406
X93.252Y166.590
X94.278Y165.813
X95.318Y165.075
X96.371Y164.377
X97.436Y163.720
X98.511Y163.105
X99.594Y162.533
X100.685Y162.003
X101.781Y161.518
X102.881Y161.078
X103.984Y160.684
X105.089Y160.337
X106.193Y160.037
X107.295Y159.785
X108.596Y159.494
X109.136Y159.351
X109.606Y159.205
X110.009Y159.055
X110.348Y158.897
X110.625Y158.728
X110.845Y158.546
X111.009Y158.346
X111.120Y158.128
X111.182Y157.887
X111.198Y157.621
X111.169Y157.327
X111.100Y157.002
X110.992Y156.643
X110.850Y156.248
X110.720Y155.991
X110.637Y155.877
X110.542Y155.773
X110.435Y155.678
X110.315Y155.592
X110.038Y155.450
X109.710Y155.345
X109.329Y155.279
X108.895Y155.251
X108.406Y155.261
X107.863Y155.309
X107.263Y155.396
X106.606Y155.521
X105.891Y155.685
X105.116Y155.887
X104.281Y156.127
X103.385Y156.407
X102.427Y156.725
G1Z-1.500F304.8
G1X101.300Y157.126F1016.0
X100.192Y157.555
X99.101Y158.012
X98.028Y158.496
X96.974Y159.007
X95.939Y159.544
X94.924Y160.108
X93.928Y160.697
X92.952Y161.312
X91.997Y161.952
X91.063Y162.617
X90.150Y163.306
X89.259Y164.019
X88.390Y164.756
X87.543Y165.516
X86.719Y166.299
X85.918Y167.104
X85.141Y167.932
X84.388Y168.781
X83.659Y169.652
X82.954Y170.544
X82.275Y171.457
X81.621Y172.389
X80.992Y173.342
X80.390Y174.315
X79.814Y175.307
X79.266Y176.317
X78.744Y177.347
X78.250Y178.394
X77.784Y179.459
X77.347Y180.542
X76.938Y181.641
X76.727Y182.260
X76.526Y182.897
X76.156Y184.222
X75.829Y185.607
X75.545Y187.043
X75.304Y188.520
X75.109Y190.030
X74.957Y191.562
X74.851Y193.107
X74.791Y194.656
X74.777Y196.200
X74.810Y197.729
X74.890Y199.234
X75.018Y200.705
X75.195Y202.133
X75.420Y203.509
X75.551Y204.174
X75.694Y204.823
X76.030Y206.146
X76.418Y207.457
X76.855Y208.754
X77.340Y210.037
X77.873Y211.304
X78.451Y212.554
X79.073Y213.785
X79.739Y214.996
X80.447Y216.186
X81.195Y217.353
X81.982Y218.496
X82.807Y219.614
X83.668Y220.706
X84.565Y221.769
X85.496Y222.804
X86.459Y223.808
X87.454Y224.780
X88.479Y225.718
X89.532Y226.623
X90.613Y227.491
X91.720Y228.323
X92.851Y229.116
X94.007Y229.869
X95.184Y230.581
X96.382Y231.251
X97.599Y231.877
X98.835Y232.458
X100.088Y232.992
X101.356Y233.479
X102.639Y233.917
X103.934Y234.304
X105.242Y234.640
X106.107Y234.833
X106.979Y235.007
X107.859Y235.162
X108.744Y235.298
X109.634Y235.415
X110.530Y235.513
X111.429Y235.592
X112.331Y235.652
X113.236Y235.693
X114.143Y235.716
X115.052Y235.720
X115.961Y235.706
X116.870Y235.673
