(VECTRIC POST REV.)
(82074C4DCA892683619619E26FA56BD3)

G20 G21
G0Z20.320
G0X0.000Y0.000S18000M3
G0X20.940Y36.186
G0Z5.080
G1Z0.000F304.8
G1X28.554Y51.414Z-0.319
G1Y48.440Z-0.375
G1Y51.414Z-0.431
G1X20.940Y36.186Z-0.750
G1X28.554Y51.414F1016.0
Y36.186
G1Y51.414Z-1.036F304.8
G1X26.420Y47.146Z-1.125
G1X28.554Y51.414Z-1.214
G1Y36.186Z-1.500
G1Y51.414F1016.0
X20.940Y36.186
G0Z5.080
G0X21.739Y58.229
G1Z0.000F304.8
G1X28.554Y51.414Z-0.181
G1X18.191Z-0.375
G1X28.554Z-0.569
G1X21.739Y58.229Z-0.750
G1X28.554Y51.414F1016.0
X17.970
G1X28.554Z-0.948F304.8
G1X21.896Y58.072Z-1.125
G1X28.554Y51.414Z-1.302
G1X17.970Z-1.500
G1X28.554F1016.0
X21.739Y58.229
G0Z5.080
G0X28.554Y70.449
G1Z0.000F304.8
G1X23.529Y61.426Z-0.387
G1X21.739Y58.229Z-0.525
G1X18.832Y52.971Z-0.750
G1X17.970Y51.414F1016.0
X15.572Y47.074
X9.519Y36.186
X10.323
X47.589
X40.622Y48.711
Y48.749
X36.282Y56.554
X34.950Y58.952
X28.554Y70.449
X23.529Y61.426
X21.739Y58.229
X18.832Y52.971
G1X17.970Y51.414Z-0.817F304.8
G1X15.572Y47.074Z-1.003
G1X9.519Y36.186Z-1.470
G1X10.323Z-1.500
G1X47.589F1016.0
X40.622Y48.711
Y48.749
X36.282Y56.554
X34.950Y58.952
X28.554Y70.449
X23.529Y61.426
X21.739Y58.229
X18.832Y52.971
X17.970Y51.414
X15.572Y47.074
X9.519Y36.186
X10.323
G0Z5.080
G0X28.554Y70.449
G1Z0.000F304.8
G1X32.361Z-0.375
G1X28.554Z-0.750
G1X32.361F1016.0
G1X28.554Z-1.125F304.8
G1X32.361Z-1.500
G1X28.554F1016.0
G0Z5.080
G0X40.622Y48.749
G1Z0.000F304.8
G1X28.554Y51.414Z-0.232
G1X34.916Y55.645Z-0.375
G1X28.554Y51.414Z-0.518
G1X40.622Y48.749Z-0.750
G1X28.554Y51.414F1016.0
X36.282Y56.554
G1X28.554Y51.414Z-0.924F304.8
G1X39.021Y49.103Z-1.125
G1X28.554Y51.414Z-1.326
G1X36.282Y56.554Z-1.500
G1X28.554Y51.414F1016.0
X40.622Y48.749
G0Z5.080
G0X47.589Y36.186
G1Z0.000F304.8
G1X51.396Z-0.375
G1X47.589Z-0.750
G1X51.396F1016.0
G1X47.589Z-1.125F304.8
G1X51.396Z-1.500
G1X47.589F1016.0
G0Z5.080
G0X59.010Y43.800
G1Z0.000F304.8
G1X62.817Y36.186Z-0.160
G1X66.624Z-0.231
G1X63.190Y43.056Z-0.375
G1X66.624Y36.186Z-0.519
G1X62.817Z-0.590
G1X59.010Y43.800Z-0.750
G1X62.817Y36.186F1016.0
X66.624
X60.956Y47.527
X70.060Y66.642
X116.116
X119.923Y74.256
G1X116.116Y66.642Z-0.910F304.8
G1X104.628Z-1.125
G1X116.116Z-1.340
G1X119.923Y74.256Z-1.500
G1X116.116Y66.642F1016.0
X70.060
X60.956Y47.527
X66.624Y36.186
X62.817
X59.010Y43.800
G0Z5.080
G0X84.567Y97.098
G1Z0.000F304.8
G1X93.168Y115.155Z-0.375
G1X84.567Y97.098Z-0.750
G1X100.887Y131.362F1016.0
X141.527Y46.388
X135.151Y36.186
X138.958
G1X135.151Z-0.821F304.8
G1X141.527Y46.388Z-1.047
G1X139.731Y50.143Z-1.125
G1X141.527Y46.388Z-1.203
G1X135.151Y36.186Z-1.429
G1X138.958Z-1.500
G1X135.151F1016.0
X141.527Y46.388
X100.887Y131.362
X84.567Y97.098
G0Z5.080
G0X97.080
G1Z0.000F304.8
G1X100.887Y112.326Z-0.375
G1X97.080Y97.098Z-0.750
G1X100.887Y112.326F1016.0
G1X97.080Y97.098Z-1.125F304.8
G1X100.887Y112.326Z-1.500
G1X97.080Y97.098F1016.0
G0Z5.080
G0X96.380Y137.672
G1Z0.000F304.8
G1Z-0.750
G1X96.305Y137.777F1016.0
G1Z-1.500F304.8
G1X96.380Y137.672F1016.0
G0Z5.080
G0X96.305Y137.777
G1Z0.000F304.8
G1X100.887Y131.362Z-0.148
G1X95.967Y142.433Z-0.375
G1X100.887Y131.362Z-0.602
G1X96.305Y137.777Z-0.750
G1X100.887Y131.362F1016.0
X85.659Y165.625
G1X93.782Y147.349Z-1.125F304.8
G1X85.659Y165.625Z-1.500
G1X100.887Y131.362F1016.0
X96.305Y137.777
G0Z5.080
G0X105.387Y137.660
G1Z0.000F304.8
G1Z-0.750
G1X105.470Y137.777F1016.0
G1Z-1.500F304.8
G1X105.387Y137.660F1016.0
G0Z5.080
G0X105.470Y137.777
G1Z0.000F304.8
G1X100.887Y131.362Z-0.148
G1X105.808Y142.433Z-0.375
G1X100.887Y131.362Z-0.602
G1X105.470Y137.777Z-0.750
G1X100.887Y131.362F1016.0
X107.263Y145.706
X104.694Y142.783
X100.887Y154.204
X110.431Y152.835
X116.116Y165.625
X119.923
Y158.011
X117.932Y155.225
G1X119.923Y158.011Z-0.814F304.8
G1Y165.625Z-0.957
G1X116.116Z-1.028
G1X114.022Y160.914Z-1.125
G1X116.116Y165.625Z-1.222
G1X119.923Z-1.293
G1Y158.011Z-1.436
G1X117.932Y155.225Z-1.500
G1X119.923Y158.011F1016.0
Y165.625
X116.116
X110.431Y152.835
X100.887Y154.204
X104.694Y142.783
X107.263Y145.706
X100.887Y131.362
X105.470Y137.777
G0Z5.080
G0X107.263Y145.706
G1Z0.000F304.8
G1X110.431Y152.835Z-0.375
G1X107.263Y145.706Z-0.750
G1X110.431Y152.835F1016.0
G1X107.263Y145.706Z-1.125F304.8
G1X110.431Y152.835Z-1.500
G1X107.263Y145.706F1016.0
G0Z5.080
G0X100.887Y154.204
G1Z0.000F304.8
G1Y161.519Z-0.274
G1Y165.625Z-0.428
G1X93.323Z-0.712
G1X93.883Y164.779Z-0.750
G1X100.887Y154.204F1016.0
Y161.519
Y165.625
X93.323
X93.883Y164.779
G1X100.887Y154.204Z-1.226F304.8
G1Y161.519Z-1.500
G1Y165.625F1016.0
X93.323
X93.883Y164.779
X100.887Y154.204
Y161.519
G0Z5.080
G0Y165.625
G1Z0.000F304.8
G1X116.116Z-0.375
G1X100.887Z-0.750
G1X116.116F1016.0
G1X100.887Z-1.125F304.8
G1X116.116Z-1.500
G1X100.887F1016.0
G0Z5.080
G0X93.323
G1Z0.000F304.8
G1X81.852Z-0.215
G1Y158.011Z-0.358
G1X82.384Y157.266Z-0.375
G1X81.852Y158.011Z-0.392
G1Y165.625Z-0.535
G1X93.323Z-0.750
G1X81.852F1016.0
Y158.011
X83.841Y155.227
G1X81.852Y158.011Z-0.814F304.8
G1Y165.625Z-0.957
G1X90.817Z-1.125
G1X81.852Z-1.293
G1Y158.011Z-1.436
G1X83.841Y155.227Z-1.500
G1X81.852Y158.011F1016.0
Y165.625
X93.323
G0Z5.080
G0X85.659Y158.011
G1Z0.000F304.8
G1X78.198Y146.590Z-0.512
G1X80.135Y140.535Z-0.750
G1X81.852Y135.169Z-0.750F1016.0
X70.660Y134.978
X68.927Y132.322
X58.515Y116.362
X59.010Y104.712
X53.185Y108.215
X32.361Y70.449
X51.396Y36.186
X62.817
X55.203Y51.414
X67.119Y74.256
X119.923
X100.887Y112.326
Y97.098
X75.228
X96.395Y137.643
X85.659Y158.011
X78.198Y146.590
X80.135Y140.535
G1X81.852Y135.169Z-0.961F304.8
G1X70.660Y134.978Z-1.381
G1X68.927Y132.322Z-1.500
G1X58.515Y116.362F1016.0
X59.010Y104.712
X53.185Y108.215
X32.361Y70.449
X51.396Y36.186
X62.817
X55.203Y51.414
X67.119Y74.256
X119.923
X100.887Y112.326
Y97.098
X75.228
X96.395Y137.643
X85.659Y158.011
X78.198Y146.590
X80.135Y140.535
X81.852Y135.169
X70.660Y134.978
X68.927Y132.322
G0Z5.080
G0X78.204Y146.570
G1Z0.000F304.8
G1X75.201Y135.055Z-0.375
G1X78.204Y146.570Z-0.750
G1X75.201Y135.055F1016.0
G1X78.204Y146.570Z-1.125F304.8
G1X75.201Y135.055Z-1.500
G1X78.204Y146.570F1016.0
G0Z5.080
G0X95.579Y143.306
G1Z0.000F304.8
G1X100.887Y154.204Z-0.227
G1X93.872Y150.620Z-0.375
G1X100.887Y154.204Z-0.523
G1X95.579Y143.306Z-0.750
G1X100.887Y154.204F1016.0
X92.615Y149.978
X92.616Y149.972
G1X92.615Y149.978Z-0.750F304.8
G1X100.887Y154.204Z-0.924
G1X96.199Y144.580Z-1.125
G1X100.887Y154.204Z-1.326
G1X92.615Y149.978Z-1.500
G1X92.616Y149.972Z-1.500
G1X92.615Y149.978F1016.0
X100.887Y154.204
X95.579Y143.306
G0Z5.080
G0X173.221Y70.449
G1Z0.000F304.8
G1X169.414Z-0.375
G1X173.221Z-0.750
G1X169.414F1016.0
G1X173.221Z-1.125F304.8
G1X169.414Z-1.500
G1X173.221F1016.0
G0Z5.080
G0X180.035Y58.229
G1Z0.000F304.8
G1X173.221Y51.414Z-0.181
G1X183.584Z-0.375
G1X173.221Z-0.569
G1X180.035Y58.229Z-0.750
G1X173.221Y51.414F1016.0
X183.804
G1X173.221Z-0.948F304.8
G1X179.879Y58.072Z-1.125
G1X173.221Y51.414Z-1.302
G1X183.804Z-1.500
G1X173.221F1016.0
X180.035Y58.229
G0Z5.080
G0X165.493Y56.554
G1Z0.000F304.8
G1X173.221Y51.414Z-0.174
G1X162.754Y49.103Z-0.375
G1X173.221Y51.414Z-0.576
G1X165.493Y56.554Z-0.750
G1X173.221Y51.414F1016.0
X161.153Y48.749
G1X173.221Y51.414Z-0.982F304.8
G1X166.858Y55.645Z-1.125
G1X173.221Y51.414Z-1.268
G1X161.153Y48.749Z-1.500
G1X173.221Y51.414F1016.0
X165.493Y56.554
G0Z5.080
G0X154.186Y36.186
G1Z0.000F304.8
G1X174.186Z-0.750
G1X192.256F1016.0
X191.318Y37.873
X186.203Y47.074
X183.804Y51.414
X180.035Y58.229
X178.246Y61.426
X173.221Y70.449
X166.825Y58.952
X165.493Y56.554
X161.153Y48.749
Y48.711
X154.186Y36.186
X174.186
G1X192.256Z-1.428F304.8
G1X191.318Y37.873Z-1.500
G1X186.203Y47.074Z-1.500F1016.0
X183.804Y51.414
X180.035Y58.229
X178.246Y61.426
X173.221Y70.449
X166.825Y58.952
X165.493Y56.554
X161.153Y48.749
Y48.711
X154.186Y36.186
X174.186
X192.256
X191.318Y37.873
G0Z5.080
G0X154.186Y36.186
G1Z0.000F304.8
G1X150.379Z-0.375
G1X154.186Z-0.750
G1X150.379F1016.0
G1X154.186Z-1.125F304.8
G1X150.379Z-1.500
G1X154.186F1016.0
G0Z5.080
G0X150.379
G1Z0.000F304.8
G1X160.092Y53.669Z-0.750
G1X169.414Y70.449F1016.0
X169.023Y71.152
X150.379Y104.712
X142.765Y100.905
X145.909Y112.326
X116.116Y158.011
X105.384Y137.655
X146.572Y51.414
X138.958Y36.186
X150.379
X160.092Y53.669
G1X169.414Y70.449Z-1.470F304.8
G1X169.023Y71.152Z-1.500
G1X150.379Y104.712F1016.0
X142.765Y100.905
X145.909Y112.326
X116.116Y158.011
X105.384Y137.655
X146.572Y51.414
X138.958Y36.186
X150.379
X160.092Y53.669
X169.414Y70.449
X169.023Y71.152
G0Z5.080
G0X180.835Y36.186
G1Z0.000F304.8
G1X173.221Y51.414Z-0.319
G1Y48.440Z-0.375
G1Y51.414Z-0.431
G1X180.835Y36.186Z-0.750
G1X173.221Y51.414F1016.0
Y36.186
G1Y51.414Z-1.036F304.8
G1X175.355Y47.146Z-1.125
G1X173.221Y51.414Z-1.214
G1Y36.186Z-1.500
G1Y51.414F1016.0
X180.835Y36.186
G0Z5.080
G0Z20.320
G0X0.000Y0.000
M30
