(VECTRIC POST REV.)
(82074C4DCA892683619619E26FA56BD3)
T1M6
G
G0Z20.320
G0X0.000Y0.000S14000M3
G0X70.973Y98.700
G0Z5.080
G1Z-0.750F1800.0
G1X70.865Y98.789F1500.0
X70.771Y98.890
X70.695Y99.006
X70.635Y99.140
X70.592Y99.291
X70.567Y99.459
X70.538Y99.625
X70.517Y99.901
X70.495Y100.933
X70.484Y102.772
X70.479Y105.622
Y111.000
X70.490Y112.706
X70.523Y113.971
X71.390Y114.021
X72.180Y114.037
X72.651Y114.030
X73.109Y114.007
X73.555Y113.969
X73.988Y113.916
X74.408Y113.848
X74.816Y113.764
X75.210Y113.665
X75.592Y113.551
X75.961Y113.421
X76.314Y113.274
X76.653Y113.109
X76.977Y112.927
X77.287Y112.728
X77.581Y112.512
X77.861Y112.278
X78.127Y112.027
X78.377Y111.758
X78.613Y111.471
X78.832Y111.166
X79.037Y110.841
X79.226Y110.499
X79.399Y110.138
X79.558Y109.758
X79.701Y109.360
X79.828Y108.943
X79.938Y108.504
X80.031Y108.046
X80.107Y107.567
X80.166Y107.067
X80.208Y106.547
X80.234Y106.006
X80.242Y105.445
X80.217Y104.574
X80.143Y103.705
X80.081Y103.277
X79.996Y102.859
X79.888Y102.452
X79.756Y102.054
X79.598Y101.669
X79.412Y101.298
X79.198Y100.940
X78.955Y100.596
X78.679Y100.271
X78.363Y99.968
X78.008Y99.688
X77.613Y99.431
X77.177Y99.199
X76.697Y98.992
X76.172Y98.812
X75.603Y98.658
X74.986Y98.535
X74.314Y98.447
X73.588Y98.394
X72.809Y98.377
X72.345Y98.385
X71.926Y98.410
X71.554Y98.464
X71.235Y98.559
X71.097Y98.623
X70.973Y98.700
G1Z-1.500F1800.0
G1X70.865Y98.789F1500.0
X70.771Y98.890
X70.695Y99.006
X70.635Y99.140
X70.592Y99.291
X70.567Y99.459
X70.538Y99.625
X70.517Y99.901
X70.495Y100.933
X70.484Y102.772
X70.479Y105.622
Y111.000
X70.490Y112.706
X70.523Y113.971
X71.390Y114.021
X72.180Y114.037
X72.651Y114.030
X73.109Y114.007
X73.555Y113.969
X73.988Y113.916
X74.408Y113.848
X74.816Y113.764
X75.210Y113.665
X75.592Y113.551
X75.961Y113.421
X76.314Y113.274
X76.653Y113.109
X76.977Y112.927
X77.287Y112.728
X77.581Y112.512
X77.861Y112.278
X78.127Y112.027
X78.377Y111.758
X78.613Y111.471
X78.832Y111.166
X79.037Y110.841
X79.226Y110.499
X79.399Y110.138
X79.558Y109.758
X79.701Y109.360
X79.828Y108.943
X79.938Y108.504
X80.031Y108.046
X80.107Y107.567
X80.166Y107.067
X80.208Y106.547
X80.234Y106.006
X80.242Y105.445
X80.217Y104.574
X80.143Y103.705
X80.081Y103.277
X79.996Y102.859
X79.888Y102.452
X79.756Y102.054
X79.598Y101.669
X79.412Y101.298
X79.198Y100.940
X78.955Y100.596
X78.679Y100.271
X78.363Y99.968
X78.008Y99.688
X77.613Y99.431
X77.177Y99.199
X76.697Y98.992
X76.172Y98.812
X75.603Y98.658
X74.986Y98.535
X74.314Y98.447
X73.588Y98.394
X72.809Y98.377
X72.345Y98.385
X71.926Y98.410
X71.554Y98.464
X71.235Y98.559
X71.097Y98.623
X70.973Y98.700
G0Z5.080
G0X71.153Y97.228
G1Z-0.750F1800.0
G1X72.130Y97.167F1500.0
X73.129Y97.140
X74.060Y97.165
X74.939Y97.243
X75.769Y97.373
X76.164Y97.457
X76.548Y97.554
X77.279Y97.780
X77.965Y98.045
X78.607Y98.349
X79.204Y98.691
X79.757Y99.068
X80.268Y99.475
X80.737Y99.913
X81.164Y100.381
X81.551Y100.873
X81.900Y101.381
X82.211Y101.905
X82.484Y102.446
X82.721Y103.001
X82.924Y103.567
X83.094Y104.144
X83.229Y104.733
X83.333Y105.324
X83.408Y105.910
X83.452Y106.492
X83.467Y107.068
X83.457Y107.545
X83.427Y108.009
X83.377Y108.460
X83.307Y108.899
X83.217Y109.325
X83.107Y109.738
X82.976Y110.138
X82.826Y110.525
X82.656Y110.899
X82.466Y111.258
X82.257Y111.602
X82.027Y111.931
X81.778Y112.245
X81.508Y112.544
X81.219Y112.829
X80.910Y113.099
X80.581Y113.353
X80.232Y113.592
X79.863Y113.816
X79.474Y114.024
X79.065Y114.216
X78.636Y114.393
X78.187Y114.554
X77.718Y114.700
X77.229Y114.829
X76.721Y114.942
X76.192Y115.036
X75.643Y115.114
X75.075Y115.175
X74.487Y115.218
X73.879Y115.244
X73.251Y115.252
X72.447Y115.240
X71.561Y115.202
X70.607Y115.139
X69.601Y115.048
X68.550Y114.928
X67.464Y114.777
X66.357Y114.598
X65.244Y114.391
X64.957Y113.242
X66.282Y113.463
X67.607Y113.662
X67.624Y112.972
X67.629Y112.071
Y102.883
X67.613Y101.132
X67.569Y99.597
X67.497Y98.399
X67.086Y98.359
X66.725Y98.307
X66.415Y98.243
X66.155Y98.167
X65.936Y98.082
X65.749Y97.993
X65.594Y97.900
X65.470Y97.802
X65.374Y97.704
X65.299Y97.608
X65.247Y97.513
X65.216Y97.421
X65.178Y97.140
X65.553Y97.162
X66.426Y97.228
X67.607Y97.289
X68.911Y97.316
X70.098Y97.289
X71.153Y97.228
G1Z-1.500F1800.0
G1X72.130Y97.167F1500.0
X73.129Y97.140
X74.060Y97.165
X74.939Y97.243
X75.769Y97.373
X76.164Y97.457
X76.548Y97.554
X77.279Y97.780
X77.965Y98.045
X78.607Y98.349
X79.204Y98.691
X79.757Y99.068
X80.268Y99.475
X80.737Y99.913
X81.164Y100.381
X81.551Y100.873
X81.900Y101.381
X82.211Y101.905
X82.484Y102.446
X82.721Y103.001
X82.924Y103.567
X83.094Y104.144
X83.229Y104.733
X83.333Y105.324
X83.408Y105.910
X83.452Y106.492
X83.467Y107.068
X83.457Y107.545
X83.427Y108.009
X83.377Y108.460
X83.307Y108.899
X83.217Y109.325
X83.107Y109.738
X82.976Y110.138
X82.826Y110.525
X82.656Y110.899
X82.466Y111.258
X82.257Y111.602
X82.027Y111.931
X81.778Y112.245
X81.508Y112.544
X81.219Y112.829
X80.910Y113.099
X80.581Y113.353
X80.232Y113.592
X79.863Y113.816
X79.474Y114.024
X79.065Y114.216
X78.636Y114.393
X78.187Y114.554
X77.718Y114.700
X77.229Y114.829
X76.721Y114.942
X76.192Y115.036
X75.643Y115.114
X75.075Y115.175
X74.487Y115.218
X73.879Y115.244
X73.251Y115.252
X72.447Y115.240
X71.561Y115.202
X70.607Y115.139
X69.601Y115.048
X68.550Y114.928
X67.464Y114.777
X66.357Y114.598
X65.244Y114.391
X64.957Y113.242
X66.282Y113.463
X67.607Y113.662
X67.624Y112.972
X67.629Y112.071
Y102.883
X67.613Y101.132
X67.569Y99.597
X67.497Y98.399
X67.086Y98.359
X66.725Y98.307
X66.415Y98.243
X66.155Y98.167
X65.936Y98.082
X65.749Y97.993
X65.594Y97.900
X65.470Y97.802
X65.374Y97.704
X65.299Y97.608
X65.247Y97.513
X65.216Y97.421
X65.178Y97.140
X65.553Y97.162
X66.426Y97.228
X67.607Y97.289
X68.911Y97.316
X70.098Y97.289
X71.153Y97.228
G0Z5.080
G0X88.382Y104.694
G1Z-0.750F1800.0
G1X88.411Y105.197F1500.0
X88.466Y105.657
X88.546Y106.075
X88.652Y106.450
X88.780Y106.786
X88.924Y107.088
X89.086Y107.355
X89.265Y107.587
X89.459Y107.787
X89.667Y107.956
X89.887Y108.094
X90.121Y108.200
X90.364Y108.280
X90.611Y108.337
X90.863Y108.371
X91.121Y108.383
X91.408Y108.370
X91.674Y108.330
X91.919Y108.265
X92.142Y108.173
X92.346Y108.058
X92.532Y107.924
X92.699Y107.771
X92.849Y107.599
X92.981Y107.408
X93.093Y107.201
X93.188Y106.977
X93.263Y106.737
X93.321Y106.484
X93.363Y106.223
X93.387Y105.954
X93.396Y105.677
X93.379Y105.318
X93.353Y105.109
X93.307Y104.893
X88.382Y104.694
G1Z-1.500F1800.0
G1X88.411Y105.197F1500.0
X88.466Y105.657
X88.546Y106.075
X88.652Y106.450
X88.780Y106.786
X88.924Y107.088
X89.086Y107.355
X89.265Y107.587
X89.459Y107.787
X89.667Y107.956
X89.887Y108.094
X90.121Y108.200
X90.364Y108.280
X90.611Y108.337
X90.863Y108.371
X91.121Y108.383
X91.408Y108.370
X91.674Y108.330
X91.919Y108.265
X92.142Y108.173
X92.346Y108.058
X92.532Y107.924
X92.699Y107.771
X92.849Y107.599
X92.981Y107.408
X93.093Y107.201
X93.188Y106.977
X93.263Y106.737
X93.321Y106.484
X93.363Y106.223
X93.387Y105.954
X93.396Y105.677
X93.379Y105.318
X93.353Y105.109
X93.307Y104.893
X88.382Y104.694
G0Z5.080
G0X88.404Y103.700
G1Z-0.750F1800.0
G1X95.870Y104.009F1500.0
X95.979Y104.483
X96.063Y104.953
X96.117Y105.430
X96.135Y105.920
X96.123Y106.301
X96.086Y106.674
X96.026Y107.036
X95.941Y107.389
X95.829Y107.726
X95.686Y108.042
X95.512Y108.336
X95.306Y108.609
X95.067Y108.858
X94.791Y109.080
X94.479Y109.275
X94.130Y109.443
X93.742Y109.578
X93.312Y109.675
X92.839Y109.733
X92.324Y109.752
X91.714Y109.725
X91.107Y109.644
X90.504Y109.510
X89.906Y109.321
X89.611Y109.207
X89.325Y109.078
X89.046Y108.935
X88.775Y108.779
X88.512Y108.608
X88.256Y108.424
X88.009Y108.225
X87.769Y108.013
X87.538Y107.786
X87.319Y107.546
X87.112Y107.291
X86.915Y107.023
X86.731Y106.740
X86.557Y106.444
X86.395Y106.134
X86.245Y105.809
X86.109Y105.471
X85.991Y105.118
X85.891Y104.750
X85.810Y104.368
X85.746Y103.971
X85.701Y103.560
X85.674Y103.135
X85.665Y102.695
X85.672Y102.302
X85.694Y101.926
X85.730Y101.564
X85.781Y101.219
X85.846Y100.889
X85.926Y100.575
X86.020Y100.277
X86.129Y99.995
X86.378Y99.471
X86.664Y99.001
X86.821Y98.785
X86.986Y98.582
X87.160Y98.393
X87.343Y98.216
X87.731Y97.901
X88.144Y97.632
X88.582Y97.412
X89.044Y97.239
X89.521Y97.109
X90.000Y97.015
X90.481Y96.959
X90.966Y96.941
X91.311Y96.949
X91.656Y96.975
X92.001Y97.018
X92.345Y97.079
X92.689Y97.156
X93.034Y97.251
X93.378Y97.364
X93.722Y97.493
X94.065Y97.640
X94.409Y97.804
X94.752Y97.985
X95.095Y98.183
X95.781Y98.632
X96.466Y99.150
X96.024Y99.879
X95.529Y99.636
X95.080Y99.437
X94.666Y99.277
X94.274Y99.150
X93.897Y99.056
X93.528Y98.995
X93.158Y98.962
X92.777Y98.951
X92.308Y98.967
X91.859Y99.017
X91.432Y99.100
X91.027Y99.216
X90.646Y99.367
X90.292Y99.557
X89.966Y99.784
X89.668Y100.050
X89.399Y100.355
X89.160Y100.701
X88.952Y101.089
X88.774Y101.519
X88.628Y101.992
X88.518Y102.514
X88.443Y103.083
X88.404Y103.700
G1Z-1.500F1800.0
G1X95.870Y104.009F1500.0
X95.979Y104.483
X96.063Y104.953
X96.117Y105.430
X96.135Y105.920
X96.123Y106.301
X96.086Y106.674
X96.026Y107.036
X95.941Y107.389
X95.829Y107.726
X95.686Y108.042
X95.512Y108.336
X95.306Y108.609
X95.067Y108.858
X94.791Y109.080
X94.479Y109.275
X94.130Y109.443
X93.742Y109.578
X93.312Y109.675
X92.839Y109.733
X92.324Y109.752
X91.714Y109.725
X91.107Y109.644
X90.504Y109.510
X89.906Y109.321
X89.611Y109.207
X89.325Y109.078
X89.046Y108.935
X88.775Y108.779
X88.512Y108.608
X88.256Y108.424
X88.009Y108.225
X87.769Y108.013
X87.538Y107.786
X87.319Y107.546
X87.112Y107.291
X86.915Y107.023
X86.731Y106.740
X86.557Y106.444
X86.395Y106.134
X86.245Y105.809
X86.109Y105.471
X85.991Y105.118
X85.891Y104.750
X85.810Y104.368
X85.746Y103.971
X85.701Y103.560
X85.674Y103.135
X85.665Y102.695
X85.672Y102.302
X85.694Y101.926
X85.730Y101.564
X85.781Y101.219
X85.846Y100.889
X85.926Y100.575
X86.020Y100.277
X86.129Y99.995
X86.378Y99.471
X86.664Y99.001
X86.821Y98.785
X86.986Y98.582
X87.160Y98.393
X87.343Y98.216
X87.731Y97.901
X88.144Y97.632
X88.582Y97.412
X89.044Y97.239
X89.521Y97.109
X90.000Y97.015
X90.481Y96.959
X90.966Y96.941
X91.311Y96.949
X91.656Y96.975
X92.001Y97.018
X92.345Y97.079
X92.689Y97.156
X93.034Y97.251
X93.378Y97.364
X93.722Y97.493
X94.065Y97.640
X94.409Y97.804
X94.752Y97.985
X95.095Y98.183
X95.781Y98.632
X96.466Y99.150
X96.024Y99.879
X95.529Y99.636
X95.080Y99.437
X94.666Y99.277
X94.274Y99.150
X93.897Y99.056
X93.528Y98.995
X93.158Y98.962
X92.777Y98.951
X92.308Y98.967
X91.859Y99.017
X91.432Y99.100
X91.027Y99.216
X90.646Y99.367
X90.292Y99.557
X89.966Y99.784
X89.668Y100.050
X89.399Y100.355
X89.160Y100.701
X88.952Y101.089
X88.774Y101.519
X88.628Y101.992
X88.518Y102.514
X88.443Y103.083
X88.404Y103.700
G0Z5.080
G0X103.979Y97.486
G1Z-0.750F1800.0
G1X103.954Y97.399F1500.0
X103.921Y97.162
X104.263Y97.200
X105.003Y97.250
X106.041Y97.294
X107.278Y97.316
X108.300Y97.305
X109.217Y97.278
X109.912Y97.239
X110.282Y97.206
X110.680Y98.134
X110.012Y98.209
X109.509Y98.283
X109.145Y98.363
X108.891Y98.459
X108.801Y98.516
X108.729Y98.582
X108.677Y98.657
X108.642Y98.741
X108.602Y98.948
X108.582Y99.216
X108.548Y100.282
X108.537Y101.712
Y109.863
X108.548Y112.149
X108.576Y114.291
X108.620Y116.158
X108.692Y117.616
X108.471Y117.770
X108.163Y117.676
X107.748Y117.571
X106.660Y117.351
X106.014Y117.244
X105.313Y117.146
X104.573Y117.062
X103.810Y116.997
X103.590Y116.092
X104.782Y116.075
X105.159Y116.039
X105.307Y116.007
X105.428Y115.965
X105.526Y115.911
X105.604Y115.844
X105.661Y115.765
X105.699Y115.672
X105.746Y115.429
X105.776Y115.098
X105.798Y113.778
X105.821Y111.895
X105.837Y109.642
X105.843Y107.212
Y105.765
X105.837Y104.153
X105.821Y102.496
X105.798Y100.911
X105.771Y99.503
X105.732Y98.399
X105.415Y98.349
X105.136Y98.288
X104.896Y98.216
X104.694Y98.134
X104.378Y97.953
X104.256Y97.859
X104.158Y97.764
X104.022Y97.576
X103.979Y97.486
G1Z-1.500F1800.0
G1X103.954Y97.399F1500.0
X103.921Y97.162
X104.263Y97.200
X105.003Y97.250
X106.041Y97.294
X107.278Y97.316
X108.300Y97.305
X109.217Y97.278
X109.912Y97.239
X110.282Y97.206
X110.680Y98.134
X110.012Y98.209
X109.509Y98.283
X109.145Y98.363
X108.891Y98.459
X108.801Y98.516
X108.729Y98.582
X108.677Y98.657
X108.642Y98.741
X108.602Y98.948
X108.582Y99.216
X108.548Y100.282
X108.537Y101.712
Y109.863
X108.548Y112.149
X108.576Y114.291
X108.620Y116.158
X108.692Y117.616
X108.471Y117.770
X108.163Y117.676
X107.748Y117.571
X106.660Y117.351
X106.014Y117.244
X105.313Y117.146
X104.573Y117.062
X103.810Y116.997
X103.590Y116.092
X104.782Y116.075
X105.159Y116.039
X105.307Y116.007
X105.428Y115.965
X105.526Y115.911
X105.604Y115.844
X105.661Y115.765
X105.699Y115.672
X105.746Y115.429
X105.776Y115.098
X105.798Y113.778
X105.821Y111.895
X105.837Y109.642
X105.843Y107.212
Y105.765
X105.837Y104.153
X105.821Y102.496
X105.798Y100.911
X105.771Y99.503
X105.732Y98.399
X105.415Y98.349
X105.136Y98.288
X104.896Y98.216
X104.694Y98.134
X104.378Y97.953
X104.256Y97.859
X104.158Y97.764
X104.022Y97.576
X103.979Y97.486
G0Z5.080
G0X113.552Y99.890
G1Z-0.750F1800.0
G1X113.654Y99.438F1500.0
X113.786Y99.021
X113.947Y98.640
X114.137Y98.294
X114.357Y97.984
X114.609Y97.714
X114.893Y97.482
X115.208Y97.289
X115.559Y97.136
X115.948Y97.028
X116.376Y96.963
X116.843Y96.941
X117.208Y96.953
X117.562Y96.990
X117.906Y97.053
X118.240Y97.140
X118.564Y97.248
X118.878Y97.376
X119.182Y97.522
X119.477Y97.686
X119.763Y97.868
X120.043Y98.065
X120.315Y98.276
X120.581Y98.504
X121.096Y98.988
X121.592Y99.503
X121.702Y99.481
X121.686Y99.299
X121.680Y99.172
Y98.962
X121.701Y98.538
X121.763Y98.150
X121.811Y97.971
X121.872Y97.805
X121.946Y97.651
X122.034Y97.510
X122.135Y97.382
X122.250Y97.269
X122.380Y97.172
X122.525Y97.090
X122.686Y97.025
X122.863Y96.978
X123.058Y96.950
X123.271Y96.941
X123.639Y96.963
X124.082Y97.029
X124.571Y97.133
X125.076Y97.267
X125.588Y97.429
X126.098Y97.620
X126.578Y97.834
X127.003Y98.067
X126.738Y98.774
X126.325Y98.629
X125.946Y98.526
X125.602Y98.464
X125.292Y98.443
X125.086Y98.457
X124.911Y98.498
X124.761Y98.573
X124.634Y98.686
X124.532Y98.843
X124.458Y99.050
X124.407Y99.313
X124.375Y99.636
X124.353Y100.215
X124.336Y101.027
X124.331Y101.944
Y102.838
X124.336Y104.882
X124.369Y106.605
X124.441Y108.140
X124.552Y109.620
X124.353Y109.752
X123.641Y109.575
X122.586Y109.377
X121.277Y109.183
X120.552Y109.096
X119.803Y109.023
X119.582Y108.118
X120.642Y108.101
X120.982Y108.064
X121.116Y108.030
X121.227Y107.985
X121.318Y107.929
X121.392Y107.861
X121.448Y107.780
X121.487Y107.687
X121.538Y107.447
X121.570Y107.124
X121.592Y106.549
X121.614Y105.749
X121.630Y104.666
X121.636Y103.247
Y102.838
X121.630Y102.176
X121.614Y101.381
X121.592Y100.607
X121.280Y100.274
X120.940Y99.971
X120.573Y99.697
X120.178Y99.453
X119.761Y99.253
X119.545Y99.174
X119.325Y99.110
X118.871Y99.024
X118.400Y98.995
X118.024Y99.015
X117.690Y99.076
X117.400Y99.178
X117.152Y99.321
X116.940Y99.497
X116.757Y99.699
X116.603Y99.928
X116.478Y100.182
X116.379Y100.460
X116.300Y100.757
X116.243Y101.073
X116.208Y101.408
X116.170Y102.108
X116.158Y102.827
X116.180Y104.523
X116.246Y106.306
X116.346Y108.046
X116.467Y109.620
X116.291Y109.752
X115.573Y109.575
X114.496Y109.377
X113.159Y109.183
X112.426Y109.096
X111.674Y109.023
X111.453Y108.118
X112.106Y108.109
X112.607Y108.084
X112.807Y108.062
X112.980Y108.028
X113.127Y107.982
X113.248Y107.924
X113.345Y107.854
X113.423Y107.770
X113.481Y107.672
X113.518Y107.560
X113.560Y107.280
X113.574Y106.914
X113.541Y105.887
X113.474Y104.594
X113.408Y103.247
X113.383Y102.601
X113.375Y102.010
X113.386Y101.434
X113.419Y100.889
X113.474Y100.374
X113.552Y99.890
G1Z-1.500F1800.0
G1X113.654Y99.438F1500.0
X113.786Y99.021
X113.947Y98.640
X114.137Y98.294
X114.357Y97.984
X114.609Y97.714
X114.893Y97.482
X115.208Y97.289
X115.559Y97.136
X115.948Y97.028
X116.376Y96.963
X116.843Y96.941
X117.208Y96.953
X117.562Y96.990
X117.906Y97.053
X118.240Y97.140
X118.564Y97.248
X118.878Y97.376
X119.182Y97.522
X119.477Y97.686
X119.763Y97.868
X120.043Y98.065
X120.315Y98.276
X120.581Y98.504
X121.096Y98.988
X121.592Y99.503
X121.702Y99.481
X121.686Y99.299
X121.680Y99.172
Y98.962
X121.701Y98.538
X121.763Y98.150
X121.811Y97.971
X121.872Y97.805
X121.946Y97.651
X122.034Y97.510
X122.135Y97.382
X122.250Y97.269
X122.380Y97.172
X122.525Y97.090
X122.686Y97.025
X122.863Y96.978
X123.058Y96.950
X123.271Y96.941
X123.639Y96.963
X124.082Y97.029
X124.571Y97.133
X125.076Y97.267
X125.588Y97.429
X126.098Y97.620
X126.578Y97.834
X127.003Y98.067
X126.738Y98.774
X126.325Y98.629
X125.946Y98.526
X125.602Y98.464
X125.292Y98.443
X125.086Y98.457
X124.911Y98.498
X124.761Y98.573
X124.634Y98.686
X124.532Y98.843
X124.458Y99.050
X124.407Y99.313
X124.375Y99.636
X124.353Y100.215
X124.336Y101.027
X124.331Y101.944
Y102.838
X124.336Y104.882
X124.369Y106.605
X124.441Y108.140
X124.552Y109.620
X124.353Y109.752
X123.641Y109.575
X122.586Y109.377
X121.277Y109.183
X120.552Y109.096
X119.803Y109.023
X119.582Y108.118
X120.642Y108.101
X120.982Y108.064
X121.116Y108.030
X121.227Y107.985
X121.318Y107.929
X121.392Y107.861
X121.448Y107.780
X121.487Y107.687
X121.538Y107.447
X121.570Y107.124
X121.592Y106.549
X121.614Y105.749
X121.630Y104.666
X121.636Y103.247
Y102.838
X121.630Y102.176
X121.614Y101.381
X121.592Y100.607
X121.280Y100.274
X120.940Y99.971
X120.573Y99.697
X120.178Y99.453
X119.761Y99.253
X119.545Y99.174
X119.325Y99.110
X118.871Y99.024
X118.400Y98.995
X118.024Y99.015
X117.690Y99.076
X117.400Y99.178
X117.152Y99.321
X116.940Y99.497
X116.757Y99.699
X116.603Y99.928
X116.478Y100.182
X116.379Y100.460
X116.300Y100.757
X116.243Y101.073
X116.208Y101.408
X116.170Y102.108
X116.158Y102.827
X116.180Y104.523
X116.246Y106.306
X116.346Y108.046
X116.467Y109.620
X116.291Y109.752
X115.573Y109.575
X114.496Y109.377
X113.159Y109.183
X112.426Y109.096
X111.674Y109.023
X111.453Y108.118
X112.106Y108.109
X112.607Y108.084
X112.807Y108.062
X112.980Y108.028
X113.127Y107.982
X113.248Y107.924
X113.345Y107.854
X113.423Y107.770
X113.481Y107.672
X113.518Y107.560
X113.560Y107.280
X113.574Y106.914
X113.541Y105.887
X113.474Y104.594
X113.408Y103.247
X113.383Y102.601
X113.375Y102.010
X113.386Y101.434
X113.419Y100.889
X113.474Y100.374
X113.552Y99.890
G0Z5.080
G0X127.749Y97.410
G1Z-0.750F1800.0
G1X127.721Y97.162F1500.0
X128.036Y97.200
X128.726Y97.250
X129.726Y97.294
X130.957Y97.316
X132.007Y97.305
X132.945Y97.278
X133.658Y97.239
X134.039Y97.206
X134.436Y98.134
X133.282Y98.277
X132.922Y98.353
X132.669Y98.448
X132.579Y98.505
X132.508Y98.570
X132.455Y98.643
X132.421Y98.724
X132.381Y98.922
X132.360Y99.172
X132.327Y99.812
X132.305Y100.619
X132.294Y101.723
Y103.810
X132.305Y104.550
X132.316Y105.379
X132.338Y106.196
X132.660Y106.484
X133.006Y106.754
X133.376Y106.998
X133.768Y107.212
X134.181Y107.389
X134.613Y107.521
X135.060Y107.604
X135.519Y107.632
X135.915Y107.610
X136.264Y107.543
X136.566Y107.433
X136.700Y107.361
X136.822Y107.278
X137.039Y107.088
X137.226Y106.872
X137.384Y106.630
X137.512Y106.362
X137.614Y106.070
X137.694Y105.760
X137.752Y105.430
X137.788Y105.080
X137.826Y104.360
X137.838Y103.634
X137.816Y102.121
X137.750Y100.641
X137.628Y99.067
X137.440Y97.272
X138.158Y97.305
X139.020Y97.316
X140.141Y97.305
X141.107Y97.278
X141.830Y97.239
X142.211Y97.206
X142.609Y98.134
X141.934Y98.212
X141.411Y98.294
X141.017Y98.389
X140.861Y98.446
X140.732Y98.509
X140.626Y98.580
X140.540Y98.661
X140.474Y98.751
X140.428Y98.851
X140.374Y99.092
X140.356Y99.393
X140.378Y99.983
X140.428Y100.806
X140.489Y101.778
X140.549Y102.811
X140.599Y103.810
X140.621Y104.694
X140.610Y105.225
X140.578Y105.736
X140.525Y106.227
X140.450Y106.698
X140.349Y107.144
X140.219Y107.560
X140.060Y107.945
X139.870Y108.300
X139.649Y108.621
X139.395Y108.906
X139.108Y109.154
X138.788Y109.366
X138.614Y109.456
X138.431Y109.535
X138.034Y109.656
X137.597Y109.728
X137.120Y109.752
X136.761Y109.740
X136.412Y109.702
X136.073Y109.640
X135.745Y109.553
X135.425Y109.445
X135.113Y109.319
X134.807Y109.174
X134.508Y109.012
X133.930Y108.645
X133.376Y108.228
X132.840Y107.775
X132.316Y107.300
X132.250Y107.322
X132.256Y108.036
X132.277Y108.653
X132.338Y109.642
X132.139Y109.752
X131.443Y109.537
X130.427Y109.277
X129.824Y109.147
X129.163Y109.023
X128.457Y108.913
X127.721Y108.824
X127.500Y107.919
X128.588Y107.902
X128.932Y107.866
X129.068Y107.834
X129.179Y107.792
X129.270Y107.739
X129.342Y107.673
X129.397Y107.595
X129.433Y107.505
X129.480Y107.269
X129.511Y106.947
X129.538Y106.384
X129.566Y105.417
X129.588Y103.948
X129.599Y101.889
Y101.292
X129.588Y100.381
X129.555Y99.354
X129.488Y98.399
X129.176Y98.349
X128.902Y98.288
X128.665Y98.216
X128.467Y98.134
X128.156Y97.954
X128.037Y97.862
X127.942Y97.769
X127.811Y97.585
X127.771Y97.497
X127.749Y97.410
G1Z-1.500F1800.0
G1X127.721Y97.162F1500.0
X128.036Y97.200
X128.726Y97.250
X129.726Y97.294
X130.957Y97.316
X132.007Y97.305
X132.945Y97.278
X133.658Y97.239
X134.039Y97.206
X134.436Y98.134
X133.282Y98.277
X132.922Y98.353
X132.669Y98.448
X132.579Y98.505
X132.508Y98.570
X132.455Y98.643
X132.421Y98.724
X132.381Y98.922
X132.360Y99.172
X132.327Y99.812
X132.305Y100.619
X132.294Y101.723
Y103.810
X132.305Y104.550
X132.316Y105.379
X132.338Y106.196
X132.660Y106.484
X133.006Y106.754
X133.376Y106.998
X133.768Y107.212
X134.181Y107.389
X134.613Y107.521
X135.060Y107.604
X135.519Y107.632
X135.915Y107.610
X136.264Y107.543
X136.566Y107.433
X136.700Y107.361
X136.822Y107.278
X137.039Y107.088
X137.226Y106.872
X137.384Y106.630
X137.512Y106.362
X137.614Y106.070
X137.694Y105.760
X137.752Y105.430
X137.788Y105.080
X137.826Y104.360
X137.838Y103.634
X137.816Y102.121
X137.750Y100.641
X137.628Y99.067
X137.440Y97.272
X138.158Y97.305
X139.020Y97.316
X140.141Y97.305
X141.107Y97.278
X141.830Y97.239
X142.211Y97.206
X142.609Y98.134
X141.934Y98.212
X141.411Y98.294
X141.017Y98.389
X140.861Y98.446
X140.732Y98.509
X140.626Y98.580
X140.540Y98.661
X140.474Y98.751
X140.428Y98.851
X140.374Y99.092
X140.356Y99.393
X140.378Y99.983
X140.428Y100.806
X140.489Y101.778
X140.549Y102.811
X140.599Y103.810
X140.621Y104.694
X140.610Y105.225
X140.578Y105.736
X140.525Y106.227
X140.450Y106.698
X140.349Y107.144
X140.219Y107.560
X140.060Y107.945
X139.870Y108.300
X139.649Y108.621
X139.395Y108.906
X139.108Y109.154
X138.788Y109.366
X138.614Y109.456
X138.431Y109.535
X138.034Y109.656
X137.597Y109.728
X137.120Y109.752
X136.761Y109.740
X136.412Y109.702
X136.073Y109.640
X135.745Y109.553
X135.425Y109.445
X135.113Y109.319
X134.807Y109.174
X134.508Y109.012
X133.930Y108.645
X133.376Y108.228
X132.840Y107.775
X132.316Y107.300
X132.250Y107.322
X132.256Y108.036
X132.277Y108.653
X132.338Y109.642
X132.139Y109.752
X131.443Y109.537
X130.427Y109.277
X129.824Y109.147
X129.163Y109.023
X128.457Y108.913
X127.721Y108.824
X127.500Y107.919
X128.588Y107.902
X128.932Y107.866
X129.068Y107.834
X129.179Y107.792
X129.270Y107.739
X129.342Y107.673
X129.397Y107.595
X129.433Y107.505
X129.480Y107.269
X129.511Y106.947
X129.538Y106.384
X129.566Y105.417
X129.588Y103.948
X129.599Y101.889
Y101.292
X129.588Y100.381
X129.555Y99.354
X129.488Y98.399
X129.176Y98.349
X128.902Y98.288
X128.665Y98.216
X128.467Y98.134
X128.156Y97.954
X128.037Y97.862
X127.942Y97.769
X127.811Y97.585
X127.771Y97.497
X127.749Y97.410
G0Z5.080
G0X146.662Y104.694
G1Z-0.750F1800.0
G1X146.692Y105.197F1500.0
X146.747Y105.657
X146.827Y106.075
X146.933Y106.450
X147.060Y106.786
X147.205Y107.088
X147.367Y107.355
X147.546Y107.587
X147.740Y107.787
X147.948Y107.956
X148.168Y108.094
X148.402Y108.200
X148.644Y108.280
X148.892Y108.337
X149.144Y108.371
X149.401Y108.383
X149.689Y108.370
X149.955Y108.330
X150.200Y108.265
X150.423Y108.173
X150.627Y108.058
X150.812Y107.924
X150.980Y107.771
X151.130Y107.599
X151.261Y107.408
X151.374Y107.201
X151.468Y106.977
X151.544Y106.737
X151.602Y106.484
X151.643Y106.223
X151.668Y105.954
X151.676Y105.677
X151.660Y105.318
X151.634Y105.109
X151.588Y104.893
X146.662Y104.694
G1Z-1.500F1800.0
G1X146.692Y105.197F1500.0
X146.747Y105.657
X146.827Y106.075
X146.933Y106.450
X147.060Y106.786
X147.205Y107.088
X147.367Y107.355
X147.546Y107.587
X147.740Y107.787
X147.948Y107.956
X148.168Y108.094
X148.402Y108.200
X148.644Y108.280
X148.892Y108.337
X149.144Y108.371
X149.401Y108.383
X149.689Y108.370
X149.955Y108.330
X150.200Y108.265
X150.423Y108.173
X150.627Y108.058
X150.812Y107.924
X150.980Y107.771
X151.130Y107.599
X151.261Y107.408
X151.374Y107.201
X151.468Y106.977
X151.544Y106.737
X151.602Y106.484
X151.643Y106.223
X151.668Y105.954
X151.676Y105.677
X151.660Y105.318
X151.634Y105.109
X151.588Y104.893
X146.662Y104.694
G0Z5.080
G0X146.684Y103.700
G1Z-0.750F1800.0
G1X154.150Y104.009F1500.0
X154.259Y104.483
X154.344Y104.953
X154.397Y105.430
X154.415Y105.920
X154.403Y106.301
X154.367Y106.674
X154.307Y107.036
X154.222Y107.389
X154.110Y107.726
X153.967Y108.042
X153.792Y108.336
X153.587Y108.609
X153.348Y108.858
X153.072Y109.080
X152.760Y109.275
X152.411Y109.443
X152.023Y109.578
X151.592Y109.675
X151.120Y109.733
X150.605Y109.752
X149.994Y109.725
X149.387Y109.644
X148.785Y109.510
X148.186Y109.321
X147.892Y109.207
X147.606Y109.078
X147.327Y108.935
X147.056Y108.779
X146.793Y108.608
X146.537Y108.424
X146.289Y108.225
X146.049Y108.013
X145.819Y107.786
X145.600Y107.546
X145.392Y107.291
X145.196Y107.023
X145.011Y106.740
X144.838Y106.444
X144.676Y106.134
X144.525Y105.809
X144.389Y105.471
X144.272Y105.118
X144.172Y104.750
X144.090Y104.368
X144.027Y103.971
X143.982Y103.560
X143.954Y103.135
X143.945Y102.695
X143.953Y102.302
X143.974Y101.926
X144.011Y101.564
X144.061Y101.219
X144.127Y100.889
X144.206Y100.575
X144.301Y100.277
X144.409Y99.995
X144.659Y99.471
X144.945Y99.001
X145.101Y98.785
X145.267Y98.582
X145.441Y98.393
X145.624Y98.216
X146.012Y97.901
X146.425Y97.632
X146.863Y97.412
X147.325Y97.239
X147.801Y97.109
X148.280Y97.015
X148.762Y96.959
X149.247Y96.941
X149.592Y96.949
X149.937Y96.975
X150.281Y97.018
X150.626Y97.079
X150.970Y97.156
X151.314Y97.251
X151.658Y97.364
X152.002Y97.493
X152.346Y97.640
X152.689Y97.804
X153.033Y97.985
X153.376Y98.183
X154.062Y98.632
X154.747Y99.150
X154.305Y99.879
X153.809Y99.636
X153.361Y99.437
X152.947Y99.277
X152.554Y99.150
X152.178Y99.056
X151.809Y98.995
X151.439Y98.962
X151.058Y98.951
X150.588Y98.967
X150.140Y99.017
X149.713Y99.100
X149.307Y99.216
X148.926Y99.367
X148.573Y99.557
X148.247Y99.784
X147.949Y100.050
X147.680Y100.355
X147.441Y100.701
X147.232Y101.089
X147.054Y101.519
X146.909Y101.992
X146.799Y102.514
X146.724Y103.083
X146.684Y103.700
G1Z-1.500F1800.0
G1X154.150Y104.009F1500.0
X154.259Y104.483
X154.344Y104.953
X154.397Y105.430
X154.415Y105.920
X154.403Y106.301
X154.367Y106.674
X154.307Y107.036
X154.222Y107.389
X154.110Y107.726
X153.967Y108.042
X153.792Y108.336
X153.587Y108.609
X153.348Y108.858
X153.072Y109.080
X152.760Y109.275
X152.411Y109.443
X152.023Y109.578
X151.592Y109.675
X151.120Y109.733
X150.605Y109.752
X149.994Y109.725
X149.387Y109.644
X148.785Y109.510
X148.186Y109.321
X147.892Y109.207
X147.606Y109.078
X147.327Y108.935
X147.056Y108.779
X146.793Y108.608
X146.537Y108.424
X146.289Y108.225
X146.049Y108.013
X145.819Y107.786
X145.600Y107.546
X145.392Y107.291
X145.196Y107.023
X145.011Y106.740
X144.838Y106.444
X144.676Y106.134
X144.525Y105.809
X144.389Y105.471
X144.272Y105.118
X144.172Y104.750
X144.090Y104.368
X144.027Y103.971
X143.982Y103.560
X143.954Y103.135
X143.945Y102.695
X143.953Y102.302
X143.974Y101.926
X144.011Y101.564
X144.061Y101.219
X144.127Y100.889
X144.206Y100.575
X144.301Y100.277
X144.409Y99.995
X144.659Y99.471
X144.945Y99.001
X145.101Y98.785
X145.267Y98.582
X145.441Y98.393
X145.624Y98.216
X146.012Y97.901
X146.425Y97.632
X146.863Y97.412
X147.325Y97.239
X147.801Y97.109
X148.280Y97.015
X148.762Y96.959
X149.247Y96.941
X149.592Y96.949
X149.937Y96.975
X150.281Y97.018
X150.626Y97.079
X150.970Y97.156
X151.314Y97.251
X151.658Y97.364
X152.002Y97.493
X152.346Y97.640
X152.689Y97.804
X153.033Y97.985
X153.376Y98.183
X154.062Y98.632
X154.747Y99.150
X154.305Y99.879
X153.809Y99.636
X153.361Y99.437
X152.947Y99.277
X152.554Y99.150
X152.178Y99.056
X151.809Y98.995
X151.439Y98.962
X151.058Y98.951
X150.588Y98.967
X150.140Y99.017
X149.713Y99.100
X149.307Y99.216
X148.926Y99.367
X148.573Y99.557
X148.247Y99.784
X147.949Y100.050
X147.680Y100.355
X147.441Y100.701
X147.232Y101.089
X147.054Y101.519
X146.909Y101.992
X146.799Y102.514
X146.724Y103.083
X146.684Y103.700
G0Z5.080
G0X156.689Y105.438
G1Z-0.750F1800.0
G1X156.750Y105.076F1500.0
X156.852Y104.745
X156.994Y104.445
X157.170Y104.171
X157.371Y103.915
X157.598Y103.679
X157.850Y103.462
X158.124Y103.262
X158.413Y103.074
X158.720Y102.900
X159.043Y102.739
X159.708Y102.438
X160.379Y102.154
X161.451Y101.662
X161.927Y101.414
X162.340Y101.143
X162.520Y100.998
X162.681Y100.845
X162.821Y100.683
X162.942Y100.514
X163.038Y100.332
X163.107Y100.134
X163.149Y99.920
X163.162Y99.691
X163.154Y99.503
X163.127Y99.328
X163.082Y99.164
X163.019Y99.012
X162.940Y98.871
X162.845Y98.742
X162.735Y98.625
X162.610Y98.520
X162.471Y98.427
X162.319Y98.345
X162.154Y98.275
X161.975Y98.216
X161.587Y98.138
X161.163Y98.111
X160.887Y98.122
X160.611Y98.154
X160.335Y98.208
X160.059Y98.283
X159.788Y98.381
X159.529Y98.506
X159.280Y98.657
X159.043Y98.835
X158.820Y99.039
X158.615Y99.271
X158.428Y99.531
X158.259Y99.818
X158.114Y100.136
X157.999Y100.487
X157.915Y100.873
X157.861Y101.292
X157.022Y101.248
X156.956Y100.066
X156.922Y99.260
X156.895Y98.774
X156.889Y98.553
X156.909Y98.341
X156.967Y98.145
X157.063Y97.965
X157.199Y97.802
X157.365Y97.655
X157.556Y97.523
X157.771Y97.407
X158.010Y97.305
X158.270Y97.218
X158.545Y97.142
X158.836Y97.080
X159.142Y97.029
X159.772Y96.963
X160.401Y96.941
X160.979Y96.958
X161.531Y97.010
X162.056Y97.096
X162.555Y97.217
X163.023Y97.369
X163.457Y97.550
X163.854Y97.758
X164.217Y97.995
X164.543Y98.259
X164.829Y98.546
X165.076Y98.858
X165.283Y99.194
X165.447Y99.551
X165.565Y99.928
X165.635Y100.324
X165.658Y100.740
X165.638Y101.124
X165.577Y101.480
X165.475Y101.809
X165.333Y102.109
X165.158Y102.387
X164.959Y102.647
X164.735Y102.887
X164.488Y103.109
X164.220Y103.315
X163.936Y103.507
X163.635Y103.685
X163.317Y103.849
X162.014Y104.451
X161.360Y104.723
X160.766Y104.987
X160.244Y105.253
X159.805Y105.533
X159.617Y105.681
X159.452Y105.837
X159.308Y106.001
X159.187Y106.174
X159.090Y106.357
X159.021Y106.555
X158.979Y106.766
X158.966Y106.991
X158.974Y107.166
X158.997Y107.331
X159.036Y107.487
X159.091Y107.633
X159.162Y107.770
X159.248Y107.897
X159.350Y108.015
X159.468Y108.123
X159.600Y108.220
X159.743Y108.304
X159.897Y108.375
X160.063Y108.434
X160.241Y108.479
X160.430Y108.511
X160.843Y108.537
X161.085Y108.528
X161.315Y108.501
X161.531Y108.456
X161.735Y108.392
X161.926Y108.311
X162.104Y108.211
X162.270Y108.093
X162.423Y107.957
X162.564Y107.805
X162.697Y107.637
X162.820Y107.453
X162.933Y107.255
X163.133Y106.811
X163.295Y106.306
X163.549Y106.273
X163.803Y106.262
X164.097Y106.279
X164.383Y106.328
X164.649Y106.414
X164.885Y106.538
X164.990Y106.615
X165.084Y106.703
X165.167Y106.800
X165.239Y106.908
X165.297Y107.027
X165.338Y107.158
X165.363Y107.301
X165.371Y107.455
X165.355Y107.674
X165.305Y107.890
X165.222Y108.102
X165.106Y108.311
X164.960Y108.512
X164.785Y108.702
X164.581Y108.879
X164.350Y109.045
X164.092Y109.198
X163.809Y109.334
X163.501Y109.454
X163.168Y109.559
X162.814Y109.643
X162.440Y109.704
X162.049Y109.740
X161.638Y109.752
X161.142Y109.735
X160.660Y109.683
X160.190Y109.597
X159.733Y109.476
X159.297Y109.323
X158.888Y109.141
X158.507Y108.928
X158.154Y108.686
X157.832Y108.416
X157.544Y108.120
X157.290Y107.798
X157.072Y107.449
X156.895Y107.077
X156.769Y106.683
X156.694Y106.268
X156.668Y105.831
X156.689Y105.438
G1Z-1.500F1800.0
G1X156.750Y105.076F1500.0
X156.852Y104.745
X156.994Y104.445
X157.170Y104.171
X157.371Y103.915
X157.598Y103.679
X157.850Y103.462
X158.124Y103.262
X158.413Y103.074
X158.720Y102.900
X159.043Y102.739
X159.708Y102.438
X160.379Y102.154
X161.451Y101.662
X161.927Y101.414
X162.340Y101.143
X162.520Y100.998
X162.681Y100.845
X162.821Y100.683
X162.942Y100.514
X163.038Y100.332
X163.107Y100.134
X163.149Y99.920
X163.162Y99.691
X163.154Y99.503
X163.127Y99.328
X163.082Y99.164
X163.019Y99.012
X162.940Y98.871
X162.845Y98.742
X162.735Y98.625
X162.610Y98.520
X162.471Y98.427
X162.319Y98.345
X162.154Y98.275
X161.975Y98.216
X161.587Y98.138
X161.163Y98.111
X160.887Y98.122
X160.611Y98.154
X160.335Y98.208
X160.059Y98.283
X159.788Y98.381
X159.529Y98.506
X159.280Y98.657
X159.043Y98.835
X158.820Y99.039
X158.615Y99.271
X158.428Y99.531
X158.259Y99.818
X158.114Y100.136
X157.999Y100.487
X157.915Y100.873
X157.861Y101.292
X157.022Y101.248
X156.956Y100.066
X156.922Y99.260
X156.895Y98.774
X156.889Y98.553
X156.909Y98.341
X156.967Y98.145
X157.063Y97.965
X157.199Y97.802
X157.365Y97.655
X157.556Y97.523
X157.771Y97.407
X158.010Y97.305
X158.270Y97.218
X158.545Y97.142
X158.836Y97.080
X159.142Y97.029
X159.772Y96.963
X160.401Y96.941
X160.979Y96.958
X161.531Y97.010
X162.056Y97.096
X162.555Y97.217
X163.023Y97.369
X163.457Y97.550
X163.854Y97.758
X164.217Y97.995
X164.543Y98.259
X164.829Y98.546
X165.076Y98.858
X165.283Y99.194
X165.447Y99.551
X165.565Y99.928
X165.635Y100.324
X165.658Y100.740
X165.638Y101.124
X165.577Y101.480
X165.475Y101.809
X165.333Y102.109
X165.158Y102.387
X164.959Y102.647
X164.735Y102.887
X164.488Y103.109
X164.220Y103.315
X163.936Y103.507
X163.635Y103.685
X163.317Y103.849
X162.014Y104.451
X161.360Y104.723
X160.766Y104.987
X160.244Y105.253
X159.805Y105.533
X159.617Y105.681
X159.452Y105.837
X159.308Y106.001
X159.187Y106.174
X159.090Y106.357
X159.021Y106.555
X158.979Y106.766
X158.966Y106.991
X158.974Y107.166
X158.997Y107.331
X159.036Y107.487
X159.091Y107.633
X159.162Y107.770
X159.248Y107.897
X159.350Y108.015
X159.468Y108.123
X159.600Y108.220
X159.743Y108.304
X159.897Y108.375
X160.063Y108.434
X160.241Y108.479
X160.430Y108.511
X160.843Y108.537
X161.085Y108.528
X161.315Y108.501
X161.531Y108.456
X161.735Y108.392
X161.926Y108.311
X162.104Y108.211
X162.270Y108.093
X162.423Y107.957
X162.564Y107.805
X162.697Y107.637
X162.820Y107.453
X162.933Y107.255
X163.133Y106.811
X163.295Y106.306
X163.549Y106.273
X163.803Y106.262
X164.097Y106.279
X164.383Y106.328
X164.649Y106.414
X164.885Y106.538
X164.990Y106.615
X165.084Y106.703
X165.167Y106.800
X165.239Y106.908
X165.297Y107.027
X165.338Y107.158
X165.363Y107.301
X165.371Y107.455
X165.355Y107.674
X165.305Y107.890
X165.222Y108.102
X165.106Y108.311
X164.960Y108.512
X164.785Y108.702
X164.581Y108.879
X164.350Y109.045
X164.092Y109.198
X163.809Y109.334
X163.501Y109.454
X163.168Y109.559
X162.814Y109.643
X162.440Y109.704
X162.049Y109.740
X161.638Y109.752
X161.142Y109.735
X160.660Y109.683
X160.190Y109.597
X159.733Y109.476
X159.297Y109.323
X158.888Y109.141
X158.507Y108.928
X158.154Y108.686
X157.832Y108.416
X157.544Y108.120
X157.290Y107.798
X157.072Y107.449
X156.895Y107.077
X156.769Y106.683
X156.694Y106.268
X156.668Y105.831
X156.689Y105.438
G0Z5.080
G0X176.543Y100.939
G1Z-0.750F1800.0
G1X176.605Y101.162F1500.0
X176.692Y101.381
X176.811Y101.593
X176.969Y101.799
X177.167Y101.999
X177.404Y102.192
X177.683Y102.380
X178.006Y102.561
X178.373Y102.736
X178.785Y102.905
X179.248Y103.068
X179.772Y103.225
X180.355Y103.377
X180.999Y103.523
X180.938Y101.613
X180.866Y100.166
X180.756Y100.036
X180.535Y99.845
X180.229Y99.622
X179.861Y99.393
X179.445Y99.176
X178.989Y98.989
X178.754Y98.915
X178.522Y98.861
X178.295Y98.829
X178.072Y98.818
X177.785Y98.840
X177.498Y98.907
X177.359Y98.958
X177.227Y99.023
X177.105Y99.101
X176.990Y99.194
X176.885Y99.300
X176.790Y99.422
X176.705Y99.557
X176.631Y99.707
X176.571Y99.873
X176.527Y100.057
X176.502Y100.257
X176.493Y100.475
X176.505Y100.710
X176.543Y100.939
G1Z-1.500F1800.0
G1X176.605Y101.162F1500.0
X176.692Y101.381
X176.811Y101.593
X176.969Y101.799
X177.167Y101.999
X177.404Y102.192
X177.683Y102.380
X178.006Y102.561
X178.373Y102.736
X178.785Y102.905
X179.248Y103.068
X179.772Y103.225
X180.355Y103.377
X180.999Y103.523
X180.938Y101.613
X180.866Y100.166
X180.756Y100.036
X180.535Y99.845
X180.229Y99.622
X179.861Y99.393
X179.445Y99.176
X178.989Y98.989
X178.754Y98.915
X178.522Y98.861
X178.295Y98.829
X178.072Y98.818
X177.785Y98.840
X177.498Y98.907
X177.359Y98.958
X177.227Y99.023
X177.105Y99.101
X176.990Y99.194
X176.885Y99.300
X176.790Y99.422
X176.705Y99.557
X176.631Y99.707
X176.571Y99.873
X176.527Y100.057
X176.502Y100.257
X176.493Y100.475
X176.505Y100.710
X176.543Y100.939
G0Z5.080
G0X175.455Y102.405
G1Z-0.750F1800.0
G1X175.148Y102.186F1500.0
X174.864Y101.955
X174.605Y101.711
X174.375Y101.452
X174.174Y101.180
X174.002Y100.895
X173.865Y100.594
X173.766Y100.276
X173.707Y99.942
X173.688Y99.591
X173.700Y99.315
X173.739Y99.047
X173.803Y98.790
X173.892Y98.542
X174.004Y98.307
X174.136Y98.089
X174.289Y97.888
X174.461Y97.703
X174.652Y97.535
X174.863Y97.387
X175.091Y97.257
X175.339Y97.145
X175.602Y97.056
X175.879Y96.992
X176.168Y96.954
X176.471Y96.941
X176.733Y96.950
X176.996Y96.977
X177.259Y97.022
X177.521Y97.084
X177.785Y97.165
X178.048Y97.264
X178.311Y97.380
X178.575Y97.515
X179.108Y97.831
X179.653Y98.205
X180.210Y98.637
X180.778Y99.128
X180.844
Y98.465
X180.865Y98.182
X180.927Y97.907
X181.035Y97.650
X181.192Y97.421
X181.290Y97.319
X181.401Y97.227
X181.525Y97.145
X181.662Y97.073
X181.814Y97.015
X181.982Y96.974
X182.167Y96.949
X182.368Y96.941
X182.736Y96.963
X183.175Y97.029
X183.661Y97.133
X184.169Y97.267
X184.685Y97.429
X185.196Y97.620
X185.676Y97.834
X186.101Y98.067
X185.836Y98.774
X185.428Y98.629
X185.052Y98.526
X184.710Y98.464
X184.401Y98.443
X184.194Y98.457
X184.014Y98.498
X183.862Y98.573
X183.738Y98.686
X183.641Y98.843
X183.572Y99.050
X183.531Y99.315
X183.517Y99.647
X183.534Y100.271
X183.572Y101.215
X183.628Y102.330
X183.683Y103.468
X183.721Y104.478
X183.738Y105.213
X183.728Y105.602
X183.697Y105.994
X183.645Y106.391
X183.572Y106.792
X183.474Y107.186
X183.346Y107.561
X183.187Y107.918
X182.998Y108.256
X182.776Y108.569
X182.519Y108.853
X182.227Y109.108
X181.899Y109.332
X181.721Y109.431
X181.532Y109.516
X181.333Y109.588
X181.122Y109.647
X180.668Y109.726
X180.171Y109.752
X179.837Y109.741
X179.500Y109.709
X179.158Y109.656
X178.812Y109.581
X178.467Y109.488
X178.126Y109.379
X177.790Y109.256
X177.459Y109.117
X176.819Y108.801
X176.211Y108.438
X175.925Y108.242
X175.658Y108.040
X175.409Y107.833
X175.179Y107.621
X174.969Y107.405
X174.782Y107.187
X174.619Y106.968
X174.477Y106.748
X174.364Y106.529
X174.283Y106.315
X174.234Y106.104
X174.218Y105.898
X174.244Y105.646
X174.323Y105.423
X174.446Y105.228
X174.604Y105.064
X174.795Y104.933
X175.013Y104.837
X175.253Y104.779
X175.510Y104.760
X175.765Y104.778
X176.024Y104.832
X176.278Y104.916
X176.521Y105.025
X176.747Y105.158
X176.951Y105.312
X177.127Y105.484
X177.266Y105.666
X176.972Y105.968
X176.861Y106.114
X176.775Y106.257
X176.709Y106.399
X176.663Y106.545
X176.635Y106.695
X176.625Y106.847
X176.653Y107.113
X176.688Y107.234
X176.737Y107.347
X176.800Y107.452
X176.877Y107.549
X176.968Y107.639
X177.073Y107.720
X177.322Y107.855
X177.621Y107.952
X177.970Y108.010
X178.370Y108.029
X178.652Y108.019
X178.923Y107.988
X179.182Y107.936
X179.431Y107.864
X179.666Y107.767
X179.885Y107.644
X180.088Y107.494
X180.276Y107.317
X180.445Y107.111
X180.596Y106.875
X180.727Y106.609
X180.839Y106.312
X180.928Y105.981
X180.992Y105.612
X181.030Y105.205
X181.043Y104.760
Y104.429
X180.213Y104.230
X179.359Y104.009
X178.504Y103.761
X177.675Y103.479
X176.881Y103.161
X176.134Y102.805
X175.783Y102.611
X175.455Y102.405
G1Z-1.500F1800.0
G1X175.148Y102.186F1500.0
X174.864Y101.955
X174.605Y101.711
X174.375Y101.452
X174.174Y101.180
X174.002Y100.895
X173.865Y100.594
X173.766Y100.276
X173.707Y99.942
X173.688Y99.591
X173.700Y99.315
X173.739Y99.047
X173.803Y98.790
X173.892Y98.542
X174.004Y98.307
X174.136Y98.089
X174.289Y97.888
X174.461Y97.703
X174.652Y97.535
X174.863Y97.387
X175.091Y97.257
X175.339Y97.145
X175.602Y97.056
X175.879Y96.992
X176.168Y96.954
X176.471Y96.941
X176.733Y96.950
X176.996Y96.977
X177.259Y97.022
X177.521Y97.084
X177.785Y97.165
X178.048Y97.264
X178.311Y97.380
X178.575Y97.515
X179.108Y97.831
X179.653Y98.205
X180.210Y98.637
X180.778Y99.128
X180.844
Y98.465
X180.865Y98.182
X180.927Y97.907
X181.035Y97.650
X181.192Y97.421
X181.290Y97.319
X181.401Y97.227
X181.525Y97.145
X181.662Y97.073
X181.814Y97.015
X181.982Y96.974
X182.167Y96.949
X182.368Y96.941
X182.736Y96.963
X183.175Y97.029
X183.661Y97.133
X184.169Y97.267
X184.685Y97.429
X185.196Y97.620
X185.676Y97.834
X186.101Y98.067
X185.836Y98.774
X185.428Y98.629
X185.052Y98.526
X184.710Y98.464
X184.401Y98.443
X184.194Y98.457
X184.014Y98.498
X183.862Y98.573
X183.738Y98.686
X183.641Y98.843
X183.572Y99.050
X183.531Y99.315
X183.517Y99.647
X183.534Y100.271
X183.572Y101.215
X183.628Y102.330
X183.683Y103.468
X183.721Y104.478
X183.738Y105.213
X183.728Y105.602
X183.697Y105.994
X183.645Y106.391
X183.572Y106.792
X183.474Y107.186
X183.346Y107.561
X183.187Y107.918
X182.998Y108.256
X182.776Y108.569
X182.519Y108.853
X182.227Y109.108
X181.899Y109.332
X181.721Y109.431
X181.532Y109.516
X181.333Y109.588
X181.122Y109.647
X180.668Y109.726
X180.171Y109.752
X179.837Y109.741
X179.500Y109.709
X179.158Y109.656
X178.812Y109.581
X178.467Y109.488
X178.126Y109.379
X177.790Y109.256
X177.459Y109.117
X176.819Y108.801
X176.211Y108.438
X175.925Y108.242
X175.658Y108.040
X175.409Y107.833
X175.179Y107.621
X174.969Y107.405
X174.782Y107.187
X174.619Y106.968
X174.477Y106.748
X174.364Y106.529
X174.283Y106.315
X174.234Y106.104
X174.218Y105.898
X174.244Y105.646
X174.323Y105.423
X174.446Y105.228
X174.604Y105.064
X174.795Y104.933
X175.013Y104.837
X175.253Y104.779
X175.510Y104.760
X175.765Y104.778
X176.024Y104.832
X176.278Y104.916
X176.521Y105.025
X176.747Y105.158
X176.951Y105.312
X177.127Y105.484
X177.266Y105.666
X176.972Y105.968
X176.861Y106.114
X176.775Y106.257
X176.709Y106.399
X176.663Y106.545
X176.635Y106.695
X176.625Y106.847
X176.653Y107.113
X176.688Y107.234
X176.737Y107.347
X176.800Y107.452
X176.877Y107.549
X176.968Y107.639
X177.073Y107.720
X177.322Y107.855
X177.621Y107.952
X177.970Y108.010
X178.370Y108.029
X178.652Y108.019
X178.923Y107.988
X179.182Y107.936
X179.431Y107.864
X179.666Y107.767
X179.885Y107.644
X180.088Y107.494
X180.276Y107.317
X180.445Y107.111
X180.596Y106.875
X180.727Y106.609
X180.839Y106.312
X180.928Y105.981
X180.992Y105.612
X181.030Y105.205
X181.043Y104.760
Y104.429
X180.213Y104.230
X179.359Y104.009
X178.504Y103.761
X177.675Y103.479
X176.881Y103.161
X176.134Y102.805
X175.783Y102.611
X175.455Y102.405
G0Z5.080
G0X195.840Y103.186
G1Z-0.750F1800.0
G1X195.820Y103.799F1500.0
X195.832Y104.248
X195.867Y104.690
X195.926Y105.124
X196.008Y105.550
X196.117Y105.960
X196.257Y106.345
X196.426Y106.705
X196.627Y107.041
X196.860Y107.348
X197.128Y107.623
X197.431Y107.867
X197.770Y108.079
X197.953Y108.171
X198.148Y108.250
X198.569Y108.373
X199.034Y108.447
X199.542Y108.471
X200.056Y108.449
X200.385Y108.413
X200.741Y108.350
X201.120Y108.256
X201.519Y108.129
X201.922Y107.960
X202.314Y107.742
Y105.765
X202.303Y103.821
Y101.966
X202.292Y100.254
X202.003Y99.944
X201.699Y99.677
X201.379Y99.453
X201.044Y99.271
X200.695Y99.131
X200.332Y99.031
X199.955Y98.971
X199.564Y98.951
X199.199Y98.968
X198.841Y99.021
X198.492Y99.109
X198.151Y99.232
X197.824Y99.393
X197.516Y99.591
X197.227Y99.829
X196.958Y100.105
X196.712Y100.421
X196.491Y100.777
X196.297Y101.175
X196.130Y101.613
X195.994Y102.093
X195.898Y102.618
X195.840Y103.186
G1Z-1.500F1800.0
G1X195.820Y103.799F1500.0
X195.832Y104.248
X195.867Y104.690
X195.926Y105.124
X196.008Y105.550
X196.117Y105.960
X196.257Y106.345
X196.426Y106.705
X196.627Y107.041
X196.860Y107.348
X197.128Y107.623
X197.431Y107.867
X197.770Y108.079
X197.953Y108.171
X198.148Y108.250
X198.569Y108.373
X199.034Y108.447
X199.542Y108.471
X200.056Y108.449
X200.385Y108.413
X200.741Y108.350
X201.120Y108.256
X201.519Y108.129
X201.922Y107.960
X202.314Y107.742
Y105.765
X202.303Y103.821
Y101.966
X202.292Y100.254
X202.003Y99.944
X201.699Y99.677
X201.379Y99.453
X201.044Y99.271
X200.695Y99.131
X200.332Y99.031
X199.955Y98.971
X199.564Y98.951
X199.199Y98.968
X198.841Y99.021
X198.492Y99.109
X198.151Y99.232
X197.824Y99.393
X197.516Y99.591
X197.227Y99.829
X196.958Y100.105
X196.712Y100.421
X196.491Y100.777
X196.297Y101.175
X196.130Y101.613
X195.994Y102.093
X195.898Y102.618
X195.840Y103.186
G0Z5.080
G0X193.117Y103.476
G1Z-0.750F1800.0
G1X193.090Y103.064F1500.0
X193.081Y102.640
X193.101Y102.028
X193.162Y101.441
X193.262Y100.879
X193.402Y100.342
X193.580Y99.836
X193.795Y99.366
X194.047Y98.933
X194.335Y98.537
X194.659Y98.179
X195.017Y97.864
X195.410Y97.591
X195.837Y97.360
X196.063Y97.262
X196.298Y97.177
X196.791Y97.046
X197.317Y96.967
X197.875Y96.941
X198.190Y96.950
X198.496Y96.977
X198.792Y97.022
X199.079Y97.084
X199.358Y97.164
X199.632Y97.261
X199.902Y97.374
X200.166Y97.504
X200.428Y97.651
X200.688Y97.815
X201.205Y98.194
X201.728Y98.640
X202.270Y99.150
X202.381Y99.128
Y98.730
X202.404Y98.338
X202.472Y97.989
X202.586Y97.683
X202.660Y97.547
X202.745Y97.421
X202.844Y97.309
X202.956Y97.211
X203.084Y97.128
X203.226Y97.061
X203.382Y97.008
X203.553Y96.971
X203.738Y96.948
X203.938Y96.941
X204.314Y96.963
X204.755Y97.029
X205.240Y97.133
X205.744Y97.267
X206.256Y97.429
X206.765Y97.620
X207.249Y97.834
X207.682Y98.067
X207.417Y98.774
X207.015Y98.629
X206.638Y98.526
X206.286Y98.464
X205.959Y98.443
X205.753Y98.455
X205.578Y98.492
X205.430Y98.563
X205.307Y98.675
X205.209Y98.832
X205.136Y99.039
X205.085Y99.304
X205.053Y99.636
X205.031Y100.083
X205.015Y100.944
X205.009Y102.408
Y107.753
X205.015Y110.779
X205.037Y113.568
X205.081Y115.915
X205.116Y116.865
X205.164Y117.616
X204.943Y117.770
X204.631Y117.675
X204.203Y117.566
X203.674Y117.451
X203.060Y117.340
X202.370Y117.233
X201.613Y117.135
X200.808Y117.054
X199.973Y116.997
X199.752Y116.092
X201.149Y116.075
X201.586Y116.038
X201.754Y116.004
X201.889Y115.959
X201.997Y115.902
X202.081Y115.832
X202.143Y115.748
X202.182Y115.650
X202.226Y115.399
X202.248Y115.064
X202.265Y114.043
X202.276Y112.872
X202.292Y111.409
X202.314Y109.487
X201.774Y109.603
X201.235Y109.686
X200.697Y109.736
X200.161Y109.752
X199.462Y109.723
X198.779Y109.636
X198.443Y109.571
X198.112Y109.491
X197.784Y109.397
X197.461Y109.288
X197.144Y109.165
X196.837Y109.029
X196.540Y108.878
X196.253Y108.714
X195.975Y108.536
X195.708Y108.344
X195.450Y108.138
X195.202Y107.919
X194.965Y107.686
X194.741Y107.440
X194.529Y107.181
X194.329Y106.908
X194.142Y106.623
X193.968Y106.324
X193.806Y106.013
X193.656Y105.688
X193.521Y105.350
X193.405Y105.000
X193.306Y104.638
X193.225Y104.263
X193.162Y103.876
X193.117Y103.476
G1Z-1.500F1800.0
G1X193.090Y103.064F1500.0
X193.081Y102.640
X193.101Y102.028
X193.162Y101.441
X193.262Y100.879
X193.402Y100.342
X193.580Y99.836
X193.795Y99.366
X194.047Y98.933
X194.335Y98.537
X194.659Y98.179
X195.017Y97.864
X195.410Y97.591
X195.837Y97.360
X196.063Y97.262
X196.298Y97.177
X196.791Y97.046
X197.317Y96.967
X197.875Y96.941
X198.190Y96.950
X198.496Y96.977
X198.792Y97.022
X199.079Y97.084
X199.358Y97.164
X199.632Y97.261
X199.902Y97.374
X200.166Y97.504
X200.428Y97.651
X200.688Y97.815
X201.205Y98.194
X201.728Y98.640
X202.270Y99.150
X202.381Y99.128
Y98.730
X202.404Y98.338
X202.472Y97.989
X202.586Y97.683
X202.660Y97.547
X202.745Y97.421
X202.844Y97.309
X202.956Y97.211
X203.084Y97.128
X203.226Y97.061
X203.382Y97.008
X203.553Y96.971
X203.738Y96.948
X203.938Y96.941
X204.314Y96.963
X204.755Y97.029
X205.240Y97.133
X205.744Y97.267
X206.256Y97.429
X206.765Y97.620
X207.249Y97.834
X207.682Y98.067
X207.417Y98.774
X207.015Y98.629
X206.638Y98.526
X206.286Y98.464
X205.959Y98.443
X205.753Y98.455
X205.578Y98.492
X205.430Y98.563
X205.307Y98.675
X205.209Y98.832
X205.136Y99.039
X205.085Y99.304
X205.053Y99.636
X205.031Y100.083
X205.015Y100.944
X205.009Y102.408
Y107.753
X205.015Y110.779
X205.037Y113.568
X205.081Y115.915
X205.116Y116.865
X205.164Y117.616
X204.943Y117.770
X204.631Y117.675
X204.203Y117.566
X203.674Y117.451
X203.060Y117.340
X202.370Y117.233
X201.613Y117.135
X200.808Y117.054
X199.973Y116.997
X199.752Y116.092
X201.149Y116.075
X201.586Y116.038
X201.754Y116.004
X201.889Y115.959
X201.997Y115.902
X202.081Y115.832
X202.143Y115.748
X202.182Y115.650
X202.226Y115.399
X202.248Y115.064
X202.265Y114.043
X202.276Y112.872
X202.292Y111.409
X202.314Y109.487
X201.774Y109.603
X201.235Y109.686
X200.697Y109.736
X200.161Y109.752
X199.462Y109.723
X198.779Y109.636
X198.443Y109.571
X198.112Y109.491
X197.784Y109.397
X197.461Y109.288
X197.144Y109.165
X196.837Y109.029
X196.540Y108.878
X196.253Y108.714
X195.975Y108.536
X195.708Y108.344
X195.450Y108.138
X195.202Y107.919
X194.965Y107.686
X194.741Y107.440
X194.529Y107.181
X194.329Y106.908
X194.142Y106.623
X193.968Y106.324
X193.806Y106.013
X193.656Y105.688
X193.521Y105.350
X193.405Y105.000
X193.306Y104.638
X193.225Y104.263
X193.162Y103.876
X193.117Y103.476
G0Z5.080
G0X211.232Y103.931
G1Z-0.750F1800.0
G1X211.216Y104.462F1500.0
X211.224Y104.814
X211.248Y105.165
X211.288Y105.513
X211.343Y105.859
X211.419Y106.195
X211.519Y106.513
X211.642Y106.814
X211.790Y107.096
X211.965Y107.356
X212.167Y107.590
X212.398Y107.798
X212.657Y107.980
X212.949Y108.127
X213.277Y108.232
X213.642Y108.295
X214.044Y108.316
X214.307Y108.308
X214.560Y108.282
X214.804Y108.240
X215.039Y108.180
X215.264Y108.103
X215.480Y108.009
X215.686Y107.898
X215.882Y107.770
X216.249Y107.476
X216.580Y107.142
X216.875Y106.766
X217.136Y106.351
X217.363Y105.902
X217.558Y105.428
X217.722Y104.930
X217.854Y104.407
X217.955Y103.872
X218.028Y103.338
X218.071Y102.806
X218.086Y102.275
X218.078Y101.918
X218.055Y101.563
X218.017Y101.211
X217.964Y100.861
X217.892Y100.523
X217.797Y100.204
X217.680Y99.905
X217.539Y99.625
X217.373Y99.367
X217.179Y99.136
X216.956Y98.931
X216.705Y98.752
X216.421Y98.607
X216.101Y98.504
X215.742Y98.441
X215.347Y98.421
X215.089Y98.429
X214.839Y98.455
X214.598Y98.498
X214.365Y98.557
X214.141Y98.634
X213.925Y98.728
X213.718Y98.839
X213.519Y98.967
X213.146Y99.261
X212.807Y99.596
X212.500Y99.971
X212.227Y100.387
X211.987Y100.835
X211.779Y101.309
X211.605Y101.807
X211.465Y102.330
X211.356Y102.865
X211.278Y103.399
X211.232Y103.931
G1Z-1.500F1800.0
G1X211.216Y104.462F1500.0
X211.224Y104.814
X211.248Y105.165
X211.288Y105.513
X211.343Y105.859
X211.419Y106.195
X211.519Y106.513
X211.642Y106.814
X211.790Y107.096
X211.965Y107.356
X212.167Y107.590
X212.398Y107.798
X212.657Y107.980
X212.949Y108.127
X213.277Y108.232
X213.642Y108.295
X214.044Y108.316
X214.307Y108.308
X214.560Y108.282
X214.804Y108.240
X215.039Y108.180
X215.264Y108.103
X215.480Y108.009
X215.686Y107.898
X215.882Y107.770
X216.249Y107.476
X216.580Y107.142
X216.875Y106.766
X217.136Y106.351
X217.363Y105.902
X217.558Y105.428
X217.722Y104.930
X217.854Y104.407
X217.955Y103.872
X218.028Y103.338
X218.071Y102.806
X218.086Y102.275
X218.078Y101.918
X218.055Y101.563
X218.017Y101.211
X217.964Y100.861
X217.892Y100.523
X217.797Y100.204
X217.680Y99.905
X217.539Y99.625
X217.373Y99.367
X217.179Y99.136
X216.956Y98.931
X216.705Y98.752
X216.421Y98.607
X216.101Y98.504
X215.742Y98.441
X215.347Y98.421
X215.089Y98.429
X214.839Y98.455
X214.598Y98.498
X214.365Y98.557
X214.141Y98.634
X213.925Y98.728
X213.718Y98.839
X213.519Y98.967
X213.146Y99.261
X212.807Y99.596
X212.500Y99.971
X212.227Y100.387
X211.987Y100.835
X211.779Y101.309
X211.605Y101.807
X211.465Y102.330
X211.356Y102.865
X211.278Y103.399
X211.232Y103.931
G0Z5.080
G0X208.596Y104.231
G1Z-0.750F1800.0
G1X208.540Y103.662F1500.0
X208.521Y103.059
X208.549Y102.331
X208.583Y101.983
X208.632Y101.647
X208.694Y101.322
X208.770Y101.008
X208.860Y100.706
X208.963Y100.414
X209.204Y99.866
X209.485Y99.364
X209.806Y98.908
X209.981Y98.697
X210.167Y98.498
X210.564Y98.135
X210.993Y97.820
X211.453Y97.553
X211.945Y97.333
X212.462Y97.161
X212.997Y97.039
X213.550Y96.965
X214.121Y96.941
X214.488Y96.951
X214.862Y96.982
X215.242Y97.034
X215.628Y97.106
X216.015Y97.201
X216.397Y97.318
X216.775Y97.457
X217.147Y97.620
X217.512Y97.806
X217.868Y98.015
X218.213Y98.247
X218.550Y98.504
X218.870Y98.784
X219.169Y99.092
X219.447Y99.425
X219.704Y99.785
X219.937Y100.171
X220.145Y100.584
X220.329Y101.024
X220.488Y101.491
X220.616Y101.986
X220.707Y102.510
X220.762Y103.063
X220.781Y103.645
X220.753Y104.359
X220.671Y105.032
X220.610Y105.353
X220.535Y105.665
X220.447Y105.966
X220.344Y106.257
X220.106Y106.805
X219.827Y107.307
X219.507Y107.763
X219.331Y107.974
X219.146Y108.173
X218.749Y108.536
X218.319Y108.853
X217.857Y109.124
X217.362Y109.349
X216.842Y109.525
X216.303Y109.651
X215.746Y109.727
X215.170Y109.752
X214.823Y109.743
X214.466Y109.715
X214.099Y109.668
X213.723Y109.603
X213.344Y109.517
X212.967Y109.408
X212.593Y109.277
X212.221Y109.123
X211.856Y108.945
X211.499Y108.743
X211.152Y108.517
X210.813Y108.267
X210.489Y107.991
X210.184Y107.687
X209.898Y107.356
X209.631Y106.997
X209.388Y106.609
X209.172Y106.193
X208.982Y105.748
X208.820Y105.274
X208.689Y104.769
X208.596Y104.231
G1Z-1.500F1800.0
G1X208.540Y103.662F1500.0
X208.521Y103.059
X208.549Y102.331
X208.583Y101.983
X208.632Y101.647
X208.694Y101.322
X208.770Y101.008
X208.860Y100.706
X208.963Y100.414
X209.204Y99.866
X209.485Y99.364
X209.806Y98.908
X209.981Y98.697
X210.167Y98.498
X210.564Y98.135
X210.993Y97.820
X211.453Y97.553
X211.945Y97.333
X212.462Y97.161
X212.997Y97.039
X213.550Y96.965
X214.121Y96.941
X214.488Y96.951
X214.862Y96.982
X215.242Y97.034
X215.628Y97.106
X216.015Y97.201
X216.397Y97.318
X216.775Y97.457
X217.147Y97.620
X217.512Y97.806
X217.868Y98.015
X218.213Y98.247
X218.550Y98.504
X218.870Y98.784
X219.169Y99.092
X219.447Y99.425
X219.704Y99.785
X219.937Y100.171
X220.145Y100.584
X220.329Y101.024
X220.488Y101.491
X220.616Y101.986
X220.707Y102.510
X220.762Y103.063
X220.781Y103.645
X220.753Y104.359
X220.671Y105.032
X220.610Y105.353
X220.535Y105.665
X220.447Y105.966
X220.344Y106.257
X220.106Y106.805
X219.827Y107.307
X219.507Y107.763
X219.331Y107.974
X219.146Y108.173
X218.749Y108.536
X218.319Y108.853
X217.857Y109.124
X217.362Y109.349
X216.842Y109.525
X216.303Y109.651
X215.746Y109.727
X215.170Y109.752
X214.823Y109.743
X214.466Y109.715
X214.099Y109.668
X213.723Y109.603
X213.344Y109.517
X212.967Y109.408
X212.593Y109.277
X212.221Y109.123
X211.856Y108.945
X211.499Y108.743
X211.152Y108.517
X210.813Y108.267
X210.489Y107.991
X210.184Y107.687
X209.898Y107.356
X209.631Y106.997
X209.388Y106.609
X209.172Y106.193
X208.982Y105.748
X208.820Y105.274
X208.689Y104.769
X208.596Y104.231
G0Z5.080
G0X222.404Y107.919
G1Z-0.750F1800.0
G1X223.492Y107.902F1500.0
X223.836Y107.866
X223.971Y107.834
X224.083Y107.792
X224.173Y107.739
X224.246Y107.673
X224.300Y107.595
X224.337Y107.505
X224.384Y107.269
X224.414Y106.947
X224.442Y106.384
X224.469Y105.417
X224.491Y103.948
X224.502Y101.889
Y101.292
X224.491Y100.381
X224.458Y99.354
X224.392Y98.399
X224.080Y98.349
X223.805Y98.288
X223.569Y98.216
X223.370Y98.134
X223.060Y97.954
X222.941Y97.862
X222.846Y97.769
X222.715Y97.585
X222.675Y97.497
X222.653Y97.410
X222.625Y97.162
X222.934Y97.195
X223.630Y97.244
X224.629Y97.294
X225.861Y97.316
X226.905Y97.305
X227.843Y97.278
X228.561Y97.239
X228.942Y97.206
X229.340Y98.134
X228.186Y98.277
X227.825Y98.353
X227.573Y98.448
X227.483Y98.505
X227.411Y98.568
X227.358Y98.640
X227.324Y98.719
X227.284Y98.915
X227.264Y99.172
X227.230Y99.812
X227.208Y100.619
X227.197Y101.723
Y104.550
X227.208Y105.373
X227.241Y106.196
X227.553Y106.484
X227.893Y106.754
X228.258Y106.998
X228.644Y107.212
X229.049Y107.389
X229.467Y107.521
X229.899Y107.604
X230.345Y107.632
X230.726Y107.610
X231.061Y107.543
X231.352Y107.433
X231.481Y107.361
X231.598Y107.278
X231.808Y107.088
X231.988Y106.871
X232.139Y106.627
X232.261Y106.356
X232.358Y106.063
X232.434Y105.753
X232.488Y105.425
X232.521Y105.080
X232.554Y104.376
X232.565Y103.678
X232.548Y102.143
X232.487Y100.657
X232.383Y99.078
X232.233Y97.272
X232.940Y97.305
X233.791Y97.316
X234.901Y97.305
X235.839Y97.278
X236.530Y97.239
X236.894Y97.206
X237.292Y98.134
X236.629Y98.212
X236.121Y98.294
X235.743Y98.390
X235.593Y98.449
X235.469Y98.515
X235.369Y98.588
X235.289Y98.671
X235.228Y98.762
X235.188Y98.862
X235.142Y99.103
X235.127Y99.404
X235.160Y100.376
X235.226Y101.756
X235.293Y103.302
X235.318Y104.070
X235.326Y104.782
X235.309Y105.478
X235.283Y105.840
X235.238Y106.196
X235.548Y106.484
X235.884Y106.754
X236.241Y106.998
X236.618Y107.212
X237.014Y107.389
X237.430Y107.521
X237.862Y107.604
X238.308Y107.632
X238.689Y107.610
X239.027Y107.543
X239.321Y107.433
X239.452Y107.361
X239.572Y107.278
X239.786Y107.088
X239.970Y106.872
X240.123Y106.630
X240.246Y106.362
X240.343Y106.070
X240.420Y105.760
X240.476Y105.430
X240.511Y105.080
X240.548Y104.360
X240.561Y103.634
X240.539Y102.121
X240.473Y100.641
X240.351Y99.067
X240.163Y97.272
X240.881Y97.305
X241.743Y97.316
X242.864Y97.305
X243.830Y97.278
X244.553Y97.239
X244.934Y97.206
X245.332Y98.134
X244.657Y98.212
X244.134Y98.294
X243.740Y98.389
X243.584Y98.446
X243.454Y98.509
X243.349Y98.580
X243.263Y98.661
X243.197Y98.751
X243.151Y98.851
X243.097Y99.092
X243.079Y99.393
X243.118Y100.376
X243.211Y101.778
X243.300Y103.313
X243.333Y104.056
X243.344Y104.716
X243.333Y105.247
X243.301Y105.758
X243.248Y106.249
X243.173Y106.720
X243.073Y107.166
X242.945Y107.581
X242.789Y107.964
X242.604Y108.316
X242.389Y108.635
X242.140Y108.917
X241.859Y109.162
X241.544Y109.371
X241.373Y109.460
X241.192Y109.538
X240.801Y109.657
X240.370Y109.728
X239.898Y109.752
X239.549Y109.740
X239.207Y109.704
X238.872Y109.643
X238.545Y109.559
X238.225Y109.453
X237.912Y109.330
X237.604Y109.188
X237.303Y109.029
X237.008Y108.853
X236.719Y108.663
X236.436Y108.458
X236.160Y108.239
X235.623Y107.772
X235.105Y107.278
X235.017
X234.933Y107.553
X234.836Y107.815
X234.726Y108.064
X234.602Y108.300
X234.465Y108.520
X234.314Y108.724
X234.148Y108.910
X233.967Y109.078
X233.772Y109.230
X233.560Y109.363
X233.333Y109.478
X233.089Y109.575
X232.830Y109.653
X232.552Y109.708
X232.258Y109.741
X231.946Y109.752
X231.597Y109.739
X231.257Y109.701
X230.926Y109.637
X230.604Y109.548
X230.290Y109.437
X229.982Y109.309
X229.680Y109.164
X229.384Y109.001
X228.811Y108.634
X228.263Y108.217
X227.734Y107.767
X227.219Y107.300
X227.153Y107.322
X227.160Y108.036
X227.181Y108.653
X227.241Y109.642
X227.043Y109.752
X226.347Y109.537
X225.331Y109.277
X224.727Y109.147
X224.066Y109.023
X223.361Y108.913
X222.625Y108.824
X222.404Y107.919
G1Z-1.500F1800.0
G1X223.492Y107.902F1500.0
X223.836Y107.866
X223.971Y107.834
X224.083Y107.792
X224.173Y107.739
X224.246Y107.673
X224.300Y107.595
X224.337Y107.505
X224.384Y107.269
X224.414Y106.947
X224.442Y106.384
X224.469Y105.417
X224.491Y103.948
X224.502Y101.889
Y101.292
X224.491Y100.381
X224.458Y99.354
X224.392Y98.399
X224.080Y98.349
X223.805Y98.288
X223.569Y98.216
X223.370Y98.134
X223.060Y97.954
X222.941Y97.862
X222.846Y97.769
X222.715Y97.585
X222.675Y97.497
X222.653Y97.410
X222.625Y97.162
X222.934Y97.195
X223.630Y97.244
X224.629Y97.294
X225.861Y97.316
X226.905Y97.305
X227.843Y97.278
X228.561Y97.239
X228.942Y97.206
X229.340Y98.134
X228.186Y98.277
X227.825Y98.353
X227.573Y98.448
X227.483Y98.505
X227.411Y98.568
X227.358Y98.640
X227.324Y98.719
X227.284Y98.915
X227.264Y99.172
X227.230Y99.812
X227.208Y100.619
X227.197Y101.723
Y104.550
X227.208Y105.373
X227.241Y106.196
X227.553Y106.484
X227.893Y106.754
X228.258Y106.998
X228.644Y107.212
X229.049Y107.389
X229.467Y107.521
X229.899Y107.604
X230.345Y107.632
X230.726Y107.610
X231.061Y107.543
X231.352Y107.433
X231.481Y107.361
X231.598Y107.278
X231.808Y107.088
X231.988Y106.871
X232.139Y106.627
X232.261Y106.356
X232.358Y106.063
X232.434Y105.753
X232.488Y105.425
X232.521Y105.080
X232.554Y104.376
X232.565Y103.678
X232.548Y102.143
X232.487Y100.657
X232.383Y99.078
X232.233Y97.272
X232.940Y97.305
X233.791Y97.316
X234.901Y97.305
X235.839Y97.278
X236.530Y97.239
X236.894Y97.206
X237.292Y98.134
X236.629Y98.212
X236.121Y98.294
X235.743Y98.390
X235.593Y98.449
X235.469Y98.515
X235.369Y98.588
X235.289Y98.671
X235.228Y98.762
X235.188Y98.862
X235.142Y99.103
X235.127Y99.404
X235.160Y100.376
X235.226Y101.756
X235.293Y103.302
X235.318Y104.070
X235.326Y104.782
X235.309Y105.478
X235.283Y105.840
X235.238Y106.196
X235.548Y106.484
X235.884Y106.754
X236.241Y106.998
X236.618Y107.212
X237.014Y107.389
X237.430Y107.521
X237.862Y107.604
X238.308Y107.632
X238.689Y107.610
X239.027Y107.543
X239.321Y107.433
X239.452Y107.361
X239.572Y107.278
X239.786Y107.088
X239.970Y106.872
X240.123Y106.630
X240.246Y106.362
X240.343Y106.070
X240.420Y105.760
X240.476Y105.430
X240.511Y105.080
X240.548Y104.360
X240.561Y103.634
X240.539Y102.121
X240.473Y100.641
X240.351Y99.067
X240.163Y97.272
X240.881Y97.305
X241.743Y97.316
X242.864Y97.305
X243.830Y97.278
X244.553Y97.239
X244.934Y97.206
X245.332Y98.134
X244.657Y98.212
X244.134Y98.294
X243.740Y98.389
X243.584Y98.446
X243.454Y98.509
X243.349Y98.580
X243.263Y98.661
X243.197Y98.751
X243.151Y98.851
X243.097Y99.092
X243.079Y99.393
X243.118Y100.376
X243.211Y101.778
X243.300Y103.313
X243.333Y104.056
X243.344Y104.716
X243.333Y105.247
X243.301Y105.758
X243.248Y106.249
X243.173Y106.720
X243.073Y107.166
X242.945Y107.581
X242.789Y107.964
X242.604Y108.316
X242.389Y108.635
X242.140Y108.917
X241.859Y109.162
X241.544Y109.371
X241.373Y109.460
X241.192Y109.538
X240.801Y109.657
X240.370Y109.728
X239.898Y109.752
X239.549Y109.740
X239.207Y109.704
X238.872Y109.643
X238.545Y109.559
X238.225Y109.453
X237.912Y109.330
X237.604Y109.188
X237.303Y109.029
X237.008Y108.853
X236.719Y108.663
X236.436Y108.458
X236.160Y108.239
X235.623Y107.772
X235.105Y107.278
X235.017
X234.933Y107.553
X234.836Y107.815
X234.726Y108.064
X234.602Y108.300
X234.465Y108.520
X234.314Y108.724
X234.148Y108.910
X233.967Y109.078
X233.772Y109.230
X233.560Y109.363
X233.333Y109.478
X233.089Y109.575
X232.830Y109.653
X232.552Y109.708
X232.258Y109.741
X231.946Y109.752
X231.597Y109.739
X231.257Y109.701
X230.926Y109.637
X230.604Y109.548
X230.290Y109.437
X229.982Y109.309
X229.680Y109.164
X229.384Y109.001
X228.811Y108.634
X228.263Y108.217
X227.734Y107.767
X227.219Y107.300
X227.153Y107.322
X227.160Y108.036
X227.181Y108.653
X227.241Y109.642
X227.043Y109.752
X226.347Y109.537
X225.331Y109.277
X224.727Y109.147
X224.066Y109.023
X223.361Y108.913
X222.625Y108.824
X222.404Y107.919
G0Z5.080
G0X246.392
G1Z-0.750F1800.0
G1X247.464Y107.902F1500.0
X247.803Y107.865
X247.938Y107.831
X248.049Y107.786
X248.139Y107.730
X248.212Y107.662
X248.266Y107.581
X248.303Y107.488
X248.350Y107.248
X248.380Y106.925
X248.408Y106.406
X248.435Y105.445
X248.458Y103.932
X248.469Y101.734
Y101.127
X248.458Y100.260
X248.424Y99.299
X248.358Y98.399
X248.046Y98.349
X247.771Y98.288
X247.535Y98.216
X247.337Y98.134
X247.026Y97.954
X246.907Y97.862
X246.812Y97.769
X246.681Y97.585
X246.641Y97.497
X246.619Y97.410
X246.591Y97.162
X246.922Y97.200
X247.629Y97.250
X248.634Y97.294
X249.860Y97.316
X250.893Y97.305
X251.809Y97.278
X252.511Y97.239
X252.886Y97.206
X253.284Y98.134
X252.130Y98.277
X251.768Y98.353
X251.511Y98.448
X251.419Y98.505
X251.346Y98.568
X251.292Y98.640
X251.257Y98.719
X251.217Y98.915
X251.197Y99.172
X251.163Y99.685
X251.147Y100.398
X251.141Y101.182
Y101.922
X251.147Y104.269
X251.174Y106.257
X251.235Y108.002
X251.340Y109.620
X251.163Y109.752
X250.451Y109.537
X249.396Y109.277
X248.771Y109.147
X248.088Y109.023
X247.363Y108.913
X246.613Y108.824
X246.392Y107.919
G1Z-1.500F1800.0
G1X247.464Y107.902F1500.0
X247.803Y107.865
X247.938Y107.831
X248.049Y107.786
X248.139Y107.730
X248.212Y107.662
X248.266Y107.581
X248.303Y107.488
X248.350Y107.248
X248.380Y106.925
X248.408Y106.406
X248.435Y105.445
X248.458Y103.932
X248.469Y101.734
Y101.127
X248.458Y100.260
X248.424Y99.299
X248.358Y98.399
X248.046Y98.349
X247.771Y98.288
X247.535Y98.216
X247.337Y98.134
X247.026Y97.954
X246.907Y97.862
X246.812Y97.769
X246.681Y97.585
X246.641Y97.497
X246.619Y97.410
X246.591Y97.162
X246.922Y97.200
X247.629Y97.250
X248.634Y97.294
X249.860Y97.316
X250.893Y97.305
X251.809Y97.278
X252.511Y97.239
X252.886Y97.206
X253.284Y98.134
X252.130Y98.277
X251.768Y98.353
X251.511Y98.448
X251.419Y98.505
X251.346Y98.568
X251.292Y98.640
X251.257Y98.719
X251.217Y98.915
X251.197Y99.172
X251.163Y99.685
X251.147Y100.398
X251.141Y101.182
Y101.922
X251.147Y104.269
X251.174Y106.257
X251.235Y108.002
X251.340Y109.620
X251.163Y109.752
X250.451Y109.537
X249.396Y109.277
X248.771Y109.147
X248.088Y109.023
X247.363Y108.913
X246.613Y108.824
X246.392Y107.919
G0Z5.080
G0X248.739Y112.174
G1Z-0.750F1800.0
G1X249.021Y112.055F1500.0
X249.324Y111.984
X249.639Y111.961
X249.903Y111.975
X250.164Y112.019
X250.422Y112.091
X250.677Y112.193
X250.918Y112.323
X251.130Y112.483
X251.315Y112.671
X251.473Y112.889
X251.296Y113.090
X251.151Y113.297
X251.039Y113.510
X250.959Y113.728
X250.903Y113.954
X250.864Y114.192
X250.840Y114.440
X250.832Y114.700
Y114.965
X250.788Y115.031
X248.181Y114.634
X248.094Y114.362
X248.032Y114.076
X247.995Y113.798
X247.983Y113.551
X247.991Y113.349
X248.017Y113.162
X248.060Y112.990
X248.121Y112.833
X248.196Y112.691
X248.282Y112.562
X248.381Y112.445
X248.491Y112.342
X248.739Y112.174
G1Z-1.500F1800.0
G1X249.021Y112.055F1500.0
X249.324Y111.984
X249.639Y111.961
X249.903Y111.975
X250.164Y112.019
X250.422Y112.091
X250.677Y112.193
X250.918Y112.323
X251.130Y112.483
X251.315Y112.671
X251.473Y112.889
X251.296Y113.090
X251.151Y113.297
X251.039Y113.510
X250.959Y113.728
X250.903Y113.954
X250.864Y114.192
X250.840Y114.440
X250.832Y114.700
Y114.965
X250.788Y115.031
X248.181Y114.634
X248.094Y114.362
X248.032Y114.076
X247.995Y113.798
X247.983Y113.551
X247.991Y113.349
X248.017Y113.162
X248.060Y112.990
X248.121Y112.833
X248.196Y112.691
X248.282Y112.562
X248.381Y112.445
X248.491Y112.342
X248.739Y112.174
G0Z5.080
G0X254.532Y108.824
G1Z-0.750F1800.0
G1X254.311Y107.919F1500.0
X255.399Y107.902
X255.743Y107.866
X255.878Y107.834
X255.990Y107.792
X256.080Y107.739
X256.153Y107.673
X256.207Y107.595
X256.244Y107.505
X256.291Y107.269
X256.321Y106.947
X256.349Y106.384
X256.376Y105.417
X256.398Y103.948
X256.409Y101.889
Y101.292
X256.398Y100.381
X256.365Y99.354
X256.299Y98.399
X255.987Y98.349
X255.712Y98.288
X255.476Y98.216
X255.277Y98.134
X254.967Y97.954
X254.848Y97.862
X254.753Y97.769
X254.622Y97.585
X254.582Y97.497
X254.559Y97.410
X254.532Y97.162
X254.847Y97.200
X255.537Y97.250
X256.536Y97.294
X257.768Y97.316
X258.817Y97.305
X259.756Y97.278
X260.468Y97.239
X260.849Y97.206
X261.247Y98.134
X260.093Y98.277
X259.732Y98.353
X259.480Y98.448
X259.390Y98.505
X259.318Y98.570
X259.265Y98.643
X259.231Y98.724
X259.191Y98.922
X259.170Y99.172
X259.137Y99.812
X259.115Y100.619
X259.104Y101.723
Y103.810
X259.115Y104.550
X259.126Y105.379
X259.148Y106.196
X259.470Y106.484
X259.817Y106.754
X260.187Y106.998
X260.579Y107.212
X260.991Y107.389
X261.424Y107.521
X261.871Y107.604
X262.329Y107.632
X262.725Y107.610
X263.075Y107.543
X263.377Y107.433
X263.511Y107.361
X263.632Y107.278
X263.849Y107.088
X264.037Y106.872
X264.195Y106.630
X264.323Y106.362
X264.425Y106.070
X264.505Y105.760
X264.563Y105.430
X264.599Y105.080
X264.636Y104.360
X264.648Y103.634
X264.626Y102.121
X264.560Y100.641
X264.439Y99.067
X264.251Y97.272
X264.969Y97.305
X265.830Y97.316
X266.951Y97.305
X267.918Y97.278
X268.641Y97.239
X269.022Y97.206
X269.420Y98.134
X268.745Y98.212
X268.221Y98.294
X267.828Y98.389
X267.671Y98.446
X267.542Y98.509
X267.436Y98.580
X267.350Y98.661
X267.284Y98.751
X267.238Y98.851
X267.185Y99.092
X267.167Y99.393
X267.189Y99.983
X267.238Y100.806
X267.299Y101.778
X267.360Y102.811
X267.410Y103.810
X267.432Y104.694
X267.421Y105.225
X267.389Y105.736
X267.335Y106.227
X267.260Y106.698
X267.160Y107.144
X267.030Y107.560
X266.870Y107.945
X266.681Y108.300
X266.460Y108.621
X266.206Y108.906
X265.919Y109.154
X265.598Y109.366
X265.425Y109.456
X265.241Y109.535
X264.844Y109.656
X264.408Y109.728
X263.931Y109.752
X263.571Y109.740
X263.222Y109.702
X262.884Y109.640
X262.556Y109.553
X262.236Y109.445
X261.923Y109.319
X261.617Y109.174
X261.319Y109.012
X260.740Y108.645
X260.187Y108.228
X259.651Y107.775
X259.126Y107.300
X259.060Y107.322
X259.067Y108.036
X259.088Y108.653
X259.148Y109.642
X258.950Y109.752
X258.254Y109.537
X257.238Y109.277
X256.634Y109.147
X255.973Y109.023
X255.268Y108.913
X254.532Y108.824
G1Z-1.500F1800.0
G1X254.311Y107.919F1500.0
X255.399Y107.902
X255.743Y107.866
X255.878Y107.834
X255.990Y107.792
X256.080Y107.739
X256.153Y107.673
X256.207Y107.595
X256.244Y107.505
X256.291Y107.269
X256.321Y106.947
X256.349Y106.384
X256.376Y105.417
X256.398Y103.948
X256.409Y101.889
Y101.292
X256.398Y100.381
X256.365Y99.354
X256.299Y98.399
X255.987Y98.349
X255.712Y98.288
X255.476Y98.216
X255.277Y98.134
X254.967Y97.954
X254.848Y97.862
X254.753Y97.769
X254.622Y97.585
X254.582Y97.497
X254.559Y97.410
X254.532Y97.162
X254.847Y97.200
X255.537Y97.250
X256.536Y97.294
X257.768Y97.316
X258.817Y97.305
X259.756Y97.278
X260.468Y97.239
X260.849Y97.206
X261.247Y98.134
X260.093Y98.277
X259.732Y98.353
X259.480Y98.448
X259.390Y98.505
X259.318Y98.570
X259.265Y98.643
X259.231Y98.724
X259.191Y98.922
X259.170Y99.172
X259.137Y99.812
X259.115Y100.619
X259.104Y101.723
Y103.810
X259.115Y104.550
X259.126Y105.379
X259.148Y106.196
X259.470Y106.484
X259.817Y106.754
X260.187Y106.998
X260.579Y107.212
X260.991Y107.389
X261.424Y107.521
X261.871Y107.604
X262.329Y107.632
X262.725Y107.610
X263.075Y107.543
X263.377Y107.433
X263.511Y107.361
X263.632Y107.278
X263.849Y107.088
X264.037Y106.872
X264.195Y106.630
X264.323Y106.362
X264.425Y106.070
X264.505Y105.760
X264.563Y105.430
X264.599Y105.080
X264.636Y104.360
X264.648Y103.634
X264.626Y102.121
X264.560Y100.641
X264.439Y99.067
X264.251Y97.272
X264.969Y97.305
X265.830Y97.316
X266.951Y97.305
X267.918Y97.278
X268.641Y97.239
X269.022Y97.206
X269.420Y98.134
X268.745Y98.212
X268.221Y98.294
X267.828Y98.389
X267.671Y98.446
X267.542Y98.509
X267.436Y98.580
X267.350Y98.661
X267.284Y98.751
X267.238Y98.851
X267.185Y99.092
X267.167Y99.393
X267.189Y99.983
X267.238Y100.806
X267.299Y101.778
X267.360Y102.811
X267.410Y103.810
X267.432Y104.694
X267.421Y105.225
X267.389Y105.736
X267.335Y106.227
X267.260Y106.698
X267.160Y107.144
X267.030Y107.560
X266.870Y107.945
X266.681Y108.300
X266.460Y108.621
X266.206Y108.906
X265.919Y109.154
X265.598Y109.366
X265.425Y109.456
X265.241Y109.535
X264.844Y109.656
X264.408Y109.728
X263.931Y109.752
X263.571Y109.740
X263.222Y109.702
X262.884Y109.640
X262.556Y109.553
X262.236Y109.445
X261.923Y109.319
X261.617Y109.174
X261.319Y109.012
X260.740Y108.645
X260.187Y108.228
X259.651Y107.775
X259.126Y107.300
X259.060Y107.322
X259.067Y108.036
X259.088Y108.653
X259.148Y109.642
X258.950Y109.752
X258.254Y109.537
X257.238Y109.277
X256.634Y109.147
X255.973Y109.023
X255.268Y108.913
X254.532Y108.824
G0Z5.080
G0X273.011Y95.912
G1Z-0.750F1800.0
G1X273.241Y96.212F1500.0
X274.072Y96.115
X274.909Y96.046
X276.527Y95.941
X277.282Y95.868
X277.990Y95.770
X278.321Y95.707
X278.629Y95.629
X278.915Y95.536
X279.177Y95.428
X279.415Y95.301
X279.627Y95.153
X279.813Y94.984
X279.972Y94.793
X280.100Y94.577
X280.192Y94.333
X280.247Y94.061
X280.265Y93.760
X280.251Y93.496
X280.210Y93.233
X280.141Y92.971
X280.044Y92.711
X279.919Y92.459
X279.763Y92.221
X279.576Y91.997
X279.359Y91.789
X279.112Y91.597
X278.833Y91.424
X278.524Y91.271
X278.183Y91.137
X277.809Y91.028
X277.400Y90.951
X276.956Y90.904
X276.477Y90.888
X276.029Y90.902
X275.600Y90.942
X275.192Y91.010
X274.804Y91.104
X274.439Y91.223
X274.101Y91.365
X273.790Y91.529
X273.506Y91.717
X273.250Y91.925
X273.024Y92.153
X272.828Y92.400
X272.661Y92.667
X272.528Y92.950
X272.433Y93.246
X272.376Y93.557
X272.357Y93.882
X272.369Y94.129
X272.406Y94.395
X272.466Y94.681
X272.551Y94.986
X272.666Y95.299
X272.820Y95.607
X273.011Y95.912
G1Z-1.500F1800.0
G1X273.241Y96.212F1500.0
X274.072Y96.115
X274.909Y96.046
X276.527Y95.941
X277.282Y95.868
X277.990Y95.770
X278.321Y95.707
X278.629Y95.629
X278.915Y95.536
X279.177Y95.428
X279.415Y95.301
X279.627Y95.153
X279.813Y94.984
X279.972Y94.793
X280.100Y94.577
X280.192Y94.333
X280.247Y94.061
X280.265Y93.760
X280.251Y93.496
X280.210Y93.233
X280.141Y92.971
X280.044Y92.711
X279.919Y92.459
X279.763Y92.221
X279.576Y91.997
X279.359Y91.789
X279.112Y91.597
X278.833Y91.424
X278.524Y91.271
X278.183Y91.137
X277.809Y91.028
X277.400Y90.951
X276.956Y90.904
X276.477Y90.888
X276.029Y90.902
X275.600Y90.942
X275.192Y91.010
X274.804Y91.104
X274.439Y91.223
X274.101Y91.365
X273.790Y91.529
X273.506Y91.717
X273.250Y91.925
X273.024Y92.153
X272.828Y92.400
X272.661Y92.667
X272.528Y92.950
X272.433Y93.246
X272.376Y93.557
X272.357Y93.882
X272.369Y94.129
X272.406Y94.395
X272.466Y94.681
X272.551Y94.986
X272.666Y95.299
X272.820Y95.607
X273.011Y95.912
G0Z5.080
G0X275.261Y101.712
G1Z-0.750F1800.0
G1X274.964Y101.883F1500.0
X274.695Y102.093
X274.453Y102.330
X274.237Y102.595
X274.047Y102.888
X273.883Y103.203
X273.742Y103.533
X273.626Y103.879
X273.534Y104.241
X273.464Y104.608
X273.413Y104.967
X273.383Y105.320
X273.373Y105.666
X273.398Y106.188
X273.473Y106.693
X273.531Y106.934
X273.608Y107.162
X273.703Y107.376
X273.815Y107.576
X273.947Y107.760
X274.100Y107.924
X274.273Y108.069
X274.467Y108.195
X274.684Y108.296
X274.925Y108.369
X275.192Y108.412
X275.483Y108.427
X275.875Y108.402
X276.235Y108.326
X276.563Y108.200
X276.858Y108.024
X277.123Y107.809
X277.360Y107.567
X277.570Y107.298
X277.753Y107.002
X277.909Y106.685
X278.042Y106.352
X278.152Y106.003
X278.238Y105.638
X278.304Y105.269
X278.350Y104.908
X278.378Y104.554
X278.388Y104.208
X278.364Y103.687
X278.294Y103.186
X278.238Y102.948
X278.165Y102.724
X278.075Y102.514
X277.968Y102.319
X277.842Y102.141
X277.695Y101.981
X277.527Y101.840
X277.338Y101.717
X277.127Y101.618
X276.891Y101.548
X276.630Y101.505
X276.344Y101.491
X275.952Y101.516
X275.591Y101.589
X275.261Y101.712
G1Z-1.500F1800.0
G1X274.964Y101.883F1500.0
X274.695Y102.093
X274.453Y102.330
X274.237Y102.595
X274.047Y102.888
X273.883Y103.203
X273.742Y103.533
X273.626Y103.879
X273.534Y104.241
X273.464Y104.608
X273.413Y104.967
X273.383Y105.320
X273.373Y105.666
X273.398Y106.188
X273.473Y106.693
X273.531Y106.934
X273.608Y107.162
X273.703Y107.376
X273.815Y107.576
X273.947Y107.760
X274.100Y107.924
X274.273Y108.069
X274.467Y108.195
X274.684Y108.296
X274.925Y108.369
X275.192Y108.412
X275.483Y108.427
X275.875Y108.402
X276.235Y108.326
X276.563Y108.200
X276.858Y108.024
X277.123Y107.809
X277.360Y107.567
X277.570Y107.298
X277.753Y107.002
X277.909Y106.685
X278.042Y106.352
X278.152Y106.003
X278.238Y105.638
X278.304Y105.269
X278.350Y104.908
X278.378Y104.554
X278.388Y104.208
X278.364Y103.687
X278.294Y103.186
X278.238Y102.948
X278.165Y102.724
X278.075Y102.514
X277.968Y102.319
X277.842Y102.141
X277.695Y101.981
X277.527Y101.840
X277.338Y101.717
X277.127Y101.618
X276.891Y101.548
X276.630Y101.505
X276.344Y101.491
X275.952Y101.516
X275.591Y101.589
X275.261Y101.712
G0Z5.080
G0X275.252Y100.244
G1Z-0.750F1800.0
G1X275.649Y100.232F1500.0
X276.211Y100.255
X276.750Y100.324
X277.266Y100.440
X277.758Y100.602
X278.222Y100.804
X278.651Y101.040
X279.047Y101.309
X279.409Y101.613
X279.735Y101.947
X280.022Y102.310
X280.271Y102.701
X280.480Y103.120
X280.647Y103.561
X280.766Y104.019
X280.838Y104.492
X280.861Y104.981
X280.848Y105.332
X280.809Y105.691
X280.743Y106.056
X280.652Y106.428
X280.531Y106.804
X280.378Y107.182
X280.194Y107.561
X279.978Y107.941
X280.022Y108.007
X280.490Y107.955
X280.856Y107.930
X281.480Y107.919
X281.850Y107.924
X282.496Y107.963
X282.872Y109.244
X282.176Y109.222
X281.513
X280.435Y109.241
X279.542Y109.299
X278.792Y109.379
X278.145Y109.465
X277.073Y109.631
X276.587Y109.689
X276.079Y109.708
X275.615Y109.690
X275.152Y109.635
X274.688Y109.543
X274.224Y109.415
X273.772Y109.249
X273.344Y109.044
X272.941Y108.799
X272.562Y108.515
X272.211Y108.191
X271.895Y107.828
X271.612Y107.424
X271.363Y106.980
X271.255Y106.743
X271.160Y106.495
X271.081Y106.236
X271.015Y105.967
X270.965Y105.687
X270.928Y105.396
X270.900Y104.782
X270.909Y104.450
X270.936Y104.126
X270.981Y103.811
X271.044Y103.505
X271.126Y103.208
X271.226Y102.920
X271.343Y102.640
X271.479Y102.369
X271.633Y102.110
X271.805Y101.868
X271.996Y101.640
X272.204Y101.429
X272.431Y101.233
X272.675Y101.053
X272.938Y100.889
X273.219Y100.740
X272.691Y100.242
X272.236Y99.785
X271.853Y99.365
X271.546Y98.978
X271.310Y98.619
X271.142Y98.283
X271.043Y97.964
X271.018Y97.809
X271.010Y97.659
X271.030Y97.424
X271.091Y97.215
X271.193Y97.034
X271.336Y96.880
X271.518Y96.745
X271.737Y96.622
X271.995Y96.510
X272.291Y96.411
X271.729Y95.964
X271.246Y95.517
X270.843Y95.072
X270.671Y94.849
X270.518Y94.627
X270.385Y94.405
X270.270Y94.182
X270.172Y93.959
X270.092Y93.737
X270.030Y93.513
X269.985Y93.290
X269.959Y93.067
X269.950Y92.843
X269.972Y92.485
X270.039Y92.138
X270.152Y91.803
X270.309Y91.479
X270.507Y91.172
X270.744Y90.886
X271.018Y90.620
X271.330Y90.375
X271.679Y90.153
X272.062Y89.955
X272.480Y89.783
X272.932Y89.635
X273.415Y89.517
X273.926Y89.432
X274.464Y89.381
X275.030Y89.364
X275.534Y89.378
X276.028Y89.417
X276.514Y89.482
X276.990Y89.574
X277.456Y89.689
X277.907Y89.825
X278.345Y89.982
X278.769Y90.160
X279.177Y90.357
X279.567Y90.572
X279.939Y90.807
X280.293Y91.060
X280.625Y91.329
X280.933Y91.612
X281.216Y91.909
X281.474Y92.219
X281.707Y92.543
X281.912Y92.878
X282.090Y93.225
X282.242Y93.583
X282.363Y93.951
X282.449Y94.323
X282.501Y94.702
X282.518Y95.085
X282.502Y95.458
X282.452Y95.802
X282.369Y96.118
X282.253Y96.405
X282.108Y96.667
X281.940Y96.908
X281.747Y97.126
X281.530Y97.322
X281.291Y97.497
X281.034Y97.653
X280.758Y97.790
X280.464Y97.907
X279.839Y98.100
X279.177Y98.250
X278.490Y98.359
X277.786Y98.432
X276.400Y98.531
X275.223Y98.625
X274.726Y98.686
X274.307Y98.769
X273.968Y98.878
X273.831Y98.944
X273.716Y99.017
X273.624Y99.101
X273.558Y99.197
X273.519Y99.305
X273.506Y99.426
X273.516Y99.537
X273.546Y99.649
X273.596Y99.763
X273.666Y99.879
X273.866Y100.133
X274.147Y100.431
X274.501Y100.344
X274.870Y100.282
X275.252Y100.244
G1Z-1.500F1800.0
G1X275.649Y100.232F1500.0
X276.211Y100.255
X276.750Y100.324
X277.266Y100.440
X277.758Y100.602
X278.222Y100.804
X278.651Y101.040
X279.047Y101.309
X279.409Y101.613
X279.735Y101.947
X280.022Y102.310
X280.271Y102.701
X280.480Y103.120
X280.647Y103.561
X280.766Y104.019
X280.838Y104.492
X280.861Y104.981
X280.848Y105.332
X280.809Y105.691
X280.743Y106.056
X280.652Y106.428
X280.531Y106.804
X280.378Y107.182
X280.194Y107.561
X279.978Y107.941
X280.022Y108.007
X280.490Y107.955
X280.856Y107.930
X281.480Y107.919
X281.850Y107.924
X282.496Y107.963
X282.872Y109.244
X282.176Y109.222
X281.513
X280.435Y109.241
X279.542Y109.299
X278.792Y109.379
X278.145Y109.465
X277.073Y109.631
X276.587Y109.689
X276.079Y109.708
X275.615Y109.690
X275.152Y109.635
X274.688Y109.543
X274.224Y109.415
X273.772Y109.249
X273.344Y109.044
X272.941Y108.799
X272.562Y108.515
X272.211Y108.191
X271.895Y107.828
X271.612Y107.424
X271.363Y106.980
X271.255Y106.743
X271.160Y106.495
X271.081Y106.236
X271.015Y105.967
X270.965Y105.687
X270.928Y105.396
X270.900Y104.782
X270.909Y104.450
X270.936Y104.126
X270.981Y103.811
X271.044Y103.505
X271.126Y103.208
X271.226Y102.920
X271.343Y102.640
X271.479Y102.369
X271.633Y102.110
X271.805Y101.868
X271.996Y101.640
X272.204Y101.429
X272.431Y101.233
X272.675Y101.053
X272.938Y100.889
X273.219Y100.740
X272.691Y100.242
X272.236Y99.785
X271.853Y99.365
X271.546Y98.978
X271.310Y98.619
X271.142Y98.283
X271.043Y97.964
X271.018Y97.809
X271.010Y97.659
X271.030Y97.424
X271.091Y97.215
X271.193Y97.034
X271.336Y96.880
X271.518Y96.745
X271.737Y96.622
X271.995Y96.510
X272.291Y96.411
X271.729Y95.964
X271.246Y95.517
X270.843Y95.072
X270.671Y94.849
X270.518Y94.627
X270.385Y94.405
X270.270Y94.182
X270.172Y93.959
X270.092Y93.737
X270.030Y93.513
X269.985Y93.290
X269.959Y93.067
X269.950Y92.843
X269.972Y92.485
X270.039Y92.138
X270.152Y91.803
X270.309Y91.479
X270.507Y91.172
X270.744Y90.886
X271.018Y90.620
X271.330Y90.375
X271.679Y90.153
X272.062Y89.955
X272.480Y89.783
X272.932Y89.635
X273.415Y89.517
X273.926Y89.432
X274.464Y89.381
X275.030Y89.364
X275.534Y89.378
X276.028Y89.417
X276.514Y89.482
X276.990Y89.574
X277.456Y89.689
X277.907Y89.825
X278.345Y89.982
X278.769Y90.160
X279.177Y90.357
X279.567Y90.572
X279.939Y90.807
X280.293Y91.060
X280.625Y91.329
X280.933Y91.612
X281.216Y91.909
X281.474Y92.219
X281.707Y92.543
X281.912Y92.878
X282.090Y93.225
X282.242Y93.583
X282.363Y93.951
X282.449Y94.323
X282.501Y94.702
X282.518Y95.085
X282.502Y95.458
X282.452Y95.802
X282.369Y96.118
X282.253Y96.405
X282.108Y96.667
X281.940Y96.908
X281.747Y97.126
X281.530Y97.322
X281.291Y97.497
X281.034Y97.653
X280.758Y97.790
X280.464Y97.907
X279.839Y98.100
X279.177Y98.250
X278.490Y98.359
X277.786Y98.432
X276.400Y98.531
X275.223Y98.625
X274.726Y98.686
X274.307Y98.769
X273.968Y98.878
X273.831Y98.944
X273.716Y99.017
X273.624Y99.101
X273.558Y99.197
X273.519Y99.305
X273.506Y99.426
X273.516Y99.537
X273.546Y99.649
X273.596Y99.763
X273.666Y99.879
X273.866Y100.133
X274.147Y100.431
X274.501Y100.344
X274.870Y100.282
X275.252Y100.244
G0Z5.080
G0X286.842Y102.330
G1Z-0.750F1800.0
G1X286.733Y102.865F1500.0
X286.656Y103.399
X286.609Y103.931
X286.593Y104.462
X286.601Y104.814
X286.625Y105.165
X286.665Y105.513
X286.720Y105.859
X286.796Y106.195
X286.896Y106.513
X287.020Y106.814
X287.168Y107.096
X287.342Y107.356
X287.545Y107.590
X287.776Y107.798
X288.035Y107.980
X288.326Y108.127
X288.655Y108.232
X289.019Y108.295
X289.421Y108.316
X289.684Y108.308
X289.937Y108.282
X290.182Y108.240
X290.416Y108.180
X290.641Y108.103
X290.857Y108.009
X291.063Y107.898
X291.260Y107.770
X291.626Y107.476
X291.957Y107.142
X292.253Y106.766
X292.513Y106.351
X292.740Y105.902
X292.936Y105.428
X293.099Y104.930
X293.231Y104.407
X293.333Y103.872
X293.405Y103.338
X293.449Y102.806
X293.463Y102.275
X293.455Y101.918
X293.433Y101.563
X293.395Y101.211
X293.342Y100.861
X293.269Y100.523
X293.174Y100.204
X293.057Y99.905
X292.916Y99.625
X292.750Y99.367
X292.556Y99.136
X292.333Y98.931
X292.082Y98.752
X291.799Y98.607
X291.478Y98.504
X291.120Y98.441
X290.724Y98.421
X290.466Y98.429
X290.216Y98.455
X289.975Y98.498
X289.742Y98.557
X289.518Y98.634
X289.302Y98.728
X289.095Y98.839
X288.896Y98.967
X288.523Y99.261
X288.184Y99.596
X287.877Y99.971
X287.604Y100.387
X287.364Y100.835
X287.157Y101.309
X286.983Y101.807
X286.842Y102.330
G1Z-1.500F1800.0
G1X286.733Y102.865F1500.0
X286.656Y103.399
X286.609Y103.931
X286.593Y104.462
X286.601Y104.814
X286.625Y105.165
X286.665Y105.513
X286.720Y105.859
X286.796Y106.195
X286.896Y106.513
X287.020Y106.814
X287.168Y107.096
X287.342Y107.356
X287.545Y107.590
X287.776Y107.798
X288.035Y107.980
X288.326Y108.127
X288.655Y108.232
X289.019Y108.295
X289.421Y108.316
X289.684Y108.308
X289.937Y108.282
X290.182Y108.240
X290.416Y108.180
X290.641Y108.103
X290.857Y108.009
X291.063Y107.898
X291.260Y107.770
X291.626Y107.476
X291.957Y107.142
X292.253Y106.766
X292.513Y106.351
X292.740Y105.902
X292.936Y105.428
X293.099Y104.930
X293.231Y104.407
X293.333Y103.872
X293.405Y103.338
X293.449Y102.806
X293.463Y102.275
X293.455Y101.918
X293.433Y101.563
X293.395Y101.211
X293.342Y100.861
X293.269Y100.523
X293.174Y100.204
X293.057Y99.905
X292.916Y99.625
X292.750Y99.367
X292.556Y99.136
X292.333Y98.931
X292.082Y98.752
X291.799Y98.607
X291.478Y98.504
X291.120Y98.441
X290.724Y98.421
X290.466Y98.429
X290.216Y98.455
X289.975Y98.498
X289.742Y98.557
X289.518Y98.634
X289.302Y98.728
X289.095Y98.839
X288.896Y98.967
X288.523Y99.261
X288.184Y99.596
X287.877Y99.971
X287.604Y100.387
X287.364Y100.835
X287.157Y101.309
X286.983Y101.807
X286.842Y102.330
G0Z5.080
G0X283.961Y101.983
G1Z-0.750F1800.0
G1X284.009Y101.647F1500.0
X284.071Y101.322
X284.147Y101.008
X284.237Y100.706
X284.340Y100.414
X284.581Y99.866
X284.862Y99.364
X285.183Y98.908
X285.359Y98.697
X285.544Y98.498
X285.941Y98.135
X286.370Y97.820
X286.830Y97.553
X287.322Y97.333
X287.839Y97.161
X288.374Y97.039
X288.927Y96.965
X289.498Y96.941
X289.866Y96.951
X290.239Y96.982
X290.619Y97.034
X291.006Y97.106
X291.393Y97.201
X291.775Y97.318
X292.152Y97.457
X292.524Y97.620
X292.889Y97.806
X293.245Y98.015
X293.591Y98.247
X293.927Y98.504
X294.247Y98.784
X294.547Y99.092
X294.825Y99.425
X295.081Y99.785
X295.314Y100.171
X295.523Y100.584
X295.706Y101.024
X295.865Y101.491
X295.993Y101.986
X296.085Y102.510
X296.140Y103.063
X296.158Y103.645
X296.131Y104.359
X296.049Y105.032
X295.987Y105.353
X295.912Y105.665
X295.824Y105.966
X295.722Y106.257
X295.483Y106.805
X295.204Y107.307
X294.884Y107.763
X294.709Y107.974
X294.523Y108.173
X294.126Y108.536
X293.696Y108.853
X293.234Y109.124
X292.740Y109.349
X292.219Y109.525
X291.681Y109.651
X291.123Y109.727
X290.547Y109.752
X290.200Y109.743
X289.843Y109.715
X289.477Y109.668
X289.100Y109.603
X288.721Y109.517
X288.344Y109.408
X287.970Y109.277
X287.598Y109.123
X287.233Y108.945
X286.876Y108.743
X286.529Y108.517
X286.190Y108.267
X285.866Y107.991
X285.561Y107.687
X285.275Y107.356
X285.009Y106.997
X284.765Y106.609
X284.549Y106.193
X284.359Y105.748
X284.197Y105.274
X284.066Y104.769
X283.973Y104.231
X283.917Y103.662
X283.899Y103.059
X283.926Y102.331
X283.961Y101.983
G1Z-1.500F1800.0
G1X284.009Y101.647F1500.0
X284.071Y101.322
X284.147Y101.008
X284.237Y100.706
X284.340Y100.414
X284.581Y99.866
X284.862Y99.364
X285.183Y98.908
X285.359Y98.697
X285.544Y98.498
X285.941Y98.135
X286.370Y97.820
X286.830Y97.553
X287.322Y97.333
X287.839Y97.161
X288.374Y97.039
X288.927Y96.965
X289.498Y96.941
X289.866Y96.951
X290.239Y96.982
X290.619Y97.034
X291.006Y97.106
X291.393Y97.201
X291.775Y97.318
X292.152Y97.457
X292.524Y97.620
X292.889Y97.806
X293.245Y98.015
X293.591Y98.247
X293.927Y98.504
X294.247Y98.784
X294.547Y99.092
X294.825Y99.425
X295.081Y99.785
X295.314Y100.171
X295.523Y100.584
X295.706Y101.024
X295.865Y101.491
X295.993Y101.986
X296.085Y102.510
X296.140Y103.063
X296.158Y103.645
X296.131Y104.359
X296.049Y105.032
X295.987Y105.353
X295.912Y105.665
X295.824Y105.966
X295.722Y106.257
X295.483Y106.805
X295.204Y107.307
X294.884Y107.763
X294.709Y107.974
X294.523Y108.173
X294.126Y108.536
X293.696Y108.853
X293.234Y109.124
X292.740Y109.349
X292.219Y109.525
X291.681Y109.651
X291.123Y109.727
X290.547Y109.752
X290.200Y109.743
X289.843Y109.715
X289.477Y109.668
X289.100Y109.603
X288.721Y109.517
X288.344Y109.408
X287.970Y109.277
X287.598Y109.123
X287.233Y108.945
X286.876Y108.743
X286.529Y108.517
X286.190Y108.267
X285.866Y107.991
X285.561Y107.687
X285.275Y107.356
X285.009Y106.997
X284.765Y106.609
X284.549Y106.193
X284.359Y105.748
X284.197Y105.274
X284.066Y104.769
X283.973Y104.231
X283.917Y103.662
X283.899Y103.059
X283.926Y102.331
X283.961Y101.983
G0Z5.080
G0X306.890Y103.186
G1Z-0.750F1800.0
G1X306.871Y103.799F1500.0
X306.883Y104.248
X306.918Y104.690
X306.976Y105.124
X307.059Y105.550
X307.168Y105.960
X307.307Y106.345
X307.477Y106.705
X307.677Y107.041
X307.910Y107.348
X308.178Y107.623
X308.482Y107.867
X308.820Y108.079
X309.004Y108.171
X309.198Y108.250
X309.619Y108.373
X310.084Y108.447
X310.593Y108.471
X311.106Y108.449
X311.435Y108.413
X311.791Y108.350
X312.171Y108.256
X312.570Y108.129
X312.973Y107.960
X313.365Y107.742
Y105.765
X313.354Y103.821
Y101.966
X313.343Y100.254
X313.053Y99.944
X312.749Y99.677
X312.430Y99.453
X312.095Y99.271
X311.745Y99.131
X311.382Y99.031
X311.005Y98.971
X310.615Y98.951
X310.249Y98.968
X309.891Y99.021
X309.542Y99.109
X309.201Y99.232
X308.874Y99.393
X308.566Y99.591
X308.278Y99.829
X308.008Y100.105
X307.762Y100.421
X307.542Y100.777
X307.348Y101.175
X307.180Y101.613
X307.045Y102.093
X306.948Y102.618
X306.890Y103.186
G1Z-1.500F1800.0
G1X306.871Y103.799F1500.0
X306.883Y104.248
X306.918Y104.690
X306.976Y105.124
X307.059Y105.550
X307.168Y105.960
X307.307Y106.345
X307.477Y106.705
X307.677Y107.041
X307.910Y107.348
X308.178Y107.623
X308.482Y107.867
X308.820Y108.079
X309.004Y108.171
X309.198Y108.250
X309.619Y108.373
X310.084Y108.447
X310.593Y108.471
X311.106Y108.449
X311.435Y108.413
X311.791Y108.350
X312.171Y108.256
X312.570Y108.129
X312.973Y107.960
X313.365Y107.742
Y105.765
X313.354Y103.821
Y101.966
X313.343Y100.254
X313.053Y99.944
X312.749Y99.677
X312.430Y99.453
X312.095Y99.271
X311.745Y99.131
X311.382Y99.031
X311.005Y98.971
X310.615Y98.951
X310.249Y98.968
X309.891Y99.021
X309.542Y99.109
X309.201Y99.232
X308.874Y99.393
X308.566Y99.591
X308.278Y99.829
X308.008Y100.105
X307.762Y100.421
X307.542Y100.777
X307.348Y101.175
X307.180Y101.613
X307.045Y102.093
X306.948Y102.618
X306.890Y103.186
G0Z5.080
G0X304.168Y103.476
G1Z-0.750F1800.0
G1X304.141Y103.064F1500.0
X304.132Y102.640
X304.152Y102.028
X304.212Y101.441
X304.312Y100.879
X304.452Y100.342
X304.630Y99.836
X304.846Y99.366
X305.097Y98.933
X305.385Y98.537
X305.709Y98.179
X306.067Y97.864
X306.460Y97.591
X306.887Y97.360
X307.114Y97.262
X307.348Y97.177
X307.841Y97.046
X308.367Y96.967
X308.925Y96.941
X309.240Y96.950
X309.546Y96.977
X309.842Y97.022
X310.129Y97.084
X310.408Y97.164
X310.682Y97.261
X310.952Y97.374
X311.217Y97.504
X311.478Y97.651
X311.739Y97.815
X312.255Y98.194
X312.778Y98.640
X313.321Y99.150
X313.431Y99.128
Y98.730
X313.454Y98.338
X313.522Y97.989
X313.636Y97.683
X313.710Y97.547
X313.796Y97.421
X313.894Y97.309
X314.007Y97.211
X314.134Y97.128
X314.276Y97.061
X314.432Y97.008
X314.603Y96.971
X314.788Y96.948
X314.988Y96.941
X315.364Y96.963
X315.806Y97.029
X316.290Y97.133
X316.794Y97.267
X317.306Y97.429
X317.816Y97.620
X318.299Y97.834
X318.732Y98.067
X318.467Y98.774
X318.066Y98.629
X317.689Y98.526
X317.337Y98.464
X317.009Y98.443
X316.804Y98.455
X316.628Y98.492
X316.481Y98.563
X316.358Y98.675
X316.260Y98.832
X316.187Y99.039
X316.136Y99.304
X316.104Y99.636
X316.082Y100.083
X316.065Y100.944
X316.060Y102.408
Y107.753
X316.065Y110.779
X316.087Y113.568
X316.131Y115.915
X316.166Y116.865
X316.214Y117.616
X315.993Y117.770
X315.681Y117.675
X315.253Y117.566
X314.725Y117.451
X314.110Y117.340
X313.420Y117.233
X312.663Y117.135
X311.859Y117.054
X311.023Y116.997
X310.803Y116.092
X312.200Y116.075
X312.636Y116.038
X312.804Y116.004
X312.940Y115.959
X313.047Y115.902
X313.132Y115.832
X313.193Y115.748
X313.232Y115.650
X313.276Y115.399
X313.299Y115.064
X313.315Y114.043
X313.326Y112.872
X313.343Y111.409
X313.365Y109.487
X312.824Y109.603
X312.285Y109.686
X311.747Y109.736
X311.211Y109.752
X310.512Y109.723
X309.829Y109.636
X309.494Y109.571
X309.162Y109.491
X308.835Y109.397
X308.511Y109.288
X308.194Y109.165
X307.887Y109.029
X307.590Y108.878
X307.303Y108.714
X307.025Y108.536
X306.758Y108.344
X306.500Y108.138
X306.252Y107.919
X306.016Y107.686
X305.791Y107.440
X305.579Y107.181
X305.380Y106.908
X305.193Y106.623
X305.018Y106.324
X304.856Y106.013
X304.706Y105.688
X304.571Y105.350
X304.455Y105.000
X304.356Y104.638
X304.275Y104.263
X304.213Y103.876
X304.168Y103.476
G1Z-1.500F1800.0
G1X304.141Y103.064F1500.0
X304.132Y102.640
X304.152Y102.028
X304.212Y101.441
X304.312Y100.879
X304.452Y100.342
X304.630Y99.836
X304.846Y99.366
X305.097Y98.933
X305.385Y98.537
X305.709Y98.179
X306.067Y97.864
X306.460Y97.591
X306.887Y97.360
X307.114Y97.262
X307.348Y97.177
X307.841Y97.046
X308.367Y96.967
X308.925Y96.941
X309.240Y96.950
X309.546Y96.977
X309.842Y97.022
X310.129Y97.084
X310.408Y97.164
X310.682Y97.261
X310.952Y97.374
X311.217Y97.504
X311.478Y97.651
X311.739Y97.815
X312.255Y98.194
X312.778Y98.640
X313.321Y99.150
X313.431Y99.128
Y98.730
X313.454Y98.338
X313.522Y97.989
X313.636Y97.683
X313.710Y97.547
X313.796Y97.421
X313.894Y97.309
X314.007Y97.211
X314.134Y97.128
X314.276Y97.061
X314.432Y97.008
X314.603Y96.971
X314.788Y96.948
X314.988Y96.941
X315.364Y96.963
X315.806Y97.029
X316.290Y97.133
X316.794Y97.267
X317.306Y97.429
X317.816Y97.620
X318.299Y97.834
X318.732Y98.067
X318.467Y98.774
X318.066Y98.629
X317.689Y98.526
X317.337Y98.464
X317.009Y98.443
X316.804Y98.455
X316.628Y98.492
X316.481Y98.563
X316.358Y98.675
X316.260Y98.832
X316.187Y99.039
X316.136Y99.304
X316.104Y99.636
X316.082Y100.083
X316.065Y100.944
X316.060Y102.408
Y107.753
X316.065Y110.779
X316.087Y113.568
X316.131Y115.915
X316.166Y116.865
X316.214Y117.616
X315.993Y117.770
X315.681Y117.675
X315.253Y117.566
X314.725Y117.451
X314.110Y117.340
X313.420Y117.233
X312.663Y117.135
X311.859Y117.054
X311.023Y116.997
X310.803Y116.092
X312.200Y116.075
X312.636Y116.038
X312.804Y116.004
X312.940Y115.959
X313.047Y115.902
X313.132Y115.832
X313.193Y115.748
X313.232Y115.650
X313.276Y115.399
X313.299Y115.064
X313.315Y114.043
X313.326Y112.872
X313.343Y111.409
X313.365Y109.487
X312.824Y109.603
X312.285Y109.686
X311.747Y109.736
X311.211Y109.752
X310.512Y109.723
X309.829Y109.636
X309.494Y109.571
X309.162Y109.491
X308.835Y109.397
X308.511Y109.288
X308.194Y109.165
X307.887Y109.029
X307.590Y108.878
X307.303Y108.714
X307.025Y108.536
X306.758Y108.344
X306.500Y108.138
X306.252Y107.919
X306.016Y107.686
X305.791Y107.440
X305.579Y107.181
X305.380Y106.908
X305.193Y106.623
X305.018Y106.324
X304.856Y106.013
X304.706Y105.688
X304.571Y105.350
X304.455Y105.000
X304.356Y104.638
X304.275Y104.263
X304.213Y103.876
X304.168Y103.476
G0Z5.080
G0X322.244Y104.694
G1Z-0.750F1800.0
G1X322.274Y105.197F1500.0
X322.329Y105.657
X322.409Y106.075
X322.515Y106.450
X322.642Y106.786
X322.787Y107.088
X322.949Y107.355
X323.128Y107.587
X323.322Y107.787
X323.530Y107.956
X323.750Y108.094
X323.984Y108.200
X324.227Y108.280
X324.474Y108.337
X324.726Y108.371
X324.983Y108.383
X325.271Y108.370
X325.537Y108.330
X325.782Y108.265
X326.005Y108.173
X326.209Y108.058
X326.394Y107.924
X326.562Y107.771
X326.712Y107.599
X326.843Y107.408
X326.956Y107.201
X327.050Y106.977
X327.126Y106.737
X327.184Y106.484
X327.225Y106.223
X327.250Y105.954
X327.259Y105.677
X327.242Y105.318
X327.216Y105.109
X327.170Y104.893
X322.244Y104.694
G1Z-1.500F1800.0
G1X322.274Y105.197F1500.0
X322.329Y105.657
X322.409Y106.075
X322.515Y106.450
X322.642Y106.786
X322.787Y107.088
X322.949Y107.355
X323.128Y107.587
X323.322Y107.787
X323.530Y107.956
X323.750Y108.094
X323.984Y108.200
X324.227Y108.280
X324.474Y108.337
X324.726Y108.371
X324.983Y108.383
X325.271Y108.370
X325.537Y108.330
X325.782Y108.265
X326.005Y108.173
X326.209Y108.058
X326.394Y107.924
X326.562Y107.771
X326.712Y107.599
X326.843Y107.408
X326.956Y107.201
X327.050Y106.977
X327.126Y106.737
X327.184Y106.484
X327.225Y106.223
X327.250Y105.954
X327.259Y105.677
X327.242Y105.318
X327.216Y105.109
X327.170Y104.893
X322.244Y104.694
G0Z5.080
G0X322.267Y103.700
G1Z-0.750F1800.0
G1X329.732Y104.009F1500.0
X329.841Y104.483
X329.926Y104.953
X329.980Y105.430
X329.997Y105.920
X329.985Y106.301
X329.949Y106.674
X329.889Y107.036
X329.804Y107.389
X329.692Y107.726
X329.549Y108.042
X329.375Y108.336
X329.169Y108.609
X328.930Y108.858
X328.654Y109.080
X328.342Y109.275
X327.993Y109.443
X327.605Y109.578
X327.174Y109.675
X326.702Y109.733
X326.187Y109.752
X325.576Y109.725
X324.970Y109.644
X324.367Y109.510
X323.769Y109.321
X323.474Y109.207
X323.188Y109.078
X322.909Y108.935
X322.638Y108.779
X322.375Y108.608
X322.119Y108.424
X321.871Y108.225
X321.631Y108.013
X321.401Y107.786
X321.182Y107.546
X320.974Y107.291
X320.778Y107.023
X320.593Y106.740
X320.420Y106.444
X320.258Y106.134
X320.107Y105.809
X319.971Y105.471
X319.854Y105.118
X319.754Y104.750
X319.672Y104.368
X319.609Y103.971
X319.564Y103.560
X319.537Y103.135
X319.528Y102.695
X319.535Y102.302
X319.557Y101.926
X319.593Y101.564
X319.643Y101.219
X319.709Y100.889
X319.788Y100.575
X319.883Y100.277
X319.991Y99.995
X320.241Y99.471
X320.527Y99.001
X320.683Y98.785
X320.849Y98.582
X321.023Y98.393
X321.206Y98.216
X321.594Y97.901
X322.007Y97.632
X322.445Y97.412
X322.907Y97.239
X323.383Y97.109
X323.862Y97.015
X324.344Y96.959
X324.829Y96.941
X325.174Y96.949
X325.519Y96.975
X325.863Y97.018
X326.208Y97.079
X326.552Y97.156
X326.896Y97.251
X327.240Y97.364
X327.584Y97.493
X327.928Y97.640
X328.271Y97.804
X328.615Y97.985
X328.958Y98.183
X329.644Y98.632
X330.329Y99.150
X329.887Y99.879
X329.391Y99.636
X328.943Y99.437
X328.529Y99.277
X328.137Y99.150
X327.760Y99.056
X327.391Y98.995
X327.021Y98.962
X326.640Y98.951
X326.170Y98.967
X325.722Y99.017
X325.295Y99.100
X324.890Y99.216
X324.508Y99.367
X324.155Y99.557
X323.829Y99.784
X323.531Y100.050
X323.262Y100.355
X323.023Y100.701
X322.815Y101.089
X322.636Y101.519
X322.491Y101.992
X322.381Y102.514
X322.306Y103.083
X322.267Y103.700
G1Z-1.500F1800.0
G1X329.732Y104.009F1500.0
X329.841Y104.483
X329.926Y104.953
X329.980Y105.430
X329.997Y105.920
X329.985Y106.301
X329.949Y106.674
X329.889Y107.036
X329.804Y107.389
X329.692Y107.726
X329.549Y108.042
X329.375Y108.336
X329.169Y108.609
X328.930Y108.858
X328.654Y109.080
X328.342Y109.275
X327.993Y109.443
