(VECTRIC POST REV.)
(82074C4DCA892683619619E26FA56BD3)
T1M6
G17
G0Z20.320
G0X0.000Y0.000S14000M3
G0X75.129Y94.088
G0Z5.080
G1Z-0.750F1800.0
G1X75.014Y94.183F1200.0
X74.914Y94.292
X74.832Y94.416
X74.768Y94.558
X74.723Y94.719
X74.696Y94.899
X74.665Y95.076
X74.643Y95.370
X74.619Y96.473
X74.608Y98.436
X74.602Y101.478
Y107.219
X74.614Y109.041
X74.649Y110.391
X75.574Y110.444
X76.417Y110.461
X76.920Y110.453
X77.410Y110.429
X77.886Y110.388
X78.348Y110.332
X78.796Y110.259
X79.231Y110.169
X79.653Y110.064
X80.060Y109.943
X80.453Y109.804
X80.831Y109.646
X81.192Y109.471
X81.538Y109.276
X81.869Y109.064
X82.184Y108.833
X82.483Y108.583
X82.766Y108.316
X83.033Y108.029
X83.284Y107.722
X83.519Y107.396
X83.737Y107.050
X83.939Y106.684
X84.124Y106.298
X84.294Y105.893
X84.446Y105.468
X84.582Y105.023
X84.699Y104.555
X84.798Y104.065
X84.879Y103.554
X84.943Y103.021
X84.988Y102.465
X85.015Y101.888
X85.024Y101.289
X84.997Y100.359
X84.918Y99.432
X84.852Y98.975
X84.761Y98.529
X84.646Y98.094
X84.505Y97.669
X84.337Y97.258
X84.138Y96.862
X83.909Y96.480
X83.650Y96.113
X83.355Y95.766
X83.018Y95.443
X82.639Y95.144
X82.218Y94.869
X81.752Y94.621
X81.239Y94.401
X80.679Y94.208
X80.072Y94.044
X79.413Y93.913
X78.696Y93.819
X77.921Y93.762
X77.089Y93.744
X76.594Y93.752
X76.146Y93.779
X75.750Y93.836
X75.409Y93.938
X75.261Y94.007
X75.129Y94.088
G1Z-1.500F1800.0
G1X75.014Y94.183F1200.0
X74.914Y94.292
X74.832Y94.416
X74.768Y94.558
X74.723Y94.719
X74.696Y94.899
X74.665Y95.076
X74.643Y95.370
X74.619Y96.473
X74.608Y98.436
X74.602Y101.478
Y107.219
X74.614Y109.041
X74.649Y110.391
X75.574Y110.444
X76.417Y110.461
X76.920Y110.453
X77.410Y110.429
X77.886Y110.388
X78.348Y110.332
X78.796Y110.259
X79.231Y110.169
X79.653Y110.064
X80.060Y109.943
X80.453Y109.804
X80.831Y109.646
X81.192Y109.471
X81.538Y109.276
X81.869Y109.064
X82.184Y108.833
X82.483Y108.583
X82.766Y108.316
X83.033Y108.029
X83.284Y107.722
X83.519Y107.396
X83.737Y107.050
X83.939Y106.684
X84.124Y106.298
X84.294Y105.893
X84.446Y105.468
X84.582Y105.023
X84.699Y104.555
X84.798Y104.065
X84.879Y103.554
X84.943Y103.021
X84.988Y102.465
X85.015Y101.888
X85.024Y101.289
X84.997Y100.359
X84.918Y99.432
X84.852Y98.975
X84.761Y98.529
X84.646Y98.094
X84.505Y97.669
X84.337Y97.258
X84.138Y96.862
X83.909Y96.480
X83.650Y96.113
X83.355Y95.766
X83.018Y95.443
X82.639Y95.144
X82.218Y94.869
X81.752Y94.621
X81.239Y94.401
X80.679Y94.208
X80.072Y94.044
X79.413Y93.913
X78.696Y93.819
X77.921Y93.762
X77.089Y93.744
X76.594Y93.752
X76.146Y93.779
X75.750Y93.836
X75.409Y93.938
X75.261Y94.007
X75.129Y94.088
G0Z5.080
G0X75.321Y92.517
G1Z-0.750F1800.0
G1X76.364Y92.453F1200.0
X76.887Y92.430
X77.431Y92.423
X78.424Y92.451
X79.363Y92.534
X79.813Y92.596
X80.249Y92.672
X80.671Y92.762
X81.080Y92.865
X81.861Y93.107
X82.594Y93.390
X83.279Y93.714
X83.916Y94.080
X84.506Y94.482
X85.052Y94.917
X85.553Y95.384
X86.008Y95.883
X86.421Y96.408
X86.794Y96.950
X87.126Y97.510
X87.417Y98.088
X87.670Y98.680
X87.887Y99.285
X88.068Y99.901
X88.213Y100.528
X88.324Y101.160
X88.403Y101.786
X88.451Y102.406
X88.466Y103.022
X88.456Y103.531
X88.424Y104.026
X88.370Y104.508
X88.295Y104.976
X88.199Y105.431
X88.082Y105.871
X87.943Y106.299
X87.783Y106.712
X87.601Y107.111
X87.398Y107.494
X87.174Y107.861
X86.929Y108.212
X86.663Y108.548
X86.376Y108.867
X86.067Y109.171
X85.737Y109.459
X85.386Y109.731
X85.014Y109.986
X84.620Y110.225
X84.204Y110.447
X83.768Y110.652
X83.310Y110.841
X82.831Y111.013
X82.330Y111.169
X81.808Y111.307
X81.265Y111.427
X80.700Y111.528
X80.115Y111.611
X79.508Y111.675
X78.880Y111.721
X78.231Y111.749
X77.561Y111.758
X76.703Y111.745
X75.757Y111.705
X74.739Y111.637
X73.664Y111.540
X72.543Y111.412
X71.383Y111.251
X70.201Y111.060
X69.013Y110.839
X68.707Y109.612
X70.122Y109.848
X71.536Y110.060
X71.554Y109.324
X71.560Y108.363
Y98.554
X71.542Y96.685
X71.495Y95.046
X71.461Y94.352
X71.419Y93.767
X70.980Y93.725
X70.595Y93.670
X70.264Y93.601
X69.986Y93.520
X69.752Y93.429
X69.553Y93.334
X69.387Y93.234
X69.255Y93.130
X69.152Y93.025
X69.072Y92.923
X69.016Y92.822
X68.984Y92.724
X68.943Y92.423
X69.344Y92.447
X70.275Y92.517
X71.536Y92.582
X72.928Y92.612
X73.586Y92.604
X74.195Y92.582
X75.321Y92.517
G1Z-1.500F1800.0
G1X76.364Y92.453F1200.0
X76.887Y92.430
X77.431Y92.423
X78.424Y92.451
X79.363Y92.534
X79.813Y92.596
X80.249Y92.672
X80.671Y92.762
X81.080Y92.865
X81.861Y93.107
X82.594Y93.390
X83.279Y93.714
X83.916Y94.080
X84.506Y94.482
X85.052Y94.917
X85.553Y95.384
X86.008Y95.883
X86.421Y96.408
X86.794Y96.950
X87.126Y97.510
X87.417Y98.088
X87.670Y98.680
X87.887Y99.285
X88.068Y99.901
X88.213Y100.528
X88.324Y101.160
X88.403Y101.786
X88.451Y102.406
X88.466Y103.022
X88.456Y103.531
X88.424Y104.026
X88.370Y104.508
X88.295Y104.976
X88.199Y105.431
X88.082Y105.871
X87.943Y106.299
X87.783Y106.712
X87.601Y107.111
X87.398Y107.494
X87.174Y107.861
X86.929Y108.212
X86.663Y108.548
X86.376Y108.867
X86.067Y109.171
X85.737Y109.459
X85.386Y109.731
X85.014Y109.986
X84.620Y110.225
X84.204Y110.447
X83.768Y110.652
X83.310Y110.841
X82.831Y111.013
X82.330Y111.169
X81.808Y111.307
X81.265Y111.427
X80.700Y111.528
X80.115Y111.611
X79.508Y111.675
X78.880Y111.721
X78.231Y111.749
X77.561Y111.758
X76.703Y111.745
X75.757Y111.705
X74.739Y111.637
X73.664Y111.540
X72.543Y111.412
X71.383Y111.251
X70.201Y111.060
X69.013Y110.839
X68.707Y109.612
X70.122Y109.848
X71.536Y110.060
X71.554Y109.324
X71.560Y108.363
Y98.554
X71.542Y96.685
X71.495Y95.046
X71.461Y94.352
X71.419Y93.767
X70.980Y93.725
X70.595Y93.670
X70.264Y93.601
X69.986Y93.520
X69.752Y93.429
X69.553Y93.334
X69.387Y93.234
X69.255Y93.130
X69.152Y93.025
X69.072Y92.923
X69.016Y92.822
X68.984Y92.724
X68.943Y92.423
X69.344Y92.447
X70.275Y92.517
X71.536Y92.582
X72.928Y92.612
X73.586Y92.604
X74.195Y92.582
X75.321Y92.517
G0Z5.080
G0X93.713Y100.487
G1Z-0.750F1800.0
G1X93.744Y101.024F1200.0
X93.803Y101.516
X93.889Y101.962
X94.002Y102.362
X94.138Y102.721
X94.292Y103.043
X94.465Y103.328
X94.656Y103.576
X94.863Y103.789
X95.085Y103.970
X95.320Y104.117
X95.570Y104.230
X95.829Y104.316
X96.093Y104.376
X96.362Y104.413
X96.637Y104.425
X96.944Y104.411
X97.228Y104.369
X97.489Y104.299
X97.727Y104.201
X97.945Y104.079
X98.143Y103.936
X98.322Y103.772
X98.482Y103.588
X98.622Y103.385
X98.743Y103.163
X98.843Y102.925
X98.924Y102.668
X98.986Y102.399
X99.030Y102.120
X99.056Y101.833
X99.065Y101.536
X99.048Y101.153
X99.020Y100.931
X98.971Y100.699
X93.713Y100.487
G1Z-1.500F1800.0
G1X93.744Y101.024F1200.0
X93.803Y101.516
X93.889Y101.962
X94.002Y102.362
X94.138Y102.721
X94.292Y103.043
X94.465Y103.328
X94.656Y103.576
X94.863Y103.789
X95.085Y103.970
X95.320Y104.117
X95.570Y104.230
X95.829Y104.316
X96.093Y104.376
X96.362Y104.413
X96.637Y104.425
X96.944Y104.411
X97.228Y104.369
X97.489Y104.299
X97.727Y104.201
X97.945Y104.079
X98.143Y103.936
X98.322Y103.772
X98.482Y103.588
X98.622Y103.385
X98.743Y103.163
X98.843Y102.925
X98.924Y102.668
X98.986Y102.399
X99.030Y102.120
X99.056Y101.833
X99.065Y101.536
X99.048Y101.153
X99.020Y100.931
X98.971Y100.699
X93.713Y100.487
G0Z5.080
G0X93.736Y99.426
G1Z-0.750F1800.0
G1X101.706Y99.756F1200.0
X101.823Y100.262
X101.913Y100.764
X101.970Y101.273
X101.989Y101.796
X101.976Y102.203
X101.938Y102.601
X101.873Y102.987
X101.783Y103.364
X101.663Y103.724
X101.510Y104.061
X101.324Y104.375
X101.105Y104.667
X100.850Y104.932
X100.555Y105.169
X100.222Y105.377
X99.849Y105.557
X99.435Y105.701
X98.975Y105.804
X98.471Y105.866
X97.922Y105.887
X97.270Y105.858
X96.622Y105.772
X95.979Y105.628
X95.340Y105.427
X95.026Y105.305
X94.720Y105.167
X94.422Y105.015
X94.133Y104.848
X93.852Y104.666
X93.579Y104.469
X93.315Y104.257
X93.058Y104.030
X92.813Y103.788
X92.579Y103.532
X92.357Y103.260
X92.148Y102.973
X91.950Y102.672
X91.765Y102.356
X91.592Y102.024
X91.432Y101.678
X91.286Y101.317
X91.161Y100.940
X91.054Y100.547
X90.967Y100.139
X90.900Y99.716
X90.851Y99.277
X90.822Y98.823
X90.813Y98.353
X90.820Y97.934
X90.843Y97.532
X90.882Y97.147
X90.936Y96.778
X91.006Y96.426
X91.091Y96.091
X91.192Y95.772
X91.308Y95.471
X91.574Y94.912
X91.722Y94.654
X91.880Y94.410
X92.046Y94.179
X92.223Y93.963
X92.409Y93.761
X92.605Y93.573
X93.019Y93.235
X93.459Y92.949
X93.927Y92.714
X94.420Y92.529
X94.929Y92.390
X95.440Y92.290
X95.954Y92.231
X96.472Y92.211
X96.840Y92.220
X97.208Y92.248
X97.576Y92.294
X97.944Y92.358
X98.311Y92.441
X98.679Y92.542
X99.046Y92.662
X99.413Y92.800
X99.780Y92.957
X100.147Y93.132
X100.513Y93.325
X100.879Y93.537
X101.246Y93.767
X101.612Y94.016
X102.343Y94.569
X101.871Y95.347
X101.342Y95.088
X100.863Y94.875
X100.421Y94.704
X100.003Y94.569
X99.600Y94.469
X99.207Y94.404
X98.812Y94.368
X98.405Y94.357
X97.904Y94.374
X97.425Y94.427
X96.969Y94.516
X96.536Y94.640
X96.130Y94.801
X95.752Y95.004
X95.405Y95.246
X95.086Y95.530
X94.799Y95.855
X94.544Y96.225
X94.321Y96.639
X94.131Y97.098
X93.976Y97.604
X93.859Y98.160
X93.779Y98.768
X93.736Y99.426
G1Z-1.500F1800.0
G1X101.706Y99.756F1200.0
X101.823Y100.262
X101.913Y100.764
X101.970Y101.273
X101.989Y101.796
X101.976Y102.203
X101.938Y102.601
X101.873Y102.987
X101.783Y103.364
X101.663Y103.724
X101.510Y104.061
X101.324Y104.375
X101.105Y104.667
X100.850Y104.932
X100.555Y105.169
X100.222Y105.377
X99.849Y105.557
X99.435Y105.701
X98.975Y105.804
X98.471Y105.866
X97.922Y105.887
X97.270Y105.858
X96.622Y105.772
X95.979Y105.628
X95.340Y105.427
X95.026Y105.305
X94.720Y105.167
X94.422Y105.015
X94.133Y104.848
X93.852Y104.666
X93.579Y104.469
X93.315Y104.257
X93.058Y104.030
X92.813Y103.788
X92.579Y103.532
X92.357Y103.260
X92.148Y102.973
X91.950Y102.672
X91.765Y102.356
X91.592Y102.024
X91.432Y101.678
X91.286Y101.317
X91.161Y100.940
X91.054Y100.547
X90.967Y100.139
X90.900Y99.716
X90.851Y99.277
X90.822Y98.823
X90.813Y98.353
X90.820Y97.934
X90.843Y97.532
X90.882Y97.147
X90.936Y96.778
X91.006Y96.426
X91.091Y96.091
X91.192Y95.772
X91.308Y95.471
X91.574Y94.912
X91.722Y94.654
X91.880Y94.410
X92.046Y94.179
X92.223Y93.963
X92.409Y93.761
X92.605Y93.573
X93.019Y93.235
X93.459Y92.949
X93.927Y92.714
X94.420Y92.529
X94.929Y92.390
X95.440Y92.290
X95.954Y92.231
X96.472Y92.211
X96.840Y92.220
X97.208Y92.248
X97.576Y92.294
X97.944Y92.358
X98.311Y92.441
X98.679Y92.542
X99.046Y92.662
X99.413Y92.800
X99.780Y92.957
X100.147Y93.132
X100.513Y93.325
X100.879Y93.537
X101.246Y93.767
X101.612Y94.016
X102.343Y94.569
X101.871Y95.347
X101.342Y95.088
X100.863Y94.875
X100.421Y94.704
X100.003Y94.569
X99.600Y94.469
X99.207Y94.404
X98.812Y94.368
X98.405Y94.357
X97.904Y94.374
X97.425Y94.427
X96.969Y94.516
X96.536Y94.640
X96.130Y94.801
X95.752Y95.004
X95.405Y95.246
X95.086Y95.530
X94.799Y95.855
X94.544Y96.225
X94.321Y96.639
X94.131Y97.098
X93.976Y97.604
X93.859Y98.160
X93.779Y98.768
X93.736Y99.426
G0Z5.080
G0X110.363Y92.793
G1Z-0.750F1800.0
G1X110.336Y92.700F1200.0
X110.301Y92.447
X110.666Y92.488
X111.456Y92.541
X112.565Y92.588
X113.885Y92.612
X114.976Y92.600
X115.954Y92.570
X116.697Y92.529
X117.092Y92.494
X117.516Y93.484
X116.803Y93.565
X116.266Y93.643
X115.877Y93.729
X115.606Y93.832
X115.510Y93.893
X115.434Y93.963
X115.377Y94.043
X115.341Y94.133
X115.298Y94.354
X115.276Y94.640
X115.241Y95.777
X115.229Y97.304
Y106.005
X115.241Y108.445
X115.270Y110.732
X115.317Y112.725
X115.351Y113.568
X115.394Y114.281
X115.158Y114.446
X114.830Y114.346
X114.386Y114.234
X113.845Y114.116
X113.225Y113.998
X112.535Y113.885
X111.786Y113.780
X110.996Y113.690
X110.183Y113.621
X109.947Y112.654
X111.220Y112.636
X111.623Y112.598
X111.781Y112.564
X111.910Y112.519
X112.014Y112.461
X112.097Y112.390
X112.159Y112.305
X112.199Y112.206
X112.249Y111.947
X112.282Y111.593
X112.305Y110.184
X112.329Y108.174
X112.346Y105.769
X112.352Y103.175
Y101.631
X112.346Y99.910
X112.329Y98.141
X112.305Y96.449
X112.276Y94.946
X112.234Y93.767
X111.895Y93.714
X111.598Y93.649
X111.341Y93.573
X111.126Y93.484
X110.789Y93.291
X110.659Y93.191
X110.554Y93.089
X110.408Y92.889
X110.363Y92.793
G1Z-1.500F1800.0
G1X110.336Y92.700F1200.0
X110.301Y92.447
X110.666Y92.488
X111.456Y92.541
X112.565Y92.588
X113.885Y92.612
X114.976Y92.600
X115.954Y92.570
X116.697Y92.529
X117.092Y92.494
X117.516Y93.484
X116.803Y93.565
X116.266Y93.643
X115.877Y93.729
X115.606Y93.832
X115.510Y93.893
X115.434Y93.963
X115.377Y94.043
X115.341Y94.133
X115.298Y94.354
X115.276Y94.640
X115.241Y95.777
X115.229Y97.304
Y106.005
X115.241Y108.445
X115.270Y110.732
X115.317Y112.725
X115.351Y113.568
X115.394Y114.281
X115.158Y114.446
X114.830Y114.346
X114.386Y114.234
X113.845Y114.116
X113.225Y113.998
X112.535Y113.885
X111.786Y113.780
X110.996Y113.690
X110.183Y113.621
X109.947Y112.654
X111.220Y112.636
X111.623Y112.598
X111.781Y112.564
X111.910Y112.519
X112.014Y112.461
X112.097Y112.390
X112.159Y112.305
X112.199Y112.206
X112.249Y111.947
X112.282Y111.593
X112.305Y110.184
X112.329Y108.174
X112.346Y105.769
X112.352Y103.175
Y101.631
X112.346Y99.910
X112.329Y98.141
X112.305Y96.449
X112.276Y94.946
X112.234Y93.767
X111.895Y93.714
X111.598Y93.649
X111.341Y93.573
X111.126Y93.484
X110.789Y93.291
X110.659Y93.191
X110.554Y93.089
X110.408Y92.889
X110.363Y92.793
G0Z5.080
G0X120.582Y95.359
G1Z-0.750F1800.0
G1X120.691Y94.876F1200.0
X120.832Y94.432
X121.004Y94.025
X121.206Y93.655
X121.441Y93.325
X121.710Y93.036
X122.013Y92.789
X122.350Y92.582
X122.724Y92.420
X123.140Y92.304
X123.597Y92.234
X124.095Y92.211
X124.484Y92.224
X124.863Y92.264
X125.230Y92.330
X125.586Y92.423
X125.932Y92.539
X126.267Y92.675
X126.592Y92.831
X126.907Y93.007
X127.212Y93.200
X127.511Y93.410
X127.802Y93.637
X128.086Y93.879
X128.635Y94.396
X129.164Y94.946
X129.282Y94.922
X129.265Y94.728
X129.259Y94.592
Y94.368
X129.281Y93.916
X129.347Y93.502
X129.398Y93.311
X129.464Y93.133
X129.543Y92.969
X129.636Y92.818
X129.744Y92.682
X129.867Y92.562
X130.006Y92.458
X130.161Y92.370
X130.332Y92.300
X130.522Y92.251
X130.730Y92.221
X130.956Y92.211
X131.350Y92.234
X131.823Y92.305
X132.345Y92.416
X132.884Y92.559
X133.431Y92.733
X133.975Y92.936
X134.487Y93.164
X134.941Y93.413
X134.658Y94.168
X134.217Y94.013
X133.812Y93.903
X133.445Y93.836
X133.114Y93.814
X132.894Y93.829
X132.707Y93.873
X132.548Y93.953
X132.412Y94.074
X132.303Y94.242
X132.224Y94.463
X132.169Y94.743
X132.135Y95.088
X132.112Y95.706
X132.094Y96.573
X132.088Y97.552
Y98.507
X132.094Y100.688
X132.130Y102.527
X132.206Y104.166
X132.324Y105.745
X132.112Y105.887
X131.351Y105.698
X130.225Y105.486
X128.828Y105.280
X128.055Y105.187
X127.254Y105.109
X127.019Y104.142
X128.150Y104.124
X128.513Y104.085
X128.657Y104.048
X128.775Y104.001
X128.872Y103.941
X128.951Y103.868
X129.011Y103.782
X129.052Y103.682
X129.107Y103.426
X129.141Y103.081
X129.164Y102.468
X129.188Y101.613
X129.206Y100.458
X129.212Y98.943
Y98.507
X129.206Y97.799
X129.188Y96.950
X129.164Y96.125
X128.831Y95.769
X128.469Y95.446
X128.077Y95.153
X127.655Y94.893
X127.435Y94.778
X127.210Y94.679
X126.979Y94.595
X126.745Y94.526
X126.505Y94.473
X126.260Y94.434
X126.011Y94.411
X125.757Y94.404
X125.356Y94.425
X125.000Y94.491
X124.689Y94.599
X124.551Y94.670
X124.425Y94.752
X124.199Y94.939
X124.003Y95.155
X123.839Y95.399
X123.706Y95.671
X123.599Y95.967
X123.516Y96.284
X123.455Y96.622
X123.417Y96.980
X123.377Y97.727
X123.364Y98.495
X123.387Y100.304
X123.458Y102.209
X123.564Y104.065
X123.694Y105.745
X123.505Y105.887
X123.178Y105.798
X122.739Y105.698
X121.590Y105.486
X120.163Y105.280
X119.380Y105.187
X118.577Y105.109
X118.341Y104.142
X119.039Y104.133
X119.573Y104.107
X119.786Y104.083
X119.971Y104.046
X120.128Y103.997
X120.257Y103.936
X120.362Y103.861
X120.444Y103.771
X120.506Y103.666
X120.546Y103.547
X120.590Y103.247
X120.605Y102.857
X120.570Y101.760
X120.499Y100.381
X120.428Y98.943
X120.402Y98.253
X120.393Y97.622
X120.405Y97.008
X120.440Y96.426
X120.499Y95.876
X120.582Y95.359
G1Z-1.500F1800.0
G1X120.691Y94.876F1200.0
X120.832Y94.432
X121.004Y94.025
X121.206Y93.655
X121.441Y93.325
X121.710Y93.036
X122.013Y92.789
X122.350Y92.582
X122.724Y92.420
X123.140Y92.304
X123.597Y92.234
X124.095Y92.211
X124.484Y92.224
X124.863Y92.264
X125.230Y92.330
X125.586Y92.423
X125.932Y92.539
X126.267Y92.675
X126.592Y92.831
X126.907Y93.007
X127.212Y93.200
X127.511Y93.410
X127.802Y93.637
X128.086Y93.879
X128.635Y94.396
X129.164Y94.946
X129.282Y94.922
X129.265Y94.728
X129.259Y94.592
Y94.368
X129.281Y93.916
X129.347Y93.502
X129.398Y93.311
X129.464Y93.133
X129.543Y92.969
X129.636Y92.818
X129.744Y92.682
X129.867Y92.562
X130.006Y92.458
X130.161Y92.370
X130.332Y92.300
X130.522Y92.251
X130.730Y92.221
X130.956Y92.211
X131.350Y92.234
X131.823Y92.305
X132.345Y92.416
X132.884Y92.559
X133.431Y92.733
X133.975Y92.936
X134.487Y93.164
X134.941Y93.413
X134.658Y94.168
X134.217Y94.013
X133.812Y93.903
X133.445Y93.836
X133.114Y93.814
X132.894Y93.829
X132.707Y93.873
X132.548Y93.953
X132.412Y94.074
X132.303Y94.242
X132.224Y94.463
X132.169Y94.743
X132.135Y95.088
X132.112Y95.706
X132.094Y96.573
X132.088Y97.552
Y98.507
X132.094Y100.688
X132.130Y102.527
X132.206Y104.166
X132.324Y105.745
X132.112Y105.887
X131.351Y105.698
X130.225Y105.486
X128.828Y105.280
X128.055Y105.187
X127.254Y105.109
X127.019Y104.142
X128.150Y104.124
X128.513Y104.085
X128.657Y104.048
X128.775Y104.001
X128.872Y103.941
X128.951Y103.868
X129.011Y103.782
X129.052Y103.682
X129.107Y103.426
X129.141Y103.081
X129.164Y102.468
X129.188Y101.613
X129.206Y100.458
X129.212Y98.943
Y98.507
X129.206Y97.799
X129.188Y96.950
X129.164Y96.125
X128.831Y95.769
X128.469Y95.446
X128.077Y95.153
X127.655Y94.893
X127.435Y94.778
X127.210Y94.679
X126.979Y94.595
X126.745Y94.526
X126.505Y94.473
X126.260Y94.434
X126.011Y94.411
X125.757Y94.404
X125.356Y94.425
X125.000Y94.491
X124.689Y94.599
X124.551Y94.670
X124.425Y94.752
X124.199Y94.939
X124.003Y95.155
X123.839Y95.399
X123.706Y95.671
X123.599Y95.967
X123.516Y96.284
X123.455Y96.622
X123.417Y96.980
X123.377Y97.727
X123.364Y98.495
X123.387Y100.304
X123.458Y102.209
X123.564Y104.065
X123.694Y105.745
X123.505Y105.887
X123.178Y105.798
X122.739Y105.698
X121.590Y105.486
X120.163Y105.280
X119.380Y105.187
X118.577Y105.109
X118.341Y104.142
X119.039Y104.133
X119.573Y104.107
X119.786Y104.083
X119.971Y104.046
X120.128Y103.997
X120.257Y103.936
X120.362Y103.861
X120.444Y103.771
X120.506Y103.666
X120.546Y103.547
X120.590Y103.247
X120.605Y102.857
X120.570Y101.760
X120.499Y100.381
X120.428Y98.943
X120.402Y98.253
X120.393Y97.622
X120.405Y97.008
X120.440Y96.426
X120.499Y95.876
X120.582Y95.359
G0Z5.080
G0X135.737Y92.712
G1Z-0.750F1800.0
G1X135.708Y92.447F1200.0
X136.044Y92.488
X136.781Y92.541
X137.848Y92.588
X139.162Y92.612
X140.282Y92.600
X141.284Y92.570
X142.045Y92.529
X142.451Y92.494
X142.876Y93.484
X142.173Y93.564
X141.644Y93.637
X141.259Y93.718
X140.989Y93.820
X140.893Y93.881
X140.817Y93.950
X140.761Y94.028
X140.724Y94.115
X140.681Y94.326
X140.659Y94.592
X140.624Y95.276
X140.600Y96.137
X140.589Y97.316
Y99.544
X140.600Y100.334
X140.612Y101.218
X140.636Y102.091
X140.979Y102.399
X141.349Y102.686
X141.744Y102.947
X142.163Y103.175
X142.603Y103.364
X143.064Y103.505
X143.302Y103.557
X143.542Y103.594
X144.031Y103.623
X144.454Y103.600
X144.827Y103.529
X144.995Y103.476
X145.150Y103.411
X145.292Y103.334
X145.422Y103.246
X145.654Y103.043
X145.854Y102.813
X146.023Y102.554
X146.159Y102.267
X146.268Y101.956
X146.354Y101.625
X146.416Y101.273
X146.454Y100.900
X146.494Y100.131
X146.507Y99.355
X146.483Y97.740
X146.413Y96.160
X146.283Y94.480
X146.083Y92.565
X146.849Y92.600
X147.769Y92.612
X148.965Y92.600
X149.997Y92.570
X150.769Y92.529
X151.176Y92.494
X151.600Y93.484
X150.880Y93.568
X150.321Y93.655
X149.901Y93.757
X149.734Y93.818
X149.596Y93.885
X149.483Y93.961
X149.391Y94.047
X149.321Y94.144
X149.272Y94.250
X149.214Y94.507
X149.195Y94.828
X149.219Y95.459
X149.272Y96.337
X149.337Y97.375
X149.401Y98.477
X149.454Y99.544
X149.478Y100.487
X149.467Y101.054
X149.432Y101.600
X149.375Y102.124
X149.295Y102.627
X149.188Y103.103
X149.049Y103.547
X148.879Y103.958
X148.676Y104.337
X148.441Y104.680
X148.169Y104.984
X147.863Y105.248
X147.521Y105.474
X147.336Y105.571
X147.140Y105.655
X146.933Y105.726
X146.716Y105.784
X146.250Y105.861
X145.741Y105.887
X145.357Y105.874
X144.985Y105.834
X144.623Y105.768
X144.273Y105.675
X143.932Y105.559
X143.598Y105.424
X143.271Y105.270
X142.952Y105.097
X142.335Y104.705
X141.744Y104.260
X141.172Y103.777
X140.612Y103.270
X140.541Y103.293
X140.549Y104.055
X140.571Y104.714
X140.636Y105.769
X140.424Y105.887
X139.681Y105.657
X138.596Y105.380
X137.952Y105.241
X137.246Y105.109
X136.493Y104.991
X135.708Y104.897
X135.472Y103.930
X136.633Y103.912
X137.000Y103.874
X137.145Y103.839
X137.264Y103.794
X137.360Y103.737
X137.438Y103.667
X137.496Y103.584
X137.535Y103.488
X137.585Y103.236
X137.618Y102.892
X137.647Y102.291
X137.677Y101.259
X137.700Y99.691
X137.712Y97.493
Y96.856
X137.700Y95.883
X137.665Y94.787
X137.635Y94.252
X137.594Y93.767
X137.261Y93.714
X136.968Y93.649
X136.715Y93.573
X136.503Y93.484
X136.172Y93.293
X136.045Y93.195
X135.943Y93.095
X135.803Y92.899
X135.761Y92.804
X135.737Y92.712
G1Z-1.500F1800.0
G1X135.708Y92.447F1200.0
X136.044Y92.488
X136.781Y92.541
X137.848Y92.588
X139.162Y92.612
X140.282Y92.600
X141.284Y92.570
X142.045Y92.529
X142.451Y92.494
X142.876Y93.484
X142.173Y93.564
X141.644Y93.637
X141.259Y93.718
X140.989Y93.820
X140.893Y93.881
X140.817Y93.950
X140.761Y94.028
X140.724Y94.115
X140.681Y94.326
X140.659Y94.592
X140.624Y95.276
X140.600Y96.137
X140.589Y97.316
Y99.544
X140.600Y100.334
X140.612Y101.218
X140.636Y102.091
X140.979Y102.399
X141.349Y102.686
X141.744Y102.947
X142.163Y103.175
X142.603Y103.364
X143.064Y103.505
X143.302Y103.557
X143.542Y103.594
X144.031Y103.623
X144.454Y103.600
X144.827Y103.529
X144.995Y103.476
X145.150Y103.411
X145.292Y103.334
X145.422Y103.246
X145.654Y103.043
X145.854Y102.813
X146.023Y102.554
X146.159Y102.267
X146.268Y101.956
X146.354Y101.625
X146.416Y101.273
X146.454Y100.900
X146.494Y100.131
X146.507Y99.355
X146.483Y97.740
X146.413Y96.160
X146.283Y94.480
X146.083Y92.565
X146.849Y92.600
X147.769Y92.612
X148.965Y92.600
X149.997Y92.570
X150.769Y92.529
X151.176Y92.494
X151.600Y93.484
X150.880Y93.568
X150.321Y93.655
X149.901Y93.757
X149.734Y93.818
X149.596Y93.885
X149.483Y93.961
X149.391Y94.047
X149.321Y94.144
X149.272Y94.250
X149.214Y94.507
X149.195Y94.828
X149.219Y95.459
X149.272Y96.337
X149.337Y97.375
X149.401Y98.477
X149.454Y99.544
X149.478Y100.487
X149.467Y101.054
X149.432Y101.600
X149.375Y102.124
X149.295Y102.627
X149.188Y103.103
X149.049Y103.547
X148.879Y103.958
X148.676Y104.337
X148.441Y104.680
X148.169Y104.984
X147.863Y105.248
X147.521Y105.474
X147.336Y105.571
X147.140Y105.655
X146.933Y105.726
X146.716Y105.784
X146.250Y105.861
X145.741Y105.887
X145.357Y105.874
X144.985Y105.834
X144.623Y105.768
X144.273Y105.675
X143.932Y105.559
X143.598Y105.424
X143.271Y105.270
X142.952Y105.097
X142.335Y104.705
X141.744Y104.260
X141.172Y103.777
X140.612Y103.270
X140.541Y103.293
X140.549Y104.055
X140.571Y104.714
X140.636Y105.769
X140.424Y105.887
X139.681Y105.657
X138.596Y105.380
X137.952Y105.241
X137.246Y105.109
X136.493Y104.991
X135.708Y104.897
X135.472Y103.930
X136.633Y103.912
X137.000Y103.874
X137.145Y103.839
X137.264Y103.794
X137.360Y103.737
X137.438Y103.667
X137.496Y103.584
X137.535Y103.488
X137.585Y103.236
X137.618Y102.892
X137.647Y102.291
X137.677Y101.259
X137.700Y99.691
X137.712Y97.493
Y96.856
X137.700Y95.883
X137.665Y94.787
X137.635Y94.252
X137.594Y93.767
X137.261Y93.714
X136.968Y93.649
X136.715Y93.573
X136.503Y93.484
X136.172Y93.293
X136.045Y93.195
X135.943Y93.095
X135.803Y92.899
X135.761Y92.804
X135.737Y92.712
G0Z5.080
G0X155.927Y100.487
G1Z-0.750F1800.0
G1X155.958Y101.024F1200.0
X156.017Y101.516
X156.103Y101.962
X156.216Y102.362
X156.352Y102.721
X156.506Y103.043
X156.679Y103.328
X156.870Y103.576
X157.078Y103.789
X157.299Y103.970
X157.534Y104.117
X157.784Y104.230
X158.043Y104.316
X158.307Y104.376
X158.576Y104.413
X158.851Y104.425
X159.158Y104.411
X159.442Y104.369
X159.703Y104.299
X159.941Y104.201
X160.159Y104.079
X160.357Y103.936
X160.536Y103.772
X160.696Y103.588
X160.836Y103.385
X160.957Y103.163
X161.057Y102.925
X161.138Y102.668
X161.200Y102.399
X161.244Y102.120
X161.271Y101.833
X161.279Y101.536
X161.262Y101.153
X161.234Y100.931
X161.185Y100.699
X155.927Y100.487
G1Z-1.500F1800.0
G1X155.958Y101.024F1200.0
X156.017Y101.516
X156.103Y101.962
X156.216Y102.362
X156.352Y102.721
X156.506Y103.043
X156.679Y103.328
X156.870Y103.576
X157.078Y103.789
X157.299Y103.970
X157.534Y104.117
X157.784Y104.230
X158.043Y104.316
X158.307Y104.376
X158.576Y104.413
X158.851Y104.425
X159.158Y104.411
X159.442Y104.369
X159.703Y104.299
X159.941Y104.201
X160.159Y104.079
X160.357Y103.936
X160.536Y103.772
X160.696Y103.588
X160.836Y103.385
X160.957Y103.163
X161.057Y102.925
X161.138Y102.668
X161.200Y102.399
X161.244Y102.120
X161.271Y101.833
X161.279Y101.536
X161.262Y101.153
X161.234Y100.931
X161.185Y100.699
X155.927Y100.487
G0Z5.080
G0X155.951Y99.426
G1Z-0.750F1800.0
G1X163.920Y99.756F1200.0
X164.037Y100.262
X164.127Y100.764
X164.184Y101.273
X164.203Y101.796
X164.190Y102.203
X164.152Y102.601
X164.087Y102.987
X163.997Y103.364
X163.877Y103.724
X163.724Y104.061
X163.538Y104.375
X163.319Y104.667
X163.064Y104.932
X162.769Y105.169
X162.436Y105.377
X162.064Y105.557
X161.649Y105.701
X161.190Y105.804
X160.685Y105.866
X160.136Y105.887
X159.484Y105.858
X158.836Y105.772
X158.193Y105.628
X157.554Y105.427
X157.240Y105.305
X156.934Y105.167
X156.636Y105.015
X156.347Y104.848
X156.066Y104.666
X155.793Y104.469
X155.529Y104.257
X155.273Y104.030
X155.027Y103.788
X154.793Y103.532
X154.571Y103.260
X154.362Y102.973
X154.165Y102.672
X153.979Y102.356
X153.807Y102.024
X153.646Y101.678
X153.501Y101.317
X153.375Y100.940
X153.268Y100.547
X153.181Y100.139
X153.114Y99.716
X153.065Y99.277
X153.036Y98.823
X153.027Y98.353
X153.034Y97.934
X153.058Y97.532
X153.096Y97.147
X153.151Y96.778
X153.220Y96.426
X153.305Y96.091
X153.406Y95.772
X153.522Y95.471
X153.789Y94.912
X153.936Y94.654
X154.094Y94.410
X154.261Y94.179
X154.437Y93.963
X154.623Y93.761
X154.819Y93.573
X155.233Y93.235
X155.674Y92.949
X156.141Y92.714
X156.634Y92.529
X157.143Y92.390
X157.654Y92.290
X158.168Y92.231
X158.686Y92.211
X159.054Y92.220
X159.422Y92.248
X159.790Y92.294
X160.158Y92.358
X160.526Y92.441
X160.893Y92.542
X161.260Y92.662
X161.627Y92.800
X161.994Y92.957
X162.361Y93.132
X162.727Y93.325
X163.094Y93.537
X163.460Y93.767
X163.826Y94.016
X164.557Y94.569
X164.085Y95.347
X163.556Y95.088
X163.077Y94.875
X162.635Y94.704
X162.217Y94.569
X161.814Y94.469
X161.421Y94.404
X161.026Y94.368
X160.619Y94.357
X160.118Y94.374
X159.639Y94.427
X159.184Y94.516
X158.751Y94.640
X158.344Y94.801
X157.967Y95.004
X157.619Y95.246
X157.300Y95.530
X157.013Y95.855
X156.758Y96.225
X156.536Y96.639
X156.346Y97.098
X156.190Y97.604
X156.073Y98.160
X155.993Y98.768
X155.951Y99.426
G1Z-1.500F1800.0
G1X163.920Y99.756F1200.0
X164.037Y100.262
X164.127Y100.764
X164.184Y101.273
X164.203Y101.796
X164.190Y102.203
X164.152Y102.601
X164.087Y102.987
X163.997Y103.364
X163.877Y103.724
X163.724Y104.061
X163.538Y104.375
X163.319Y104.667
X163.064Y104.932
X162.769Y105.169
X162.436Y105.377
X162.064Y105.557
X161.649Y105.701
X161.190Y105.804
X160.685Y105.866
X160.136Y105.887
X159.484Y105.858
X158.836Y105.772
X158.193Y105.628
X157.554Y105.427
X157.240Y105.305
X156.934Y105.167
X156.636Y105.015
X156.347Y104.848
X156.066Y104.666
X155.793Y104.469
X155.529Y104.257
X155.273Y104.030
X155.027Y103.788
X154.793Y103.532
X154.571Y103.260
X154.362Y102.973
X154.165Y102.672
X153.979Y102.356
X153.807Y102.024
X153.646Y101.678
X153.501Y101.317
X153.375Y100.940
X153.268Y100.547
X153.181Y100.139
X153.114Y99.716
X153.065Y99.277
X153.036Y98.823
X153.027Y98.353
X153.034Y97.934
X153.058Y97.532
X153.096Y97.147
X153.151Y96.778
X153.220Y96.426
X153.305Y96.091
X153.406Y95.772
X153.522Y95.471
X153.789Y94.912
X153.936Y94.654
X154.094Y94.410
X154.261Y94.179
X154.437Y93.963
X154.623Y93.761
X154.819Y93.573
X155.233Y93.235
X155.674Y92.949
X156.141Y92.714
X156.634Y92.529
X157.143Y92.390
X157.654Y92.290
X158.168Y92.231
X158.686Y92.211
X159.054Y92.220
X159.422Y92.248
X159.790Y92.294
X160.158Y92.358
X160.526Y92.441
X160.893Y92.542
X161.260Y92.662
X161.627Y92.800
X161.994Y92.957
X162.361Y93.132
X162.727Y93.325
X163.094Y93.537
X163.460Y93.767
X163.826Y94.016
X164.557Y94.569
X164.085Y95.347
X163.556Y95.088
X163.077Y94.875
X162.635Y94.704
X162.217Y94.569
X161.814Y94.469
X161.421Y94.404
X161.026Y94.368
X160.619Y94.357
X160.118Y94.374
X159.639Y94.427
X159.184Y94.516
X158.751Y94.640
X158.344Y94.801
X157.967Y95.004
X157.619Y95.246
X157.300Y95.530
X157.013Y95.855
X156.758Y96.225
X156.536Y96.639
X156.346Y97.098
X156.190Y97.604
X156.073Y98.160
X155.993Y98.768
X155.951Y99.426
G0Z5.080
G0X166.630Y101.282
G1Z-0.750F1800.0
G1X166.695Y100.895F1200.0
X166.804Y100.542
X166.956Y100.222
X167.144Y99.929
X167.359Y99.656
X167.601Y99.404
X167.870Y99.173
X168.162Y98.959
X168.471Y98.759
X168.798Y98.572
X169.143Y98.400
X169.854Y98.079
X170.570Y97.776
X171.713Y97.251
X172.222Y96.986
X172.662Y96.697
X172.855Y96.542
X173.026Y96.379
X173.176Y96.206
X173.305Y96.025
X173.408Y95.831
X173.482Y95.620
X173.526Y95.391
X173.541Y95.146
X173.531Y94.946
X173.502Y94.759
X173.455Y94.584
X173.387Y94.421
X173.303Y94.271
X173.202Y94.134
X173.085Y94.009
X172.951Y93.897
X172.803Y93.797
X172.640Y93.710
X172.464Y93.635
X172.273Y93.573
X172.071Y93.524
X171.859Y93.489
X171.407Y93.461
X171.112Y93.472
X170.817Y93.506
X170.523Y93.563
X170.228Y93.643
X169.939Y93.749
X169.662Y93.882
X169.397Y94.043
X169.143Y94.233
X168.905Y94.451
X168.686Y94.698
X168.487Y94.976
X168.306Y95.282
X168.151Y95.621
X168.029Y95.997
X167.939Y96.408
X167.882Y96.856
X166.986Y96.809
X166.915Y95.547
X166.880Y94.687
X166.850Y94.168
X166.844Y93.932
X166.865Y93.705
X166.927Y93.496
X167.030Y93.304
X167.174Y93.130
X167.352Y92.973
X167.556Y92.833
X167.786Y92.708
X168.041Y92.600
X168.318Y92.506
X168.611Y92.426
X168.922Y92.359
X169.249Y92.305
X169.921Y92.234
X170.593Y92.211
X171.210Y92.229
X171.799Y92.285
X172.360Y92.377
X172.892Y92.506
X173.392Y92.668
X173.855Y92.861
X174.279Y93.084
X174.667Y93.337
X175.014Y93.618
X175.320Y93.925
X175.583Y94.257
X175.804Y94.616
X175.980Y94.998
X176.105Y95.400
X176.180Y95.823
X176.205Y96.267
X176.184Y96.676
X176.118Y97.056
X176.010Y97.407
X175.857Y97.728
X175.671Y98.025
X175.458Y98.302
X175.220Y98.558
X174.956Y98.795
X174.670Y99.015
X174.366Y99.220
X174.045Y99.410
X173.706Y99.585
X172.315Y100.228
X171.616Y100.518
X170.982Y100.800
X170.425Y101.084
X169.957Y101.383
X169.756Y101.541
X169.579Y101.707
X169.426Y101.883
X169.296Y102.067
X169.193Y102.263
X169.120Y102.474
X169.075Y102.699
X169.061Y102.939
X169.069Y103.126
X169.094Y103.302
X169.136Y103.469
X169.195Y103.625
X169.270Y103.771
X169.362Y103.907
X169.471Y104.032
X169.597Y104.148
X169.737Y104.252
X169.890Y104.341
X170.055Y104.417
X170.232Y104.479
X170.422Y104.528
X170.624Y104.562
X171.065Y104.590
X171.323Y104.580
X171.568Y104.551
X171.799Y104.503
X172.017Y104.435
X172.221Y104.348
X172.411Y104.242
X172.588Y104.116
X172.751Y103.971
X172.902Y103.808
X173.043Y103.629
X173.175Y103.433
X173.296Y103.221
X173.408Y102.992
X173.509Y102.748
X173.682Y102.209
X173.953Y102.173
X174.225Y102.161
X174.538Y102.179
X174.844Y102.232
X175.128Y102.323
X175.380Y102.456
X175.492Y102.538
X175.592Y102.631
X175.681Y102.736
X175.757Y102.851
X175.819Y102.978
X175.863Y103.118
X175.890Y103.270
X175.899Y103.435
X175.881Y103.669
X175.828Y103.899
X175.740Y104.125
X175.616Y104.348
X175.459Y104.563
X175.272Y104.765
X175.055Y104.955
X174.808Y105.132
X174.533Y105.295
X174.230Y105.440
X173.902Y105.569
X173.547Y105.681
X173.168Y105.771
X172.770Y105.835
X172.352Y105.874
X171.914Y105.887
X171.384Y105.868
X170.869Y105.813
X170.368Y105.721
X169.880Y105.592
X169.414Y105.429
X168.978Y105.234
X168.571Y105.007
X168.194Y104.749
X167.850Y104.461
X167.543Y104.145
X167.272Y103.801
X167.039Y103.429
X166.850Y103.031
X166.716Y102.611
X166.635Y102.168
X166.608Y101.702
X166.630Y101.282
G1Z-1.500F1800.0
G1X166.695Y100.895F1200.0
X166.804Y100.542
X166.956Y100.222
X167.144Y99.929
X167.359Y99.656
X167.601Y99.404
X167.870Y99.173
X168.162Y98.959
X168.471Y98.759
X168.798Y98.572
X169.143Y98.400
X169.854Y98.079
X170.570Y97.776
X171.713Y97.251
X172.222Y96.986
X172.662Y96.697
X172.855Y96.542
X173.026Y96.379
X173.176Y96.206
X173.305Y96.025
X173.408Y95.831
X173.482Y95.620
X173.526Y95.391
X173.541Y95.146
X173.531Y94.946
X173.502Y94.759
X173.455Y94.584
X173.387Y94.421
X173.303Y94.271
X173.202Y94.134
X173.085Y94.009
X172.951Y93.897
X172.803Y93.797
X172.640Y93.710
X172.464Y93.635
X172.273Y93.573
X172.071Y93.524
X171.859Y93.489
X171.407Y93.461
X171.112Y93.472
X170.817Y93.506
X170.523Y93.563
X170.228Y93.643
X169.939Y93.749
X169.662Y93.882
X169.397Y94.043
X169.143Y94.233
X168.905Y94.451
X168.686Y94.698
X168.487Y94.976
X168.306Y95.282
X168.151Y95.621
X168.029Y95.997
X167.939Y96.408
X167.882Y96.856
X166.986Y96.809
X166.915Y95.547
X166.880Y94.687
X166.850Y94.168
X166.844Y93.932
X166.865Y93.705
X166.927Y93.496
X167.030Y93.304
X167.174Y93.130
X167.352Y92.973
X167.556Y92.833
X167.786Y92.708
X168.041Y92.600
X168.318Y92.506
X168.611Y92.426
X168.922Y92.359
X169.249Y92.305
X169.921Y92.234
X170.593Y92.211
X171.210Y92.229
X171.799Y92.285
X172.360Y92.377
X172.892Y92.506
X173.392Y92.668
X173.855Y92.861
X174.279Y93.084
X174.667Y93.337
X175.014Y93.618
X175.320Y93.925
X175.583Y94.257
X175.804Y94.616
X175.980Y94.998
X176.105Y95.400
X176.180Y95.823
X176.205Y96.267
X176.184Y96.676
X176.118Y97.056
X176.010Y97.407
X175.857Y97.728
X175.671Y98.025
X175.458Y98.302
X175.220Y98.558
X174.956Y98.795
X174.670Y99.015
X174.366Y99.220
X174.045Y99.410
X173.706Y99.585
X172.315Y100.228
X171.616Y100.518
X170.982Y100.800
X170.425Y101.084
X169.957Y101.383
X169.756Y101.541
X169.579Y101.707
X169.426Y101.883
X169.296Y102.067
X169.193Y102.263
X169.120Y102.474
X169.075Y102.699
X169.061Y102.939
X169.069Y103.126
X169.094Y103.302
X169.136Y103.469
X169.195Y103.625
X169.270Y103.771
X169.362Y103.907
X169.471Y104.032
X169.597Y104.148
X169.737Y104.252
X169.890Y104.341
X170.055Y104.417
X170.232Y104.479
X170.422Y104.528
X170.624Y104.562
X171.065Y104.590
X171.323Y104.580
X171.568Y104.551
X171.799Y104.503
X172.017Y104.435
X172.221Y104.348
X172.411Y104.242
X172.588Y104.116
X172.751Y103.971
X172.902Y103.808
X173.043Y103.629
X173.175Y103.433
X173.296Y103.221
X173.408Y102.992
X173.509Y102.748
X173.682Y102.209
X173.953Y102.173
X174.225Y102.161
X174.538Y102.179
X174.844Y102.232
X175.128Y102.323
X175.380Y102.456
X175.492Y102.538
X175.592Y102.631
X175.681Y102.736
X175.757Y102.851
X175.819Y102.978
X175.863Y103.118
X175.890Y103.270
X175.899Y103.435
X175.881Y103.669
X175.828Y103.899
X175.740Y104.125
X175.616Y104.348
X175.459Y104.563
X175.272Y104.765
X175.055Y104.955
X174.808Y105.132
X174.533Y105.295
X174.230Y105.440
X173.902Y105.569
X173.547Y105.681
X173.168Y105.771
X172.770Y105.835
X172.352Y105.874
X171.914Y105.887
X171.384Y105.868
X170.869Y105.813
X170.368Y105.721
X169.880Y105.592
X169.414Y105.429
X168.978Y105.234
X168.571Y105.007
X168.194Y104.749
X167.850Y104.461
X167.543Y104.145
X167.272Y103.801
X167.039Y103.429
X166.850Y103.031
X166.716Y102.611
X166.635Y102.168
X166.608Y101.702
X166.630Y101.282
G0Z5.080
G0X187.824Y96.479
G1Z-0.750F1800.0
G1X187.890Y96.717F1200.0
X187.983Y96.950
X188.110Y97.177
X188.279Y97.397
X188.490Y97.610
X188.744Y97.817
X189.041Y98.017
X189.386Y98.210
X189.778Y98.397
X190.217Y98.577
X190.712Y98.751
X191.271Y98.919
X191.894Y99.081
X192.581Y99.238
X192.516Y97.198
X192.440Y95.653
X192.322Y95.515
X192.086Y95.312
X191.759Y95.073
X191.367Y94.828
X190.922Y94.597
X190.435Y94.398
X190.184Y94.318
X189.937Y94.261
X189.695Y94.227
X189.457Y94.215
X189.150Y94.239
X188.844Y94.309
X188.695Y94.364
X188.555Y94.433
X188.424Y94.517
X188.301Y94.616
X188.189Y94.730
X188.088Y94.859
X187.997Y95.004
X187.918Y95.164
X187.854Y95.341
X187.808Y95.537
X187.780Y95.751
X187.771Y95.984
X187.784Y96.234
X187.824Y96.479
G1Z-1.500F1800.0
G1X187.890Y96.717F1200.0
X187.983Y96.950
X188.110Y97.177
X188.279Y97.397
X188.490Y97.610
X188.744Y97.817
X189.041Y98.017
X189.386Y98.210
X189.778Y98.397
X190.217Y98.577
X190.712Y98.751
X191.271Y98.919
X191.894Y99.081
X192.581Y99.238
X192.516Y97.198
X192.440Y95.653
X192.322Y95.515
X192.086Y95.312
X191.759Y95.073
X191.367Y94.828
X190.922Y94.597
X190.435Y94.398
X190.184Y94.318
X189.937Y94.261
X189.695Y94.227
X189.457Y94.215
X189.150Y94.239
X188.844Y94.309
X188.695Y94.364
X188.555Y94.433
X188.424Y94.517
X188.301Y94.616
X188.189Y94.730
X188.088Y94.859
X187.997Y95.004
X187.918Y95.164
X187.854Y95.341
X187.808Y95.537
X187.780Y95.751
X187.771Y95.984
X187.784Y96.234
X187.824Y96.479
G0Z5.080
G0X186.663Y98.044
G1Z-0.750F1800.0
G1X186.336Y97.810F1200.0
X186.032Y97.563
X185.756Y97.303
X185.510Y97.027
X185.296Y96.737
X185.112Y96.432
X184.965Y96.110
X184.860Y95.771
X184.797Y95.415
X184.776Y95.040
X184.790Y94.745
X184.831Y94.460
X184.899Y94.185
X184.994Y93.920
X185.114Y93.670
X185.255Y93.437
X185.418Y93.222
X185.602Y93.024
X185.806Y92.846
X186.030Y92.687
X186.275Y92.548
X186.539Y92.429
X186.820Y92.334
X187.115Y92.265
X187.424Y92.224
X187.747Y92.211
X188.027Y92.220
X188.308Y92.249
X188.588Y92.297
X188.869Y92.364
X189.150Y92.450
X189.431Y92.556
X189.712Y92.680
X189.993Y92.824
X190.562Y93.161
X191.144Y93.561
X191.739Y94.022
X192.345Y94.545
X192.416
Y93.838
X192.438Y93.536
X192.504Y93.242
X192.555Y93.102
X192.619Y92.968
X192.697Y92.842
X192.787Y92.724
X192.892Y92.614
X193.010Y92.516
X193.142Y92.429
X193.288Y92.352
X193.451Y92.290
X193.630Y92.246
X193.828Y92.220
X194.043Y92.211
X194.435Y92.234
X194.904Y92.305
X195.422Y92.416
X195.965Y92.559
X196.516Y92.733
X197.061Y92.936
X197.574Y93.164
X198.028Y93.413
X197.745Y94.168
X197.309Y94.013
X196.908Y93.903
X196.542Y93.836
X196.212Y93.814
X195.991Y93.829
X195.800Y93.873
X195.638Y93.953
X195.505Y94.074
X195.402Y94.242
X195.328Y94.463
X195.284Y94.746
X195.269Y95.099
X195.287Y95.765
X195.328Y96.773
X195.387Y97.964
X195.446Y99.179
X195.487Y100.257
X195.505Y101.041
X195.494Y101.456
X195.461Y101.875
X195.405Y102.299
X195.328Y102.727
X195.223Y103.148
X195.086Y103.548
X194.917Y103.929
X194.715Y104.289
X194.478Y104.624
X194.204Y104.927
X193.892Y105.199
X193.542Y105.439
X193.352Y105.544
X193.150Y105.635
X192.937Y105.712
X192.712Y105.775
X192.476Y105.824
X192.228Y105.859
X191.697Y105.887
X191.341Y105.875
X190.981Y105.841
X190.616Y105.784
X190.247Y105.704
X189.878Y105.605
X189.514Y105.489
X189.156Y105.357
X188.803Y105.209
X188.456Y105.047
X188.119Y104.871
X187.790Y104.684
X187.470Y104.484
X187.165Y104.275
X186.879Y104.059
X186.614Y103.838
X186.368Y103.611
X186.144Y103.381
X185.945Y103.149
X185.770Y102.915
X185.619Y102.680
X185.498Y102.447
X185.412Y102.217
X185.360Y101.993
X185.342Y101.772
X185.370Y101.504
X185.405Y101.381
X185.454Y101.265
X185.585Y101.058
X185.755Y100.882
X185.958Y100.742
X186.191Y100.640
X186.448Y100.579
X186.722Y100.558
X186.994Y100.577
X187.270Y100.635
X187.541Y100.724
X187.800Y100.841
X188.042Y100.982
X188.260Y101.147
X188.447Y101.330
X188.596Y101.525
X188.426Y101.688
X188.282Y101.847
X188.164Y102.003
X188.072Y102.155
X188.002Y102.308
X187.952Y102.463
X187.922Y102.623
X187.912Y102.786
X187.920Y102.932
X187.942Y103.070
X187.980Y103.199
X188.032Y103.320
X188.099Y103.432
X188.181Y103.536
X188.278Y103.631
X188.390Y103.718
X188.516Y103.795
X188.656Y103.862
X188.975Y103.965
X189.348Y104.027
X189.775Y104.048
X190.076Y104.037
X190.365Y104.003
X190.642Y103.948
X190.907Y103.871
X191.158Y103.768
X191.392Y103.637
X191.609Y103.476
X191.809Y103.287
X191.990Y103.068
X192.151Y102.816
X192.291Y102.531
X192.410Y102.214
X192.506Y101.861
X192.574Y101.467
X192.615Y101.033
X192.628Y100.558
Y100.204
X191.743Y99.992
X190.830Y99.756
X189.918Y99.491
X189.032Y99.190
X188.185Y98.851
X187.388Y98.471
X187.013Y98.264
X186.663Y98.044
G1Z-1.500F1800.0
G1X186.336Y97.810F1200.0
X186.032Y97.563
X185.756Y97.303
X185.510Y97.027
X185.296Y96.737
X185.112Y96.432
X184.965Y96.110
X184.860Y95.771
X184.797Y95.415
X184.776Y95.040
X184.790Y94.745
X184.831Y94.460
X184.899Y94.185
X184.994Y93.920
X185.114Y93.670
X185.255Y93.437
X185.418Y93.222
X185.602Y93.024
X185.806Y92.846
X186.030Y92.687
X186.275Y92.548
X186.539Y92.429
X186.820Y92.334
X187.115Y92.265
X187.424Y92.224
X187.747Y92.211
X188.027Y92.220
X188.308Y92.249
X188.588Y92.297
X188.869Y92.364
X189.150Y92.450
X189.431Y92.556
X189.712Y92.680
X189.993Y92.824
X190.562Y93.161
X191.144Y93.561
X191.739Y94.022
X192.345Y94.545
X192.416
Y93.838
X192.438Y93.536
X192.504Y93.242
X192.555Y93.102
X192.619Y92.968
X192.697Y92.842
X192.787Y92.724
X192.892Y92.614
X193.010Y92.516
X193.142Y92.429
X193.288Y92.352
X193.451Y92.290
X193.630Y92.246
X193.828Y92.220
X194.043Y92.211
X194.435Y92.234
X194.904Y92.305
X195.422Y92.416
X195.965Y92.559
X196.516Y92.733
X197.061Y92.936
X197.574Y93.164
X198.028Y93.413
X197.745Y94.168
X197.309Y94.013
X196.908Y93.903
X196.542Y93.836
X196.212Y93.814
X195.991Y93.829
X195.800Y93.873
X195.638Y93.953
X195.505Y94.074
X195.402Y94.242
X195.328Y94.463
X195.284Y94.746
X195.269Y95.099
X195.287Y95.765
X195.328Y96.773
X195.387Y97.964
X195.446Y99.179
X195.487Y100.257
X195.505Y101.041
X195.494Y101.456
X195.461Y101.875
X195.405Y102.299
X195.328Y102.727
X195.223Y103.148
X195.086Y103.548
X194.917Y103.929
X194.715Y104.289
X194.478Y104.624
X194.204Y104.927
X193.892Y105.199
X193.542Y105.439
X193.352Y105.544
X193.150Y105.635
X192.937Y105.712
X192.712Y105.775
X192.476Y105.824
X192.228Y105.859
X191.697Y105.887
X191.341Y105.875
X190.981Y105.841
X190.616Y105.784
X190.247Y105.704
X189.878Y105.605
X189.514Y105.489
X189.156Y105.357
X188.803Y105.209
X188.456Y105.047
X188.119Y104.871
X187.790Y104.684
X187.470Y104.484
X187.165Y104.275
X186.879Y104.059
X186.614Y103.838
X186.368Y103.611
X186.144Y103.381
X185.945Y103.149
X185.770Y102.915
X185.619Y102.680
X185.498Y102.447
X185.412Y102.217
X185.360Y101.993
X185.342Y101.772
X185.370Y101.504
X185.405Y101.381
X185.454Y101.265
X185.585Y101.058
X185.755Y100.882
X185.958Y100.742
X186.191Y100.640
X186.448Y100.579
X186.722Y100.558
X186.994Y100.577
X187.270Y100.635
X187.541Y100.724
X187.800Y100.841
X188.042Y100.982
X188.260Y101.147
X188.447Y101.330
X188.596Y101.525
X188.426Y101.688
X188.282Y101.847
X188.164Y102.003
X188.072Y102.155
X188.002Y102.308
X187.952Y102.463
X187.922Y102.623
X187.912Y102.786
X187.920Y102.932
X187.942Y103.070
X187.980Y103.199
X188.032Y103.320
X188.099Y103.432
X188.181Y103.536
X188.278Y103.631
X188.390Y103.718
X188.516Y103.795
X188.656Y103.862
X188.975Y103.965
X189.348Y104.027
X189.775Y104.048
X190.076Y104.037
X190.365Y104.003
X190.642Y103.948
X190.907Y103.871
X191.158Y103.768
X191.392Y103.637
X191.609Y103.476
X191.809Y103.287
X191.990Y103.068
X192.151Y102.816
X192.291Y102.531
X192.410Y102.214
X192.506Y101.861
X192.574Y101.467
X192.615Y101.033
X192.628Y100.558
Y100.204
X191.743Y99.992
X190.830Y99.756
X189.918Y99.491
X189.032Y99.190
X188.185Y98.851
X187.388Y98.471
X187.013Y98.264
X186.663Y98.044
G0Z5.080
G0X208.423Y98.878
G1Z-0.750F1800.0
G1X208.403Y99.532F1200.0
X208.415Y100.012
X208.453Y100.483
X208.516Y100.946
X208.603Y101.401
X208.720Y101.839
X208.869Y102.250
X209.050Y102.634
X209.264Y102.993
X209.512Y103.320
X209.798Y103.614
X210.122Y103.875
X210.484Y104.101
X210.680Y104.199
X210.887Y104.284
X211.106Y104.356
X211.337Y104.415
X211.833Y104.493
X212.376Y104.519
X212.924Y104.496
X213.275Y104.457
X213.655Y104.390
X214.060Y104.289
X214.486Y104.154
X214.917Y103.974
X215.335Y103.741
Y101.631
X215.323Y99.556
Y97.575
X215.312Y95.748
X215.003Y95.417
X214.678Y95.132
X214.337Y94.892
X213.979Y94.698
X213.607Y94.549
X213.219Y94.442
X212.817Y94.378
X212.400Y94.357
X212.009Y94.375
X211.627Y94.432
X211.255Y94.526
X210.890Y94.657
X210.541Y94.828
X210.213Y95.040
X209.905Y95.294
X209.617Y95.589
X209.354Y95.926
X209.119Y96.306
X208.912Y96.730
X208.733Y97.198
X208.589Y97.711
X208.485Y98.271
X208.423Y98.878
G1Z-1.500F1800.0
G1X208.403Y99.532F1200.0
X208.415Y100.012
X208.453Y100.483
X208.516Y100.946
X208.603Y101.401
X208.720Y101.839
X208.869Y102.250
X209.050Y102.634
X209.264Y102.993
X209.512Y103.320
X209.798Y103.614
X210.122Y103.875
X210.484Y104.101
X210.680Y104.199
X210.887Y104.284
X211.106Y104.356
X211.337Y104.415
X211.833Y104.493
X212.376Y104.519
X212.924Y104.496
X213.275Y104.457
X213.655Y104.390
X214.060Y104.289
X214.486Y104.154
X214.917Y103.974
X215.335Y103.741
Y101.631
X215.323Y99.556
Y97.575
X215.312Y95.748
X215.003Y95.417
X214.678Y95.132
X214.337Y94.892
X213.979Y94.698
X213.607Y94.549
X213.219Y94.442
X212.817Y94.378
X212.400Y94.357
X212.009Y94.375
X211.627Y94.432
X211.255Y94.526
X210.890Y94.657
X210.541Y94.828
X210.213Y95.040
X209.905Y95.294
X209.617Y95.589
X209.354Y95.926
X209.119Y96.306
X208.912Y96.730
X208.733Y97.198
X208.589Y97.711
X208.485Y98.271
X208.423Y98.878
G0Z5.080
G0X205.517Y99.187
G1Z-0.750F1800.0
G1X205.489Y98.747F1200.0
X205.479Y98.294
X205.500Y97.641
X205.564Y97.015
X205.671Y96.415
X205.821Y95.842
X206.011Y95.302
X206.241Y94.800
X206.510Y94.338
X206.817Y93.914
X207.163Y93.533
X207.545Y93.197
X207.964Y92.905
X208.421Y92.659
X208.662Y92.554
X208.912Y92.463
X209.171Y92.386
X209.439Y92.323
X209.715Y92.274
X210.000Y92.239
X210.596Y92.211
X210.932Y92.220
X211.259Y92.249
X211.575Y92.297
X211.881Y92.364
X212.179Y92.450
X212.472Y92.553
X212.760Y92.674
X213.042Y92.812
X213.321Y92.969
X213.599Y93.144
X213.875Y93.337
X214.150Y93.549
X214.709Y94.025
X215.288Y94.569
X215.406Y94.545
Y94.121
X215.430Y93.702
X215.503Y93.329
X215.558Y93.161
X215.625Y93.003
X215.704Y92.858
X215.795Y92.724
X215.900Y92.604
X216.020Y92.499
X216.156Y92.411
X216.308Y92.339
X216.475Y92.283
X216.657Y92.243
X216.855Y92.219
X217.068Y92.211
X217.469Y92.234
X217.941Y92.305
X218.458Y92.416
X218.996Y92.559
X219.543Y92.733
X220.086Y92.936
X220.602Y93.164
X221.065Y93.413
X220.782Y94.168
X220.353Y94.013
X219.951Y93.903
X219.575Y93.836
X219.226Y93.814
X219.006Y93.828
X218.819Y93.867
X218.661Y93.942
X218.530Y94.062
X218.426Y94.230
X218.347Y94.451
X218.293Y94.734
X218.259Y95.088
X218.235Y95.565
X218.218Y96.485
X218.212Y98.047
Y103.753
X218.218Y106.983
X218.241Y109.960
X218.289Y112.466
X218.325Y113.479
X218.377Y114.281
X218.141Y114.446
X217.808Y114.345
X217.351Y114.228
X216.787Y114.106
X216.131Y113.986
X215.394Y113.873
X214.587Y113.768
X213.727Y113.681
X212.836Y113.621
X212.600Y112.654
X214.091Y112.636
X214.557Y112.597
X214.737Y112.560
X214.881Y112.513
X214.996Y112.452
X215.086Y112.377
X215.152Y112.287
X215.194Y112.183
X215.241Y111.914
X215.264Y111.558
X215.282Y110.467
X215.294Y109.217
X215.312Y107.655
X215.335Y105.604
X214.758Y105.728
X214.183Y105.816
X213.609Y105.869
X213.036Y105.887
X212.661Y105.879
X212.290Y105.856
X211.923Y105.817
X211.561Y105.763
X211.203Y105.693
X210.849Y105.608
X210.499Y105.508
X210.154Y105.392
X209.816Y105.261
X209.488Y105.115
X209.171Y104.954
X208.864Y104.779
X208.568Y104.589
X208.282Y104.384
X208.007Y104.164
X207.743Y103.930
X207.490Y103.681
X207.250Y103.418
X207.024Y103.142
X206.811Y102.851
X206.612Y102.546
X206.425Y102.228
X206.252Y101.895
X206.092Y101.548
X205.948Y101.188
X205.824Y100.814
X205.719Y100.428
X205.632Y100.027
X205.565Y99.614
X205.517Y99.187
G1Z-1.500F1800.0
G1X205.489Y98.747F1200.0
X205.479Y98.294
X205.500Y97.641
X205.564Y97.015
X205.671Y96.415
X205.821Y95.842
X206.011Y95.302
X206.241Y94.800
X206.510Y94.338
X206.817Y93.914
X207.163Y93.533
X207.545Y93.197
X207.964Y92.905
X208.421Y92.659
X208.662Y92.554
X208.912Y92.463
X209.171Y92.386
X209.439Y92.323
X209.715Y92.274
X210.000Y92.239
X210.596Y92.211
X210.932Y92.220
X211.259Y92.249
X211.575Y92.297
X211.881Y92.364
X212.179Y92.450
X212.472Y92.553
X212.760Y92.674
X213.042Y92.812
X213.321Y92.969
X213.599Y93.144
X213.875Y93.337
X214.150Y93.549
X214.709Y94.025
X215.288Y94.569
X215.406Y94.545
Y94.121
X215.430Y93.702
X215.503Y93.329
X215.558Y93.161
X215.625Y93.003
X215.704Y92.858
X215.795Y92.724
X215.900Y92.604
X216.020Y92.499
X216.156Y92.411
X216.308Y92.339
X216.475Y92.283
X216.657Y92.243
X216.855Y92.219
X217.068Y92.211
X217.469Y92.234
X217.941Y92.305
X218.458Y92.416
X218.996Y92.559
X219.543Y92.733
X220.086Y92.936
X220.602Y93.164
X221.065Y93.413
X220.782Y94.168
X220.353Y94.013
X219.951Y93.903
X219.575Y93.836
X219.226Y93.814
X219.006Y93.828
X218.819Y93.867
X218.661Y93.942
X218.530Y94.062
X218.426Y94.230
X218.347Y94.451
X218.293Y94.734
X218.259Y95.088
X218.235Y95.565
X218.218Y96.485
X218.212Y98.047
Y103.753
X218.218Y106.983
X218.241Y109.960
X218.289Y112.466
X218.325Y113.479
X218.377Y114.281
X218.141Y114.446
X217.808Y114.345
X217.351Y114.228
X216.787Y114.106
X216.131Y113.986
X215.394Y113.873
X214.587Y113.768
X213.727Y113.681
X212.836Y113.621
X212.600Y112.654
X214.091Y112.636
X214.557Y112.597
X214.737Y112.560
X214.881Y112.513
X214.996Y112.452
X215.086Y112.377
X215.152Y112.287
X215.194Y112.183
X215.241Y111.914
X215.264Y111.558
X215.282Y110.467
X215.294Y109.217
X215.312Y107.655
X215.335Y105.604
X214.758Y105.728
X214.183Y105.816
X213.609Y105.869
X213.036Y105.887
X212.661Y105.879
X212.290Y105.856
X211.923Y105.817
X211.561Y105.763
X211.203Y105.693
X210.849Y105.608
X210.499Y105.508
X210.154Y105.392
X209.816Y105.261
X209.488Y105.115
X209.171Y104.954
X208.864Y104.779
X208.568Y104.589
X208.282Y104.384
X208.007Y104.164
X207.743Y103.930
X207.490Y103.681
X207.250Y103.418
X207.024Y103.142
X206.811Y102.851
X206.612Y102.546
X206.425Y102.228
X206.252Y101.895
X206.092Y101.548
X205.948Y101.188
X205.824Y100.814
X205.719Y100.428
X205.632Y100.027
X205.565Y99.614
X205.517Y99.187
G0Z5.080
G0X224.854Y99.673
G1Z-0.750F1800.0
G1X224.838Y100.240F1200.0
X224.846Y100.616
X224.872Y100.990
X224.914Y101.361
X224.973Y101.731
X225.054Y102.090
X225.160Y102.430
X225.293Y102.750
X225.451Y103.051
X225.637Y103.329
X225.853Y103.579
X226.100Y103.801
X226.376Y103.995
X226.688Y104.152
X227.038Y104.264
X227.427Y104.332
X227.856Y104.354
X228.137Y104.345
X228.407Y104.318
X228.668Y104.272
X228.918Y104.208
X229.159Y104.126
X229.389Y104.026
X229.609Y103.907
X229.819Y103.771
X230.210Y103.457
X230.563Y103.100
X230.879Y102.700
X231.157Y102.256
X231.399Y101.777
X231.608Y101.271
X231.783Y100.739
X231.923Y100.181
X232.032Y99.610
X232.109Y99.040
X232.155Y98.472
X232.171Y97.905
X232.163Y97.524
X232.138Y97.145
X232.098Y96.769
X232.041Y96.396
X231.964Y96.035
X231.863Y95.695
X231.737Y95.375
X231.587Y95.076
X231.410Y94.801
X231.203Y94.554
X230.965Y94.335
X230.697Y94.144
X230.394Y93.990
X230.052Y93.879
X229.669Y93.813
X229.247Y93.791
X228.972Y93.800
X228.705Y93.827
X228.448Y93.873
X228.199Y93.937
X227.960Y94.019
X227.729Y94.119
X227.508Y94.237
X227.296Y94.374
X226.898Y94.688
X226.535Y95.045
X226.208Y95.445
X225.916Y95.889
X225.660Y96.368
X225.439Y96.874
X225.253Y97.406
X225.103Y97.964
X224.987Y98.535
X224.904Y99.105
X224.854Y99.673
G1Z-1.500F1800.0
G1X224.838Y100.240F1200.0
X224.846Y100.616
X224.872Y100.990
X224.914Y101.361
X224.973Y101.731
X225.054Y102.090
X225.160Y102.430
X225.293Y102.750
X225.451Y103.051
X225.637Y103.329
X225.853Y103.579
X226.100Y103.801
X226.376Y103.995
X226.688Y104.152
X227.038Y104.264
X227.427Y104.332
X227.856Y104.354
X228.137Y104.345
X228.407Y104.318
X228.668Y104.272
X228.918Y104.208
X229.159Y104.126
X229.389Y104.026
X229.609Y103.907
X229.819Y103.771
X230.210Y103.457
X230.563Y103.100
X230.879Y102.700
X231.157Y102.256
X231.399Y101.777
X231.608Y101.271
X231.783Y100.739
X231.923Y100.181
X232.032Y99.610
X232.109Y99.040
X232.155Y98.472
X232.171Y97.905
X232.163Y97.524
X232.138Y97.145
X232.098Y96.769
X232.041Y96.396
X231.964Y96.035
X231.863Y95.695
X231.737Y95.375
X231.587Y95.076
X231.410Y94.801
X231.203Y94.554
X230.965Y94.335
X230.697Y94.144
X230.394Y93.990
X230.052Y93.879
X229.669Y93.813
X229.247Y93.791
X228.972Y93.800
X228.705Y93.827
X228.448Y93.873
X228.199Y93.937
X227.960Y94.019
X227.729Y94.119
X227.508Y94.237
X227.296Y94.374
X226.898Y94.688
X226.535Y95.045
X226.208Y95.445
X225.916Y95.889
X225.660Y96.368
X225.439Y96.874
X225.253Y97.406
X225.103Y97.964
X224.987Y98.535
X224.904Y99.105
X224.854Y99.673
G0Z5.080
G0X222.041Y99.994
G1Z-0.750F1800.0
G1X221.981Y99.385F1200.0
X221.961Y98.742
X221.968Y98.347
X221.990Y97.965
X222.027Y97.594
X222.079Y97.235
X222.145Y96.888
X222.226Y96.553
X222.322Y96.230
X222.433Y95.919
X222.690Y95.333
X222.834Y95.059
X222.990Y94.797
X223.156Y94.548
X223.332Y94.311
X223.520Y94.086
X223.718Y93.873
X223.925Y93.673
X224.141Y93.486
X224.366Y93.311
X224.599Y93.150
X224.840Y93.000
X225.090Y92.864
X225.349Y92.740
X225.616Y92.629
X226.168Y92.446
X226.739Y92.315
X227.329Y92.237
X227.938Y92.211
X228.331Y92.222
X228.730Y92.255
X229.135Y92.310
X229.548Y92.388
X229.961Y92.488
X230.369Y92.613
X230.771Y92.762
X231.169Y92.936
X231.559Y93.134
X231.938Y93.357
X232.307Y93.606
X232.666Y93.879
X233.008Y94.179
X233.328Y94.507
X233.624Y94.863
X233.898Y95.247
X234.147Y95.659
X234.370Y96.100
X234.566Y96.570
X234.735Y97.068
X234.872Y97.597
X234.969Y98.156
X235.028Y98.746
X235.048Y99.367
X235.018Y100.129
X234.982Y100.494
X234.931Y100.848
X234.866Y101.191
X234.786Y101.524
X234.691Y101.845
X234.582Y102.155
X234.327Y102.741
X234.184Y103.015
X234.029Y103.277
X233.864Y103.526
X233.688Y103.764
X233.501Y103.988
X233.303Y104.201
X232.879Y104.589
X232.654Y104.764
X232.420Y104.927
X232.178Y105.078
X231.927Y105.217
X231.399Y105.457
X230.843Y105.645
X230.268Y105.779
X229.673Y105.860
X229.058Y105.887
X228.688Y105.877
X228.307Y105.847
X227.916Y105.797
X227.514Y105.728
X227.109Y105.636
X226.706Y105.520
X226.307Y105.380
X225.911Y105.215
X225.520Y105.025
X225.140Y104.810
X224.769Y104.568
X224.407Y104.301
X224.061Y104.006
X223.735Y103.682
X223.430Y103.329
X223.146Y102.945
X222.886Y102.532
X222.655Y102.088
X222.453Y101.612
X222.279Y101.106
X222.140Y100.567
X222.041Y99.994
G1Z-1.500F1800.0
G1X221.981Y99.385F1200.0
X221.961Y98.742
X221.968Y98.347
X221.990Y97.965
X222.027Y97.594
X222.079Y97.235
X222.145Y96.888
X222.226Y96.553
X222.322Y96.230
X222.433Y95.919
X222.690Y95.333
X222.834Y95.059
X222.990Y94.797
X223.156Y94.548
X223.332Y94.311
X223.520Y94.086
X223.718Y93.873
X223.925Y93.673
X224.141Y93.486
X224.366Y93.311
X224.599Y93.150
X224.840Y93.000
X225.090Y92.864
X225.349Y92.740
X225.616Y92.629
X226.168Y92.446
X226.739Y92.315
X227.329Y92.237
X227.938Y92.211
X228.331Y92.222
X228.730Y92.255
X229.135Y92.310
X229.548Y92.388
X229.961Y92.488
X230.369Y92.613
X230.771Y92.762
X231.169Y92.936
X231.559Y93.134
X231.938Y93.357
X232.307Y93.606
X232.666Y93.879
X233.008Y94.179
X233.328Y94.507
X233.624Y94.863
X233.898Y95.247
X234.147Y95.659
X234.370Y96.100
X234.566Y96.570
X234.735Y97.068
X234.872Y97.597
X234.969Y98.156
X235.028Y98.746
X235.048Y99.367
X235.018Y100.129
X234.982Y100.494
X234.931Y100.848
X234.866Y101.191
X234.786Y101.524
X234.691Y101.845
X234.582Y102.155
X234.327Y102.741
X234.184Y103.015
X234.029Y103.277
X233.864Y103.526
X233.688Y103.764
X233.501Y103.988
X233.303Y104.201
X232.879Y104.589
X232.654Y104.764
X232.420Y104.927
X232.178Y105.078
X231.927Y105.217
X231.399Y105.457
X230.843Y105.645
X230.268Y105.779
X229.673Y105.860
X229.058Y105.887
X228.688Y105.877
X228.307Y105.847
X227.916Y105.797
X227.514Y105.728
X227.109Y105.636
X226.706Y105.520
X226.307Y105.380
X225.911Y105.215
X225.520Y105.025
X225.140Y104.810
X224.769Y104.568
X224.407Y104.301
X224.061Y104.006
X223.735Y103.682
X223.430Y103.329
X223.146Y102.945
X222.886Y102.532
X222.655Y102.088
X222.453Y101.612
X222.279Y101.106
X222.140Y100.567
X222.041Y99.994
G0Z5.080
G0X236.781Y103.930
G1Z-0.750F1800.0
G1X237.942Y103.912F1200.0
X238.309Y103.874
X238.454Y103.839
X238.573Y103.794
X238.669Y103.737
X238.747Y103.667
X238.805Y103.584
X238.844Y103.488
X238.894Y103.236
X238.926Y102.892
X238.956Y102.291
X238.985Y101.259
X239.009Y99.691
X239.021Y97.493
Y96.856
X239.009Y95.883
X238.974Y94.787
X238.944Y94.252
X238.903Y93.767
X238.569Y93.714
X238.276Y93.649
X238.024Y93.573
X237.812Y93.484
X237.481Y93.293
X237.354Y93.195
X237.252Y93.095
X237.112Y92.899
X237.070Y92.804
X237.046Y92.712
X237.016Y92.447
X237.347Y92.482
X238.089Y92.535
X239.156Y92.588
X240.471Y92.612
X241.585Y92.600
X242.587Y92.570
X243.353Y92.529
X243.760Y92.494
X244.185Y93.484
X243.482Y93.564
X242.953Y93.637
X242.568Y93.718
X242.298Y93.820
X242.202Y93.880
X242.126Y93.948
X242.069Y94.025
X242.033Y94.109
X241.990Y94.318
X241.968Y94.592
X241.933Y95.276
X241.909Y96.137
X241.897Y97.316
Y100.334
X241.909Y101.212
X241.945Y102.091
X242.278Y102.399
X242.640Y102.686
X243.029Y102.947
X243.442Y103.175
X243.874Y103.364
X244.320Y103.505
X244.549Y103.557
X244.781Y103.594
X245.257Y103.623
X245.664Y103.600
X246.022Y103.529
X246.184Y103.476
X246.333Y103.411
X246.470Y103.334
X246.596Y103.246
X246.819Y103.043
X247.011Y102.811
X247.173Y102.551
X247.303Y102.262
X247.406Y101.949
X247.487Y101.618
X247.545Y101.268
X247.580Y100.900
X247.615Y100.148
X247.627Y99.403
X247.609Y97.764
X247.545Y96.178
X247.433Y94.492
X247.273Y92.565
X248.028Y92.600
X248.936Y92.612
X250.121Y92.600
X251.123Y92.570
X251.860Y92.529
X252.249Y92.494
X252.673Y93.484
X251.966Y93.568
X251.423Y93.655
X251.020Y93.758
X250.860Y93.821
X250.728Y93.891
X250.621Y93.969
X250.535Y94.057
X250.470Y94.155
X250.427Y94.262
X250.379Y94.519
X250.362Y94.840
X250.398Y95.877
X250.468Y97.351
X250.539Y99.002
X250.566Y99.821
X250.575Y100.582
X250.557Y101.324
X250.529Y101.710
X250.480Y102.091
X250.812Y102.399
X251.170Y102.686
X251.552Y102.947
X251.954Y103.175
X252.377Y103.364
X252.820Y103.505
X253.049Y103.557
X253.282Y103.594
X253.758Y103.623
X254.165Y103.600
X254.526Y103.529
X254.689Y103.476
X254.840Y103.411
X254.980Y103.334
X255.108Y103.246
X255.336Y103.043
X255.532Y102.813
X255.696Y102.554
X255.827Y102.267
X255.931Y101.956
X256.013Y101.625
X256.072Y101.273
X256.110Y100.900
X256.150Y100.131
X256.163Y99.355
X256.139Y97.740
X256.069Y96.160
X255.939Y94.480
X255.738Y92.565
X256.505Y92.600
X257.424Y92.612
X258.621Y92.600
X259.653Y92.570
X260.425Y92.529
X260.832Y92.494
X261.256Y93.484
X260.535Y93.568
X259.977Y93.655
X259.557Y93.757
X259.390Y93.818
X259.252Y93.885
X259.139Y93.961
X259.047Y94.047
X258.977Y94.144
X258.928Y94.250
X258.870Y94.507
X258.851Y94.828
X258.892Y95.877
X258.992Y97.375
X259.087Y99.014
X259.122Y99.806
X259.134Y100.511
X259.122Y101.078
X259.088Y101.623
X259.031Y102.148
X258.951Y102.651
X258.845Y103.126
X258.708Y103.569
X258.541Y103.978
X258.344Y104.354
X258.114Y104.694
X257.849Y104.995
X257.548Y105.257
X257.212Y105.480
X257.030Y105.575
X256.837Y105.658
X256.634Y105.728
X256.419Y105.785
X255.959Y105.861
X255.455Y105.887
X255.082Y105.874
X254.717Y105.835
X254.360Y105.771
X254.011Y105.681
X253.670Y105.568
X253.335Y105.436
X253.007Y105.285
X252.685Y105.115
X252.370Y104.927
X252.062Y104.724
X251.760Y104.506
X251.465Y104.272
X250.891Y103.774
X250.339Y103.246
X250.244
X250.155Y103.540
X250.051Y103.819
X249.934Y104.085
X249.802Y104.337
X249.656Y104.572
X249.494Y104.789
X249.317Y104.988
X249.124Y105.168
X248.916Y105.329
X248.690Y105.471
X248.447Y105.594
X248.187Y105.698
X247.910Y105.781
X247.614Y105.840
X247.300Y105.875
X246.967Y105.887
X246.594Y105.873
X246.232Y105.832
X245.878Y105.764
X245.534Y105.669
X245.199Y105.551
X244.870Y105.414
X244.547Y105.259
X244.232Y105.085
X243.620Y104.693
X243.035Y104.248
X242.471Y103.768
X241.921Y103.270
X241.850Y103.293
X241.858Y104.055
X241.880Y104.714
X241.945Y105.769
X241.732Y105.887
X240.990Y105.657
X239.905Y105.380
X239.261Y105.241
X238.555Y105.109
X237.802Y104.991
X237.016Y104.897
X236.781Y103.930
G1Z-1.500F1800.0
G1X237.942Y103.912F1200.0
X238.309Y103.874
X238.454Y103.839
X238.573Y103.794
X238.669Y103.737
X238.747Y103.667
X238.805Y103.584
X238.844Y103.488
X238.894Y103.236
X238.926Y102.892
X238.956Y102.291
X238.985Y101.259
X239.009Y99.691
X239.021Y97.493
Y96.856
X239.009Y95.883
X238.974Y94.787
X238.944Y94.252
X238.903Y93.767
X238.569Y93.714
X238.276Y93.649
X238.024Y93.573
X237.812Y93.484
X237.481Y93.293
X237.354Y93.195
X237.252Y93.095
X237.112Y92.899
X237.070Y92.804
X237.046Y92.712
X237.016Y92.447
X237.347Y92.482
X238.089Y92.535
X239.156Y92.588
X240.471Y92.612
X241.585Y92.600
X242.587Y92.570
X243.353Y92.529
X243.760Y92.494
X244.185Y93.484
X243.482Y93.564
X242.953Y93.637
X242.568Y93.718
X242.298Y93.820
X242.202Y93.880
X242.126Y93.948
X242.069Y94.025
X242.033Y94.109
X241.990Y94.318
X241.968Y94.592
X241.933Y95.276
X241.909Y96.137
X241.897Y97.316
Y100.334
X241.909Y101.212
X241.945Y102.091
X242.278Y102.399
X242.640Y102.686
X243.029Y102.947
X243.442Y103.175
X243.874Y103.364
X244.320Y103.505
X244.549Y103.557
X244.781Y103.594
X245.257Y103.623
X245.664Y103.600
X246.022Y103.529
X246.184Y103.476
X246.333Y103.411
X246.470Y103.334
X246.596Y103.246
X246.819Y103.043
X247.011Y102.811
X247.173Y102.551
X247.303Y102.262
X247.406Y101.949
X247.487Y101.618
X247.545Y101.268
X247.580Y100.900
X247.615Y100.148
X247.627Y99.403
X247.609Y97.764
X247.545Y96.178
X247.433Y94.492
X247.273Y92.565
X248.028Y92.600
X248.936Y92.612
X250.121Y92.600
X251.123Y92.570
X251.860Y92.529
X252.249Y92.494
X252.673Y93.484
X251.966Y93.568
X251.423Y93.655
X251.020Y93.758
X250.860Y93.821
X250.728Y93.891
X250.621Y93.969
X250.535Y94.057
X250.470Y94.155
X250.427Y94.262
X250.379Y94.519
X250.362Y94.840
X250.398Y95.877
X250.468Y97.351
X250.539Y99.002
X250.566Y99.821
X250.575Y100.582
X250.557Y101.324
X250.529Y101.710
X250.480Y102.091
X250.812Y102.399
X251.170Y102.686
X251.552Y102.947
X251.954Y103.175
X252.377Y103.364
X252.820Y103.505
X253.049Y103.557
X253.282Y103.594
X253.758Y103.623
X254.165Y103.600
X254.526Y103.529
X254.689Y103.476
X254.840Y103.411
X254.980Y103.334
X255.108Y103.246
X255.336Y103.043
X255.532Y102.813
X255.696Y102.554
X255.827Y102.267
X255.931Y101.956
X256.013Y101.625
X256.072Y101.273
X256.110Y100.900
X256.150Y100.131
X256.163Y99.355
X256.139Y97.740
X256.069Y96.160
X255.939Y94.480
X255.738Y92.565
X256.505Y92.600
X257.424Y92.612
X258.621Y92.600
X259.653Y92.570
X260.425Y92.529
X260.832Y92.494
X261.256Y93.484
X260.535Y93.568
X259.977Y93.655
X259.557Y93.757
X259.390Y93.818
X259.252Y93.885
X259.139Y93.961
X259.047Y94.047
X258.977Y94.144
X258.928Y94.250
X258.870Y94.507
X258.851Y94.828
X258.892Y95.877
X258.992Y97.375
X259.087Y99.014
X259.122Y99.806
X259.134Y100.511
X259.122Y101.078
X259.088Y101.623
X259.031Y102.148
X258.951Y102.651
X258.845Y103.126
X258.708Y103.569
X258.541Y103.978
X258.344Y104.354
X258.114Y104.694
X257.849Y104.995
X257.548Y105.257
X257.212Y105.480
X257.030Y105.575
X256.837Y105.658
X256.634Y105.728
X256.419Y105.785
X255.959Y105.861
X255.455Y105.887
X255.082Y105.874
X254.717Y105.835
X254.360Y105.771
X254.011Y105.681
X253.670Y105.568
X253.335Y105.436
X253.007Y105.285
X252.685Y105.115
X252.370Y104.927
X252.062Y104.724
X251.760Y104.506
X251.465Y104.272
X250.891Y103.774
X250.339Y103.246
X250.244
X250.155Y103.540
X250.051Y103.819
X249.934Y104.085
X249.802Y104.337
X249.656Y104.572
X249.494Y104.789
X249.317Y104.988
X249.124Y105.168
X248.916Y105.329
X248.690Y105.471
X248.447Y105.594
X248.187Y105.698
X247.910Y105.781
X247.614Y105.840
X247.300Y105.875
X246.967Y105.887
X246.594Y105.873
X246.232Y105.832
X245.878Y105.764
X245.534Y105.669
X245.199Y105.551
X244.870Y105.414
X244.547Y105.259
X244.232Y105.085
X243.620Y104.693
X243.035Y104.248
X242.471Y103.768
X241.921Y103.270
X241.850Y103.293
X241.858Y104.055
X241.880Y104.714
X241.945Y105.769
X241.732Y105.887
X240.990Y105.657
X239.905Y105.380
X239.261Y105.241
X238.555Y105.109
X237.802Y104.991
X237.016Y104.897
X236.781Y103.930
G0Z5.080
G0X262.388
G1Z-0.750F1800.0
G1X263.531Y103.912F1200.0
X263.894Y103.872
X264.038Y103.836
X264.156Y103.788
X264.253Y103.729
X264.330Y103.656
X264.388Y103.569
X264.427Y103.470
X264.478Y103.214
X264.510Y102.869
X264.539Y102.315
X264.569Y101.289
X264.592Y99.674
X264.604Y97.328
Y96.679
X264.592Y95.754
X264.557Y94.728
X264.528Y94.225
X264.486Y93.767
X264.153Y93.714
X263.860Y93.649
X263.608Y93.573
X263.396Y93.484
X263.064Y93.293
X262.937Y93.195
X262.836Y93.095
X262.696Y92.899
X262.653Y92.804
X262.630Y92.712
X262.600Y92.447
X262.954Y92.488
X263.708Y92.541
X264.781Y92.588
X266.090Y92.612
X267.192Y92.600
X268.171Y92.570
X268.919Y92.529
X269.320Y92.494
X269.745Y93.484
X269.042Y93.564
X268.513Y93.637
X268.126Y93.718
X267.852Y93.820
X267.754Y93.880
X267.676Y93.948
X267.618Y94.025
X267.581Y94.109
X267.538Y94.318
X267.516Y94.592
X267.481Y95.141
X267.463Y95.901
X267.457Y96.738
Y97.528
X267.463Y100.033
X267.493Y102.155
X267.558Y104.018
X267.606Y104.889
X267.670Y105.745
X267.481Y105.887
X266.721Y105.657
X265.595Y105.380
X264.927Y105.241
X264.198Y105.109
X263.424Y104.991
X262.624Y104.897
X262.388Y103.930
G1Z-1.500F1800.0
G1X263.531Y103.912F1200.0
X263.894Y103.872
X264.038Y103.836
X264.156Y103.788
X264.253Y103.729
X264.330Y103.656
X264.388Y103.569
X264.427Y103.470
X264.478Y103.214
X264.510Y102.869
X264.539Y102.315
X264.569Y101.289
X264.592Y99.674
X264.604Y97.328
Y96.679
X264.592Y95.754
X264.557Y94.728
X264.528Y94.225
X264.486Y93.767
X264.153Y93.714
X263.860Y93.649
X263.608Y93.573
X263.396Y93.484
X263.064Y93.293
X262.937Y93.195
X262.836Y93.095
X262.696Y92.899
X262.653Y92.804
X262.630Y92.712
X262.600Y92.447
X262.954Y92.488
X263.708Y92.541
X264.781Y92.588
X266.090Y92.612
X267.192Y92.600
X268.171Y92.570
X268.919Y92.529
X269.320Y92.494
X269.745Y93.484
X269.042Y93.564
X268.513Y93.637
X268.126Y93.718
X267.852Y93.820
X267.754Y93.880
X267.676Y93.948
X267.618Y94.025
X267.581Y94.109
X267.538Y94.318
X267.516Y94.592
X267.481Y95.141
X267.463Y95.901
X267.457Y96.738
Y97.528
X267.463Y100.033
X267.493Y102.155
X267.558Y104.018
X267.606Y104.889
X267.670Y105.745
X267.481Y105.887
X266.721Y105.657
X265.595Y105.380
X264.927Y105.241
X264.198Y105.109
X263.424Y104.991
X262.624Y104.897
X262.388Y103.930
G0Z5.080
G0X264.893Y108.472
G1Z-0.750F1800.0
G1X265.039Y108.402F1200.0
X265.194Y108.345
X265.518Y108.270
X265.854Y108.245
X266.135Y108.260
X266.414Y108.307
X266.690Y108.384
X266.962Y108.492
X267.219Y108.632
X267.446Y108.802
X267.643Y109.003
X267.811Y109.235
X267.622Y109.450
X267.468Y109.671
X267.348Y109.898
X267.263Y110.131
X267.204Y110.373
X267.161Y110.626
X267.136Y110.892
X267.127Y111.169
Y111.452
X267.080Y111.522
X264.298Y111.098
X264.205Y110.808
X264.139Y110.503
X264.099Y110.206
X264.086Y109.943
X264.095Y109.727
X264.122Y109.527
X264.168Y109.343
X264.233Y109.176
X264.313Y109.024
X264.405Y108.886
X264.510Y108.762
X264.628Y108.652
X264.756Y108.555
X264.893Y108.472
G1Z-1.500F1800.0
G1X265.039Y108.402F1200.0
X265.194Y108.345
X265.518Y108.270
X265.854Y108.245
X266.135Y108.260
X266.414Y108.307
X266.690Y108.384
X266.962Y108.492
X267.219Y108.632
X267.446Y108.802
X267.643Y109.003
X267.811Y109.235
X267.622Y109.450
X267.468Y109.671
X267.348Y109.898
X267.263Y110.131
X267.204Y110.373
X267.161Y110.626
X267.136Y110.892
X267.127Y111.169
Y111.452
X267.080Y111.522
X264.298Y111.098
X264.205Y110.808
X264.139Y110.503
X264.099Y110.206
X264.086Y109.943
X264.095Y109.727
X264.122Y109.527
X264.168Y109.343
X264.233Y109.176
X264.313Y109.024
X264.405Y108.886
X264.510Y108.762
X264.628Y108.652
X264.756Y108.555
X264.893Y108.472
G0Z5.080
G0X271.077Y104.897
G1Z-0.750F1800.0
G1X270.841Y103.930F1200.0
X272.002Y103.912
X272.369Y103.874
X272.514Y103.839
X272.633Y103.794
X272.730Y103.737
X272.807Y103.667
X272.865Y103.584
X272.904Y103.488
X272.954Y103.236
X272.987Y102.892
X273.016Y102.291
X273.046Y101.259
X273.069Y99.691
X273.081Y97.493
Y96.856
X273.069Y95.883
X273.034Y94.787
X273.004Y94.252
X272.963Y93.767
X272.630Y93.714
X272.337Y93.649
X272.084Y93.573
X271.873Y93.484
X271.541Y93.293
X271.414Y93.195
X271.313Y93.095
X271.173Y92.899
X271.130Y92.804
X271.106Y92.712
X271.077Y92.447
X271.413Y92.488
X272.150Y92.541
X273.217Y92.588
X274.531Y92.612
X275.651Y92.600
X276.653Y92.570
X277.414Y92.529
X277.821Y92.494
X278.245Y93.484
X277.542Y93.564
X277.013Y93.637
X276.628Y93.718
X276.359Y93.820
X276.262Y93.881
X276.186Y93.950
X276.130Y94.028
X276.093Y94.115
X276.051Y94.326
X276.029Y94.592
X275.993Y95.276
X275.970Y96.137
X275.958Y97.316
Y99.544
X275.970Y100.334
X275.981Y101.218
X276.005Y102.091
X276.348Y102.399
X276.718Y102.686
X277.113Y102.947
X277.532Y103.175
X277.972Y103.364
X278.434Y103.505
X278.671Y103.557
X278.911Y103.594
X279.400Y103.623
X279.823Y103.600
X280.196Y103.529
X280.364Y103.476
X280.519Y103.411
X280.661Y103.334
X280.792Y103.246
X281.023Y103.043
X281.223Y102.813
X281.392Y102.554
X281.528Y102.267
X281.637Y101.956
X281.723Y101.625
X281.785Y101.273
X281.823Y100.900
X281.863Y100.131
X281.876Y99.355
X281.853Y97.740
X281.782Y96.160
X281.652Y94.480
X281.452Y92.565
X282.218Y92.600
X283.138Y92.612
X284.334Y92.600
X285.366Y92.570
X286.138Y92.529
X286.545Y92.494
X286.969Y93.484
X286.249Y93.568
X285.690Y93.655
X285.270Y93.757
X285.103Y93.818
X284.965Y93.885
X284.852Y93.961
X284.760Y94.047
X284.690Y94.144
X284.641Y94.250
X284.583Y94.507
X284.564Y94.828
X284.588Y95.459
X284.641Y96.337
X284.706Y97.375
X284.771Y98.477
X284.824Y99.544
X284.847Y100.487
X284.836Y101.054
X284.801Y101.600
X284.744Y102.124
X284.664Y102.627
X284.557Y103.103
X284.418Y103.547
X284.248Y103.958
X284.045Y104.337
X283.810Y104.680
X283.539Y104.984
X283.232Y105.248
X282.890Y105.474
X282.705Y105.571
X282.509Y105.655
X282.303Y105.726
X282.085Y105.784
X281.619Y105.861
X281.110Y105.887
X280.726Y105.874
X280.354Y105.834
X279.992Y105.768
X279.642Y105.675
X279.301Y105.559
X278.967Y105.424
X278.641Y105.270
X278.322Y105.097
X277.704Y104.705
X277.113Y104.260
X276.541Y103.777
X275.981Y103.270
X275.911Y103.293
X275.918Y104.055
X275.940Y104.714
X276.005Y105.769
X275.793Y105.887
X275.050Y105.657
X273.965Y105.380
X273.321Y105.241
X272.615Y105.109
X271.862Y104.991
X271.077Y104.897
G1Z-1.500F1800.0
G1X270.841Y103.930F1200.0
X272.002Y103.912
X272.369Y103.874
X272.514Y103.839
X272.633Y103.794
X272.730Y103.737
X272.807Y103.667
X272.865Y103.584
X272.904Y103.488
X272.954Y103.236
X272.987Y102.892
X273.016Y102.291
X273.046Y101.259
X273.069Y99.691
X273.081Y97.493
Y96.856
X273.069Y95.883
X273.034Y94.787
X273.004Y94.252
X272.963Y93.767
X272.630Y93.714
X272.337Y93.649
X272.084Y93.573
X271.873Y93.484
X271.541Y93.293
X271.414Y93.195
X271.313Y93.095
X271.173Y92.899
X271.130Y92.804
X271.106Y92.712
X271.077Y92.447
X271.413Y92.488
X272.150Y92.541
X273.217Y92.588
X274.531Y92.612
X275.651Y92.600
X276.653Y92.570
X277.414Y92.529
X277.821Y92.494
X278.245Y93.484
X277.542Y93.564
X277.013Y93.637
X276.628Y93.718
X276.359Y93.820
X276.262Y93.881
X276.186Y93.950
X276.130Y94.028
X276.093Y94.115
X276.051Y94.326
X276.029Y94.592
X275.993Y95.276
X275.970Y96.137
X275.958Y97.316
Y99.544
X275.970Y100.334
X275.981Y101.218
X276.005Y102.091
X276.348Y102.399
X276.718Y102.686
X277.113Y102.947
X277.532Y103.175
X277.972Y103.364
X278.434Y103.505
X278.671Y103.557
X278.911Y103.594
X279.400Y103.623
X279.823Y103.600
X280.196Y103.529
X280.364Y103.476
X280.519Y103.411
X280.661Y103.334
X280.792Y103.246
X281.023Y103.043
X281.223Y102.813
X281.392Y102.554
X281.528Y102.267
X281.637Y101.956
X281.723Y101.625
X281.785Y101.273
X281.823Y100.900
X281.863Y100.131
X281.876Y99.355
X281.853Y97.740
X281.782Y96.160
X281.652Y94.480
X281.452Y92.565
X282.218Y92.600
X283.138Y92.612
X284.334Y92.600
X285.366Y92.570
X286.138Y92.529
X286.545Y92.494
X286.969Y93.484
X286.249Y93.568
X285.690Y93.655
X285.270Y93.757
X285.103Y93.818
X284.965Y93.885
X284.852Y93.961
X284.760Y94.047
X284.690Y94.144
X284.641Y94.250
X284.583Y94.507
X284.564Y94.828
X284.588Y95.459
X284.641Y96.337
X284.706Y97.375
X284.771Y98.477
X284.824Y99.544
X284.847Y100.487
X284.836Y101.054
X284.801Y101.600
X284.744Y102.124
X284.664Y102.627
X284.557Y103.103
X284.418Y103.547
X284.248Y103.958
X284.045Y104.337
X283.810Y104.680
X283.539Y104.984
X283.232Y105.248
X282.890Y105.474
X282.705Y105.571
X282.509Y105.655
X282.303Y105.726
X282.085Y105.784
X281.619Y105.861
X281.110Y105.887
X280.726Y105.874
X280.354Y105.834
X279.992Y105.768
X279.642Y105.675
X279.301Y105.559
X278.967Y105.424
X278.641Y105.270
X278.322Y105.097
X277.704Y104.705
X277.113Y104.260
X276.541Y103.777
X275.981Y103.270
X275.911Y103.293
X275.918Y104.055
X275.940Y104.714
X276.005Y105.769
X275.793Y105.887
X275.050Y105.657
X273.965Y105.380
X273.321Y105.241
X272.615Y105.109
X271.862Y104.991
X271.077Y104.897
G0Z5.080
G0X290.804Y91.112
G1Z-0.750F1800.0
G1X291.049Y91.433F1200.0
X291.936Y91.330
X292.829Y91.256
X294.556Y91.144
X295.362Y91.066
X296.118Y90.961
X296.471Y90.894
X296.800Y90.811
X297.105Y90.711
X297.385Y90.596
X297.640Y90.460
X297.866Y90.302
X298.064Y90.121
X298.234Y89.918
X298.371Y89.687
X298.469Y89.427
X298.527Y89.136
X298.547Y88.815
X298.532Y88.533
X298.488Y88.252
X298.414Y87.973
X298.311Y87.695
X298.177Y87.426
X298.010Y87.172
X297.811Y86.934
X297.580Y86.711
X297.316Y86.506
X297.019Y86.322
X296.688Y86.158
X296.324Y86.015
X295.925Y85.899
X295.489Y85.816
X295.015Y85.767
X294.503Y85.750
X294.024Y85.764
X293.567Y85.808
X293.131Y85.879
X292.717Y85.980
X292.327Y86.107
X291.967Y86.259
X291.635Y86.434
X291.332Y86.634
X291.059Y86.857
X290.817Y87.100
X290.608Y87.364
X290.430Y87.648
X290.288Y87.950
X290.186Y88.267
X290.126Y88.599
X290.105Y88.945
X290.118Y89.209
X290.157Y89.493
X290.221Y89.798
X290.312Y90.124
X290.435Y90.458
X290.599Y90.787
X290.804Y91.112
G1Z-1.500F1800.0
G1X291.049Y91.433F1200.0
X291.936Y91.330
X292.829Y91.256
X294.556Y91.144
X295.362Y91.066
X296.118Y90.961
X296.471Y90.894
X296.800Y90.811
X297.105Y90.711
X297.385Y90.596
X297.640Y90.460
X297.866Y90.302
X298.064Y90.121
X298.234Y89.918
X298.371Y89.687
X298.469Y89.427
X298.527Y89.136
X298.547Y88.815
X298.532Y88.533
X298.488Y88.252
X298.414Y87.973
X298.311Y87.695
X298.177Y87.426
X298.010Y87.172
X297.811Y86.934
X297.580Y86.711
X297.316Y86.506
X297.019Y86.322
X296.688Y86.158
X296.324Y86.015
X295.925Y85.899
X295.489Y85.816
X295.015Y85.767
X294.503Y85.750
X294.024Y85.764
X293.567Y85.808
X293.131Y85.879
X292.717Y85.980
X292.327Y86.107
X291.967Y86.259
X291.635Y86.434
X291.332Y86.634
X291.059Y86.857
X290.817Y87.100
X290.608Y87.364
X290.430Y87.648
X290.288Y87.950
X290.186Y88.267
X290.126Y88.599
X290.105Y88.945
X290.118Y89.209
X290.157Y89.493
X290.221Y89.798
X290.312Y90.124
X290.435Y90.458
X290.599Y90.787
X290.804Y91.112
G0Z5.080
G0X293.377Y97.232
G1Z-0.750F1800.0
G1X293.205Y97.304F1200.0
X293.042Y97.389
X292.888Y97.487
X292.601Y97.711
X292.342Y97.964
X292.112Y98.247
X291.909Y98.560
X291.733Y98.895
X291.584Y99.248
X291.459Y99.617
X291.361Y100.004
X291.286Y100.395
X291.233Y100.779
X291.201Y101.156
X291.190Y101.525
X291.217Y102.082
X291.296Y102.621
X291.359Y102.879
X291.441Y103.122
X291.542Y103.351
X291.662Y103.564
X291.802Y103.760
X291.965Y103.936
X292.150Y104.090
X292.357Y104.225
X292.589Y104.333
X292.846Y104.410
X293.131Y104.457
X293.442Y104.472
X293.861Y104.445
X294.245Y104.365
X294.424Y104.304
X294.595Y104.230
X294.757Y104.143
X294.910Y104.042
X295.193Y103.812
X295.446Y103.554
X295.670Y103.267
X295.865Y102.951
X296.032Y102.613
X296.174Y102.257
X296.291Y101.885
X296.383Y101.495
X296.453Y101.101
X296.503Y100.716
X296.533Y100.338
X296.543Y99.968
X296.517Y99.413
X296.442Y98.878
X296.383Y98.623
X296.305Y98.384
X296.209Y98.161
X296.095Y97.952
X295.960Y97.762
X295.803Y97.591
X295.624Y97.441
X295.423Y97.310
X295.197Y97.204
X294.945Y97.129
X294.667Y97.083
X294.361Y97.068
X293.942Y97.094
X293.557Y97.173
X293.377Y97.232
G1Z-1.500F1800.0
G1X293.205Y97.304F1200.0
X293.042Y97.389
X292.888Y97.487
X292.601Y97.711
X292.342Y97.964
X292.112Y98.247
X291.909Y98.560
X291.733Y98.895
X291.584Y99.248
X291.459Y99.617
X291.361Y100.004
X291.286Y100.395
X291.233Y100.779
X291.201Y101.156
X291.190Y101.525
X291.217Y102.082
X291.296Y102.621
X291.359Y102.879
X291.441Y103.122
X291.542Y103.351
X291.662Y103.564
X291.802Y103.760
X291.965Y103.936
X292.150Y104.090
X292.357Y104.225
X292.589Y104.333
X292.846Y104.410
X293.131Y104.457
X293.442Y104.472
X293.861Y104.445
X294.245Y104.365
X294.424Y104.304
X294.595Y104.230
X294.757Y104.143
X294.910Y104.042
X295.193Y103.812
X295.446Y103.554
X295.670Y103.267
X295.865Y102.951
X296.032Y102.613
X296.174Y102.257
X296.291Y101.885
X296.383Y101.495
X296.453Y101.101
X296.503Y100.716
X296.533Y100.338
X296.543Y99.968
X296.517Y99.413
X296.442Y98.878
X296.383Y98.623
X296.305Y98.384
X296.209Y98.161
X296.095Y97.952
X295.960Y97.762
X295.803Y97.591
X295.624Y97.441
X295.423Y97.310
X295.197Y97.204
X294.945Y97.129
X294.667Y97.083
X294.361Y97.068
X293.942Y97.094
X293.557Y97.173
X293.377Y97.232
G0Z5.080
G0X293.196Y95.737
G1Z-0.750F1800.0
G1X293.619Y95.724F1200.0
X294.219Y95.749
X294.795Y95.823
X295.345Y95.946
X295.871Y96.119
X296.365Y96.335
X296.824Y96.586
X297.247Y96.874
X297.633Y97.198
X297.981Y97.555
X298.287Y97.942
X298.553Y98.360
X298.777Y98.807
X298.955Y99.278
X299.082Y99.767
X299.158Y100.272
X299.183Y100.794
X299.169Y101.169
X299.127Y101.551
X299.057Y101.941
X298.959Y102.338
X298.830Y102.740
X298.668Y103.143
X298.471Y103.547
X298.240Y103.953
X298.287Y104.024
X298.787Y103.968
X299.178Y103.942
X299.844Y103.930
X300.239Y103.936
X300.928Y103.977
X301.329Y105.345
X300.586Y105.321
X299.879
X298.728Y105.342
X297.775Y105.404
X296.974Y105.489
X296.283Y105.580
X295.140Y105.757
X294.621Y105.819
X294.078Y105.840
X293.583Y105.820
X293.088Y105.762
X292.593Y105.664
X292.098Y105.527
X291.616Y105.350
X291.159Y105.131
X290.728Y104.870
X290.323Y104.566
X289.950Y104.221
X289.612Y103.833
X289.310Y103.401
X289.044Y102.928
X288.928Y102.674
X288.828Y102.410
X288.743Y102.134
X288.673Y101.846
X288.619Y101.547
X288.580Y101.237
X288.557Y100.915
X288.549Y100.582
X288.559Y100.227
X288.588Y99.881
X288.636Y99.545
X288.704Y99.218
X288.791Y98.901
X288.897Y98.593
X289.023Y98.295
X289.168Y98.005
X289.333Y97.729
X289.516Y97.470
X289.719Y97.228
X289.942Y97.002
X290.184Y96.793
X290.445Y96.601
X290.725Y96.425
X291.025Y96.267
X290.462Y95.734
X289.976Y95.247
X289.567Y94.799
X289.239Y94.386
X288.987Y94.003
X288.809Y93.643
X288.747Y93.471
X288.702Y93.303
X288.676Y93.138
X288.667Y92.977
X288.689Y92.726
X288.754Y92.504
X288.863Y92.311
X289.015Y92.146
X289.209Y92.002
X289.444Y91.870
X289.719Y91.751
X290.035Y91.645
X289.434Y91.168
X288.919Y90.691
X288.693Y90.454
X288.488Y90.216
X288.305Y89.978
X288.142Y89.741
X288.000Y89.504
X287.877Y89.266
X287.772Y89.028
X287.687Y88.790
X287.621Y88.552
X287.573Y88.314
X287.545Y88.076
X287.535Y87.837
X287.559Y87.454
X287.631Y87.084
X287.751Y86.726
X287.918Y86.381
X288.130Y86.053
X288.383Y85.747
X288.676Y85.463
X289.009Y85.202
X289.381Y84.965
X289.790Y84.754
X290.236Y84.570
X290.718Y84.412
X291.234Y84.286
X291.780Y84.195
X292.354Y84.141
X292.958Y84.123
X293.496Y84.137
X294.024Y84.179
X294.542Y84.249
X295.051Y84.347
X295.548Y84.470
X296.030Y84.615
X296.497Y84.783
X296.949Y84.972
X297.385Y85.182
X297.801Y85.413
X298.198Y85.663
X298.576Y85.933
X298.931Y86.220
X299.260Y86.522
X299.562Y86.839
X299.838Y87.171
X300.086Y87.516
X300.305Y87.874
X300.495Y88.244
X300.657Y88.627
X300.786Y89.019
X300.878Y89.417
X300.933Y89.820
X300.952Y90.230
X300.934Y90.628
X300.881Y90.995
X300.793Y91.332
X300.669Y91.639
X300.515Y91.919
X300.334Y92.175
X300.128Y92.408
X299.897Y92.618
X299.642Y92.805
X299.368Y92.971
X299.073Y93.117
X298.759Y93.242
X298.091Y93.449
X297.385Y93.608
X296.652Y93.724
X295.900Y93.802
X294.420Y93.909
X293.165Y94.009
X292.634Y94.074
X292.186Y94.162
X291.825Y94.278
X291.679Y94.349
X291.556Y94.427
X291.458Y94.516
X291.388Y94.619
X291.346Y94.735
X291.332Y94.864
X291.342Y94.982
X291.374Y95.102
X291.428Y95.224
X291.502Y95.347
X291.716Y95.618
X292.015Y95.936
X292.394Y95.844
X292.788Y95.777
X293.196Y95.737
G1Z-1.500F1800.0
G1X293.619Y95.724F1200.0
X294.219Y95.749
X294.795Y95.823
X295.345Y95.946
X295.871Y96.119
X296.365Y96.335
X296.824Y96.586
X297.247Y96.874
X297.633Y97.198
X297.981Y97.555
X298.287Y97.942
X298.553Y98.360
X298.777Y98.807
X298.955Y99.278
X299.082Y99.767
X299.158Y100.272
X299.183Y100.794
X299.169Y101.169
X299.127Y101.551
X299.057Y101.941
X298.959Y102.338
X298.830Y102.740
X298.668Y103.143
X298.471Y103.547
X298.240Y103.953
X298.287Y104.024
X298.787Y103.968
X299.178Y103.942
X299.844Y103.930
X300.239Y103.936
X300.928Y103.977
X301.329Y105.345
X300.586Y105.321
X299.879
X298.728Y105.342
X297.775Y105.404
X296.974Y105.489
X296.283Y105.580
X295.140Y105.757
X294.621Y105.819
X294.078Y105.840
X293.583Y105.820
X293.088Y105.762
X292.593Y105.664
X292.098Y105.527
X291.616Y105.350
X291.159Y105.131
X290.728Y104.870
X290.323Y104.566
X289.950Y104.221
X289.612Y103.833
X289.310Y103.401
X289.044Y102.928
X288.928Y102.674
X288.828Y102.410
X288.743Y102.134
X288.673Y101.846
X288.619Y101.547
X288.580Y101.237
X288.557Y100.915
X288.549Y100.582
X288.559Y100.227
X288.588Y99.881
X288.636Y99.545
X288.704Y99.218
X288.791Y98.901
X288.897Y98.593
X289.023Y98.295
X289.168Y98.005
X289.333Y97.729
X289.516Y97.470
X289.719Y97.228
X289.942Y97.002
X290.184Y96.793
X290.445Y96.601
X290.725Y96.425
X291.025Y96.267
X290.462Y95.734
X289.976Y95.247
X289.567Y94.799
X289.239Y94.386
X288.987Y94.003
X288.809Y93.643
X288.747Y93.471
X288.702Y93.303
X288.676Y93.138
X288.667Y92.977
X288.689Y92.726
X288.754Y92.504
X288.863Y92.311
X289.015Y92.146
X289.209Y92.002
X289.444Y91.870
X289.719Y91.751
X290.035Y91.645
X289.434Y91.168
X288.919Y90.691
X288.693Y90.454
X288.488Y90.216
X288.305Y89.978
X288.142Y89.741
X288.000Y89.504
X287.877Y89.266
X287.772Y89.028
X287.687Y88.790
X287.621Y88.552
X287.573Y88.314
X287.545Y88.076
X287.535Y87.837
X287.559Y87.454
X287.631Y87.084
X287.751Y86.726
X287.918Y86.381
X288.130Y86.053
X288.383Y85.747
X288.676Y85.463
X289.009Y85.202
X289.381Y84.965
X289.790Y84.754
X290.236Y84.570
X290.718Y84.412
X291.234Y84.286
X291.780Y84.195
X292.354Y84.141
X292.958Y84.123
X293.496Y84.137
X294.024Y84.179
X294.542Y84.249
X295.051Y84.347
X295.548Y84.470
X296.030Y84.615
X296.497Y84.783
X296.949Y84.972
X297.385Y85.182
X297.801Y85.413
X298.198Y85.663
X298.576Y85.933
X298.931Y86.220
X299.260Y86.522
X299.562Y86.839
X299.838Y87.171
X300.086Y87.516
X300.305Y87.874
X300.495Y88.244
X300.657Y88.627
X300.786Y89.019
X300.878Y89.417
X300.933Y89.820
X300.952Y90.230
X300.934Y90.628
X300.881Y90.995
X300.793Y91.332
X300.669Y91.639
X300.515Y91.919
X300.334Y92.175
X300.128Y92.408
X299.897Y92.618
X299.642Y92.805
X299.368Y92.971
X299.073Y93.117
X298.759Y93.242
X298.091Y93.449
X297.385Y93.608
X296.652Y93.724
X295.900Y93.802
X294.420Y93.909
X293.165Y94.009
X292.634Y94.074
X292.186Y94.162
X291.825Y94.278
X291.679Y94.349
X291.556Y94.427
X291.458Y94.516
X291.388Y94.619
X291.346Y94.735
X291.332Y94.864
X291.342Y94.982
X291.374Y95.102
X291.428Y95.224
X291.502Y95.347
X291.716Y95.618
X292.015Y95.936
X292.394Y95.844
X292.788Y95.777
X293.196Y95.737
G0Z5.080
G0X305.568Y97.964
G1Z-0.750F1800.0
G1X305.452Y98.535F1200.0
X305.369Y99.105
X305.319Y99.673
X305.302Y100.240
X305.311Y100.616
X305.336Y100.990
X305.379Y101.361
X305.438Y101.731
X305.519Y102.090
X305.625Y102.430
X305.757Y102.750
X305.915Y103.051
X306.101Y103.329
X306.318Y103.579
X306.564Y103.801
X306.841Y103.995
X307.152Y104.152
X307.503Y104.264
X307.892Y104.332
X308.320Y104.354
X308.601Y104.345
X308.872Y104.318
X309.133Y104.272
X309.383Y104.208
X309.623Y104.126
X309.853Y104.026
X310.074Y103.907
X310.283Y103.771
X310.674Y103.457
X311.028Y103.100
X311.343Y102.700
X311.622Y102.256
X311.864Y101.777
X312.073Y101.271
X312.247Y100.739
X312.388Y100.181
X312.496Y99.610
X312.574Y99.040
X312.620Y98.472
X312.635Y97.905
X312.627Y97.524
X312.603Y97.145
X312.563Y96.769
X312.506Y96.396
X312.429Y96.035
X312.327Y95.695
X312.202Y95.375
X312.052Y95.076
X311.875Y94.801
X311.667Y94.554
X311.430Y94.335
X311.162Y94.144
X310.859Y93.990
X310.516Y93.879
X310.134Y93.813
X309.712Y93.791
X309.436Y93.800
X309.170Y93.827
X308.912Y93.873
X308.664Y93.937
X308.424Y94.019
X308.194Y94.119
X307.973Y94.237
X307.760Y94.374
X307.363Y94.688
X307.000Y95.045
X306.673Y95.445
X306.381Y95.889
X306.125Y96.368
X305.904Y96.874
X305.718Y97.406
X305.568Y97.964
G1Z-1.500F1800.0
G1X305.452Y98.535F1200.0
X305.369Y99.105
X305.319Y99.673
X305.302Y100.240
X305.311Y100.616
X305.336Y100.990
X305.379Y101.361
X305.438Y101.731
X305.519Y102.090
X305.625Y102.430
X305.757Y102.750
X305.915Y103.051
X306.101Y103.329
X306.318Y103.579
X306.564Y103.801
X306.841Y103.995
X307.152Y104.152
X307.503Y104.264
X307.892Y104.332
X308.320Y104.354
X308.601Y104.345
X308.872Y104.318
X309.133Y104.272
X309.383Y104.208
X309.623Y104.126
X309.853Y104.026
X310.074Y103.907
X310.283Y103.771
X310.674Y103.457
X311.028Y103.100
X311.343Y102.700
X311.622Y102.256
X311.864Y101.777
X312.073Y101.271
X312.247Y100.739
X312.388Y100.181
X312.496Y99.610
X312.574Y99.040
X312.620Y98.472
X312.635Y97.905
X312.627Y97.524
X312.603Y97.145
X312.563Y96.769
X312.506Y96.396
X312.429Y96.035
X312.327Y95.695
X312.202Y95.375
X312.052Y95.076
X311.875Y94.801
X311.667Y94.554
X311.430Y94.335
X311.162Y94.144
X310.859Y93.990
X310.516Y93.879
X310.134Y93.813
X309.712Y93.791
X309.436Y93.800
X309.170Y93.827
X308.912Y93.873
X308.664Y93.937
X308.424Y94.019
X308.194Y94.119
X307.973Y94.237
X307.760Y94.374
X307.363Y94.688
X307.000Y95.045
X306.673Y95.445
X306.381Y95.889
X306.125Y96.368
X305.904Y96.874
X305.718Y97.406
X305.568Y97.964
G0Z5.080
G0X302.492Y97.594
G1Z-0.750F1800.0
G1X302.543Y97.235F1200.0
X302.610Y96.888
X302.691Y96.553
X302.787Y96.230
X302.897Y95.919
X303.154Y95.333
X303.299Y95.059
X303.454Y94.797
X303.620Y94.548
X303.797Y94.311
X303.984Y94.086
X304.182Y93.873
X304.390Y93.673
X304.606Y93.486
X304.831Y93.311
X305.064Y93.150
X305.305Y93.000
X305.555Y92.864
X305.813Y92.740
X306.080Y92.629
X306.632Y92.446
X307.203Y92.315
X307.794Y92.237
X308.403Y92.211
X308.795Y92.222
X309.194Y92.255
X309.600Y92.310
X310.012Y92.388
X310.425Y92.488
X310.833Y92.613
X311.236Y92.762
X311.633Y92.936
X312.023Y93.134
X312.403Y93.357
X312.772Y93.606
X313.131Y93.879
X313.473Y94.179
X313.792Y94.507
X314.089Y94.863
X314.363Y95.247
X314.612Y95.659
X314.834Y96.100
X315.030Y96.570
X315.200Y97.068
X315.336Y97.597
X315.434Y98.156
X315.493Y98.746
X315.512Y99.367
X315.483Y100.129
X315.447Y100.494
X315.396Y100.848
X315.330Y101.191
X315.250Y101.524
X315.156Y101.845
X315.046Y102.155
X314.792Y102.741
X314.648Y103.015
X314.494Y103.277
X314.328Y103.526
X314.152Y103.764
X313.965Y103.988
X313.767Y104.201
X313.343Y104.589
X313.118Y104.764
X312.885Y104.927
X312.642Y105.078
X312.391Y105.217
X311.863Y105.457
X311.308Y105.645
X310.733Y105.779
X310.138Y105.860
X309.523Y105.887
X309.152Y105.877
X308.771Y105.847
X308.380Y105.797
X307.979Y105.728
X307.573Y105.636
X307.171Y105.520
X306.772Y105.380
X306.375Y105.215
X305.985Y105.025
X305.604Y104.810
X305.233Y104.568
X304.872Y104.301
X304.526Y104.006
X304.200Y103.682
X303.895Y103.329
X303.610Y102.945
X303.351Y102.532
X303.120Y102.088
X302.917Y101.612
X302.744Y101.106
X302.605Y100.567
X302.505Y99.994
X302.445Y99.385
X302.426Y98.742
X302.433Y98.347
X302.455Y97.965
X302.492Y97.594
G1Z-1.500F1800.0
G1X302.543Y97.235F1200.0
X302.610Y96.888
X302.691Y96.553
X302.787Y96.230
X302.897Y95.919
X303.154Y95.333
X303.299Y95.059
X303.454Y94.797
X303.620Y94.548
X303.797Y94.311
X303.984Y94.086
X304.182Y93.873
X304.390Y93.673
X304.606Y93.486
X304.831Y93.311
X305.064Y93.150
X305.305Y93.000
X305.555Y92.864
X305.813Y92.740
X306.080Y92.629
X306.632Y92.446
X307.203Y92.315
X307.794Y92.237
X308.403Y92.211
X308.795Y92.222
X309.194Y92.255
X309.600Y92.310
X310.012Y92.388
X310.425Y92.488
X310.833Y92.613
X311.236Y92.762
X311.633Y92.936
X312.023Y93.134
X312.403Y93.357
X312.772Y93.606
X313.131Y93.879
X313.473Y94.179
X313.792Y94.507
X314.089Y94.863
X314.363Y95.247
X314.612Y95.659
X314.834Y96.100
X315.030Y96.570
X315.200Y97.068
X315.336Y97.597
X315.434Y98.156
X315.493Y98.746
X315.512Y99.367
X315.483Y100.129
X315.447Y100.494
X315.396Y100.848
X315.330Y101.191
X315.250Y101.524
X315.156Y101.845
X315.046Y102.155
X314.792Y102.741
X314.648Y103.015
X314.494Y103.277
X314.328Y103.526
X314.152Y103.764
X313.965Y103.988
X313.767Y104.201
X313.343Y104.589
X313.118Y104.764
X312.885Y104.927
X312.642Y105.078
X312.391Y105.217
X311.863Y105.457
X311.308Y105.645
X310.733Y105.779
X310.138Y105.860
X309.523Y105.887
X309.152Y105.877
X308.771Y105.847
X308.380Y105.797
X307.979Y105.728
X307.573Y105.636
X307.171Y105.520
X306.772Y105.380
X306.375Y105.215
X305.985Y105.025
X305.604Y104.810
X305.233Y104.568
X304.872Y104.301
X304.526Y104.006
X304.200Y103.682
X303.895Y103.329
X303.610Y102.945
X303.351Y102.532
X303.120Y102.088
X302.917Y101.612
X302.744Y101.106
X302.605Y100.567
X302.505Y99.994
X302.445Y99.385
X302.426Y98.742
X302.433Y98.347
X302.455Y97.965
X302.492Y97.594
G0Z5.080
G0X326.969Y98.878
G1Z-0.750F1800.0
G1X326.948Y99.532F1200.0
X326.961Y100.012
X326.998Y100.483
X327.061Y100.946
X327.149Y101.401
X327.265Y101.839
X327.414Y102.250
X327.595Y102.634
X327.809Y102.993
X328.057Y103.320
X328.344Y103.614
X328.668Y103.875
X329.029Y104.101
X329.225Y104.199
X329.432Y104.284
X329.652Y104.356
X329.882Y104.415
X330.379Y104.493
X330.921Y104.519
X331.469Y104.496
X331.820Y104.457
X332.200Y104.390
X332.606Y104.289
X333.032Y104.154
X333.462Y103.974
X333.880Y103.741
Y101.631
X333.869Y99.556
Y97.575
X333.857Y95.748
X333.548Y95.417
X333.223Y95.132
X332.882Y94.892
X332.525Y94.698
X332.152Y94.549
X331.764Y94.442
X331.362Y94.378
X330.945Y94.357
X330.554Y94.375
X330.173Y94.432
X329.800Y94.526
X329.436Y94.657
X329.086Y94.828
X328.758Y95.040
X328.450Y95.294
X328.162Y95.589
X327.899Y95.926
X327.664Y96.306
X327.457Y96.730
X327.278Y97.198
X327.134Y97.711
X327.031Y98.271
X326.969Y98.878
G1Z-1.500F1800.0
G1X326.948Y99.532F1200.0
X326.961Y100.012
X326.998Y100.483
X327.061Y100.946
X327.149Y101.401
X327.265Y101.839
X327.414Y102.250
X327.595Y102.634
X327.809Y102.993
X328.057Y103.320
X328.344Y103.614
X328.668Y103.875
X329.029Y104.101
X329.225Y104.199
X329.432Y104.284
X329.652Y104.356
X329.882Y104.415
X330.379Y104.493
X330.921Y104.519
X331.469Y104.496
X331.820Y104.457
X332.200Y104.390
X332.606Y104.289
X333.032Y104.154
X333.462Y103.974
X333.880Y103.741
Y101.631
X333.869Y99.556
Y97.575
X333.857Y95.748
X333.548Y95.417
X333.223Y95.132
X332.882Y94.892
X332.525Y94.698
X332.152Y94.549
X331.764Y94.442
X331.362Y94.378
X330.945Y94.357
X330.554Y94.375
X330.173Y94.432
X329.800Y94.526
X329.436Y94.657
X329.086Y94.828
X328.758Y95.040
X328.450Y95.294
X328.162Y95.589
X327.899Y95.926
X327.664Y96.306
X327.457Y96.730
X327.278Y97.198
X327.134Y97.711
X327.031Y98.271
X326.969Y98.878
G0Z5.080
G0X324.063Y99.187
G1Z-0.750F1800.0
G1X324.034Y98.747F1200.0
X324.024Y98.294
X324.046Y97.641
X324.110Y97.015
X324.217Y96.415
X324.366Y95.842
X324.557Y95.302
X324.786Y94.800
X325.055Y94.338
X325.362Y93.914
X325.708Y93.533
X326.090Y93.197
X326.510Y92.905
X326.966Y92.659
X327.207Y92.554
X327.458Y92.463
X327.717Y92.386
X327.984Y92.323
X328.260Y92.274
X328.545Y92.239
X329.141Y92.211
X329.478Y92.220
X329.804Y92.249
X330.120Y92.297
X330.426Y92.364
X330.724Y92.450
X331.017Y92.553
X331.305Y92.674
X331.587Y92.812
X331.867Y92.969
X332.144Y93.144
X332.421Y93.337
X332.696Y93.549
X333.254Y94.025
X333.833Y94.569
X333.951Y94.545
Y94.121
X333.976Y93.702
X334.048Y93.329
X334.103Y93.161
X334.170Y93.003
X334.249Y92.858
X334.340Y92.724
X334.445Y92.604
X334.566Y92.499
X334.702Y92.411
X334.853Y92.339
X335.020Y92.283
X335.202Y92.243
X335.400Y92.219
X335.614Y92.211
X336.014Y92.234
X336.486Y92.305
X337.003Y92.416
X337.541Y92.559
X338.088Y92.733
X338.632Y92.936
X339.148Y93.164
X339.610Y93.413
X339.327Y94.168
X338.898Y94.013
X338.496Y93.903
X338.120Y93.836
X337.771Y93.814
X337.551Y93.828
X337.364Y93.867
X337.207Y93.942
X337.075Y94.062
X336.971Y94.230
X336.893Y94.451
X336.838Y94.734
X336.804Y95.088
X336.781Y95.565
X336.763Y96.485
X336.757Y98.047
Y103.753
X336.763Y106.983
X336.787Y109.960
X336.834Y112.466
X336.871Y113.479
X336.922Y114.281
X336.686Y114.446
X336.353Y114.345
X335.897Y114.228
X335.332Y114.106
X334.676Y113.986
X333.939Y113.873
X333.132Y113.768
X332.273Y113.681
X331.381Y113.621
X331.145Y112.654
X332.637Y112.636
X333.102Y112.597
X333.282Y112.560
X333.427Y112.513
X333.541Y112.452
X333.631Y112.377
X333.697Y112.287
X333.739Y112.183
X333.786Y111.914
X333.810Y111.558
X333.827Y110.467
X333.839Y109.217
X333.857Y107.655
X333.880Y105.604
X333.304Y105.728
X332.728Y105.816
X332.154Y105.869
X331.581Y105.887
X331.206Y105.879
X330.835Y105.856
X330.469Y105.817
X330.106Y105.763
X329.748Y105.693
X329.394Y105.608
X329.044Y105.508
X328.699Y105.392
X328.361Y105.261
X328.033Y105.115
X327.716Y104.954
X327.409Y104.779
X327.113Y104.589
X326.828Y104.384
X326.553Y104.164
X326.288Y103.930
X326.035Y103.681
X325.796Y103.418
X325.569Y103.142
X325.357Y102.851
X325.157Y102.546
X324.970Y102.228
X324.797Y101.895
X324.637Y101.548
X324.494Y101.188
X324.369Y100.814
X324.264Y100.428
X324.178Y100.027
X324.111Y99.614
X324.063Y99.187
G1Z-1.500F1800.0
G1X324.034Y98.747F1200.0
X324.024Y98.294
X324.046Y97.641
X324.110Y97.015
X324.217Y96.415
X324.366Y95.842
X324.557Y95.302
X324.786Y94.800
X325.055Y94.338
X325.362Y93.914
X325.708Y93.533
X326.090Y93.197
X326.510Y92.905
X326.966Y92.659
X327.207Y92.554
X327.458Y92.463
X327.717Y92.386
X327.984Y92.323
X328.260Y92.274
X328.545Y92.239
X329.141Y92.211
X329.478Y92.220
X329.804Y92.249
X330.120Y92.297
X330.426Y92.364
X330.724Y92.450
X331.017Y92.553
X331.305Y92.674
X331.587Y92.812
X331.867Y92.969
X332.144Y93.144
X332.421Y93.337
X332.696Y93.549
X333.254Y94.025
X333.833Y94.569
X333.951Y94.545
Y94.121
X333.976Y93.702
X334.048Y93.329
X334.103Y93.161
X334.170Y93.003
X334.249Y92.858
X334.340Y92.724
X334.445Y92.604
X334.566Y92.499
X334.702Y92.411
X334.853Y92.339
X335.020Y92.283
X335.202Y92.243
X335.400Y92.219
X335.614Y92.211
X336.014Y92.234
X336.486Y92.305
X337.003Y92.416
X337.541Y92.559
X338.088Y92.733
X338.632Y92.936
X339.148Y93.164
X339.610Y93.413
X339.327Y94.168
X338.898Y94.013
X338.496Y93.903
X338.120Y93.836
X337.771Y93.814
X337.551Y93.828
X337.364Y93.867
X337.207Y93.942
X337.075Y94.062
X336.971Y94.230
X336.893Y94.451
X336.838Y94.734
X336.804Y95.088
X336.781Y95.565
X336.763Y96.485
X336.757Y98.047
Y103.753
X336.763Y106.983
X336.787Y109.960
X336.834Y112.466
X336.871Y113.479
X336.922Y114.281
X336.686Y114.446
X336.353Y114.345
X335.897Y114.228
X335.332Y114.106
X334.676Y113.986
X333.939Y113.873
X333.132Y113.768
X332.273Y113.681
X331.381Y113.621
X331.145Y112.654
X332.637Y112.636
X333.102Y112.597
X333.282Y112.560
X333.427Y112.513
X333.541Y112.452
X333.631Y112.377
X333.697Y112.287
X333.739Y112.183
X333.786Y111.914
X333.810Y111.558
X333.827Y110.467
X333.839Y109.217
X333.857Y107.655
X333.880Y105.604
X333.304Y105.728
X332.728Y105.816
X332.154Y105.869
X331.581Y105.887
X331.206Y105.879
X330.835Y105.856
X330.469Y105.817
X330.106Y105.763
X329.748Y105.693
X329.394Y105.608
X329.044Y105.508
X328.699Y105.392
X328.361Y105.261
X328.033Y105.115
X327.716Y104.954
X327.409Y104.779
X327.113Y104.589
X326.828Y104.384
X326.553Y104.164
X326.288Y103.930
X326.035Y103.681
X325.796Y103.418
X325.569Y103.142
X325.357Y102.851
X325.157Y102.546
X324.970Y102.228
X324.797Y101.895
X324.637Y101.548
X324.494Y101.188
X324.369Y100.814
X324.264Y100.428
X324.178Y100.027
X324.111Y99.614
X324.063Y99.187
G0Z5.080
G0X343.359Y100.487
G1Z-0.750F1800.0
G1X343.391Y101.024F1200.0
X343.449Y101.516
X343.535Y101.962
X343.648Y102.362
X343.784Y102.721
X343.939Y103.043
X344.111Y103.328
X344.303Y103.576
X344.510Y103.789
X344.731Y103.970
X344.967Y104.117
X345.216Y104.230
X345.475Y104.316
X345.739Y104.376
X346.009Y104.413
X346.283Y104.425
X346.590Y104.411
X346.874Y104.369
X347.135Y104.299
X347.374Y104.201
X347.591Y104.079
X347.789Y103.936
X347.968Y103.772
X348.128Y103.588
X348.269Y103.385
X348.389Y103.163
X348.490Y102.925
X348.570Y102.668
X348.632Y102.399
X348.677Y102.120
X348.703Y101.833
X348.712Y101.536
X348.694Y101.153
X348.666Y100.931
X348.618Y100.699
X343.359Y100.487
G1Z-1.500F1800.0
G1X343.391Y101.024F1200.0
X343.449Y101.516
X343.535Y101.962
X343.648Y102.362
X343.784Y102.721
X343.939Y103.043
X344.111Y103.328
X344.303Y103.576
X344.510Y103.789
X344.731Y103.970
X344.967Y104.117
X345.216Y104.230
X345.475Y104.316
X345.739Y104.376
X346.009Y104.413
X346.283Y104.425
X346.590Y104.411
X346.874Y104.369
X347.135Y104.299
X347.374Y104.201
X347.591Y104.079
X347.789Y103.936
X347.968Y103.772
X348.128Y103.588
X348.269Y103.385
X348.389Y103.163
X348.490Y102.925
X348.570Y102.668
