(VECTRIC POST REV.)
(82074C4DCA892683619619E26FA56BD3)

G20 G21
G0Z20.320
G0X0.000Y0.000S14000M3
G0X171.081Y214.314
G0Z5.080
G1Z-1.300F1800.0
G1X171.112Y215.005F1500.0
X171.160Y215.668
X171.226Y216.301
X171.308Y216.906
X171.408Y217.482
X171.524Y218.029
X171.658Y218.548
X171.809Y219.038
X171.975Y219.501
X172.152Y219.942
X172.341Y220.359
X172.541Y220.753
X172.753Y221.124
X172.976Y221.472
X173.211Y221.796
X173.458Y222.097
X173.715Y222.377
X173.981Y222.635
X174.255Y222.872
X174.539Y223.089
X174.831Y223.285
X175.132Y223.459
X175.442Y223.613
X175.760Y223.746
X176.085Y223.861
X176.413Y223.961
X176.744Y224.045
X177.079Y224.114
X177.416Y224.168
X177.757Y224.206
X178.102Y224.229
X178.449Y224.236
X178.843Y224.228
X179.222Y224.201
X179.587Y224.157
X179.938Y224.095
X180.274Y224.016
X180.596Y223.919
X180.904Y223.804
X181.197Y223.672
X181.477Y223.524
X181.745Y223.364
X182.001Y223.190
X182.244Y223.004
X182.476Y222.804
X182.695Y222.591
X182.903Y222.366
X183.098Y222.127
X183.281Y221.877
X183.452Y221.615
X183.610Y221.342
X183.756Y221.058
X183.889Y220.762
X184.009Y220.456
X184.117Y220.139
X184.212Y219.810
X184.368Y219.130
X184.480Y218.429
X184.547Y217.704
X184.569Y216.958
X184.558Y216.509
X184.524Y215.993
X184.454Y215.432
X184.331Y214.849
X171.081Y214.314
G0Z5.080
G0X171.141Y211.640
G1Z-1.300F1800.0
G1X191.223Y212.472F1500.0
X191.378Y213.110
X191.517Y213.746
X191.638Y214.380
X191.743Y215.012
X191.828Y215.648
X191.888Y216.293
X191.924Y216.948
X191.936Y217.612
X191.928Y218.128
X191.904Y218.638
X191.863Y219.142
X191.806Y219.639
X191.733Y220.130
X191.644Y220.614
X191.538Y221.092
X191.417Y221.563
X191.276Y222.023
X191.115Y222.470
X190.933Y222.902
X190.730Y223.319
X190.506Y223.722
X190.261Y224.111
X189.995Y224.486
X189.708Y224.845
X189.399Y225.189
X189.065Y225.515
X188.706Y225.822
X188.323Y226.112
X187.915Y226.383
X187.483Y226.636
X187.026Y226.871
X186.544Y227.088
X186.036Y227.283
X185.500Y227.452
X184.935Y227.595
X184.342Y227.712
X183.721Y227.803
X183.071Y227.868
X182.393Y227.907
X181.687Y227.920
X180.864Y227.902
X180.044Y227.848
X179.227Y227.757
X178.412Y227.631
X177.600Y227.468
X176.791Y227.269
X175.985Y227.033
X175.181Y226.762
X174.389Y226.453
X173.619Y226.107
X172.869Y225.723
X172.140Y225.302
X171.432Y224.843
X170.744Y224.347
X170.078Y223.813
X169.433Y223.241
X168.813Y222.632
X168.224Y221.985
X167.665Y221.301
X167.138Y220.579
X166.641Y219.819
X166.174Y219.022
X165.738Y218.187
X165.333Y217.315
X164.967Y216.404
X164.651Y215.454
X164.383Y214.465
X164.163Y213.438
X163.993Y212.371
X163.871Y211.265
X163.798Y210.121
X163.773Y208.937
X163.793Y207.881
X163.851Y206.868
X163.949Y205.896
X164.085Y204.967
X164.261Y204.080
X164.475Y203.236
X164.729Y202.433
X165.021Y201.673
X165.345Y200.952
X165.693Y200.266
X166.065Y199.615
X166.462Y199.000
X166.882Y198.419
X167.327Y197.874
X167.796Y197.365
X168.289Y196.890
X168.802Y196.450
X169.332Y196.041
X169.879Y195.664
X170.443Y195.319
X171.023Y195.007
X171.620Y194.726
X172.234Y194.478
X172.864Y194.261
X173.504Y194.073
X174.145Y193.910
X174.788Y193.772
X175.434Y193.660
X176.081Y193.572
X176.730Y193.509
X177.380Y193.472
X178.033Y193.459
X178.961Y193.482
X179.889Y193.552
X180.816Y193.668
X181.743Y193.830
X182.669Y194.039
X183.595Y194.295
X184.520Y194.596
X185.445Y194.944
X186.370Y195.339
X187.294Y195.780
X188.217Y196.267
X189.140Y196.801
X190.063Y197.381
X190.985Y198.008
X191.906Y198.681
X192.828Y199.401
X191.639Y201.361
X190.306Y200.708
X189.099Y200.173
X188.535Y199.946
X187.985Y199.742
X187.451Y199.560
X186.931Y199.401
X186.421Y199.263
X185.917Y199.148
X185.418Y199.055
X184.925Y198.985
X184.431Y198.933
X183.930Y198.896
X183.421Y198.873
X182.905Y198.866
X182.266Y198.877
X181.642Y198.910
X181.032Y198.966
X180.436Y199.044
X179.854Y199.144
X179.287Y199.267
X178.735Y199.412
X178.196Y199.579
X177.675Y199.770
X177.172Y199.986
X176.687Y200.228
X176.221Y200.496
X175.773Y200.789
X175.345Y201.108
X174.934Y201.452
X174.542Y201.822
X174.170Y202.218
X173.818Y202.642
X173.487Y203.095
X173.176Y203.575
X172.885Y204.082
X172.615Y204.618
X172.365Y205.182
X172.136Y205.773
X171.929Y206.394
X171.745Y207.048
X171.585Y207.733
X171.449Y208.450
X171.337Y209.200
X171.248Y209.981
X171.182Y210.795
X171.141Y211.640
G0Z5.080
G0X205.260Y204.213
G1Z-1.300F1800.0
G1X205.336Y204.516F1500.0
X205.428Y204.815
X205.536Y205.110
X205.662Y205.402
X205.808Y205.689
X205.982Y205.973
X206.182Y206.252
X206.408Y206.527
X206.661Y206.798
X206.940Y207.064
X207.246Y207.327
X207.578Y207.585
X207.938Y207.839
X208.328Y208.089
X208.747Y208.335
X209.197Y208.577
X209.676Y208.814
X210.185Y209.047
X210.723Y209.276
X211.291Y209.501
X211.894Y209.722
X212.538Y209.939
X213.222Y210.153
X213.946Y210.363
X215.516Y210.771
X217.248Y211.165
X217.177Y208.380
X217.084Y206.025
X216.891Y202.134
X216.780Y201.980
X216.594Y201.785
X216.334Y201.549
X216.000Y201.272
X215.608Y200.973
X215.176Y200.671
X214.702Y200.364
X214.188Y200.054
X213.640Y199.752
X213.066Y199.471
X212.467Y199.210
X211.841Y198.970
X211.208Y198.768
X210.586Y198.624
X209.975Y198.538
X209.375Y198.509
X208.989Y198.524
X208.603Y198.569
X208.216Y198.643
X207.830Y198.747
X207.455Y198.884
X207.102Y199.059
X206.772Y199.271
X206.464Y199.519
X206.180Y199.806
X205.925Y200.132
X205.698Y200.497
X205.498Y200.901
X205.336Y201.347
X205.220Y201.840
X205.150Y202.380
X205.127Y202.966
X205.135Y203.283
X205.160Y203.597
X205.202Y203.907
X205.260Y204.213
G0Z5.080
G0X202.334Y208.157
G1Z-1.300F1800.0
G1X201.915Y207.867F1500.0
X201.510Y207.568
X201.120Y207.262
X200.745Y206.946
X200.387Y206.622
X200.049Y206.289
X199.730Y205.947
X199.430Y205.595
X199.150Y205.234
X198.890Y204.863
X198.649Y204.483
X198.428Y204.094
X198.229Y203.695
X198.057Y203.285
X197.912Y202.863
X197.793Y202.431
X197.700Y201.987
X197.634Y201.532
X197.594Y201.066
X197.581Y200.589
X197.590Y200.213
X197.615Y199.844
X197.658Y199.482
X197.718Y199.126
X197.796Y198.776
X197.890Y198.433
X198.002Y198.097
X198.131Y197.767
X198.275Y197.445
X198.432Y197.135
X198.603Y196.836
X198.788Y196.549
X198.986Y196.272
X199.197Y196.006
X199.422Y195.752
X199.661Y195.509
X199.912Y195.277
X200.176Y195.059
X200.452Y194.852
X200.741Y194.658
X201.043Y194.477
X201.357Y194.308
X201.683Y194.152
X202.022Y194.009
X202.372Y193.880
X202.731Y193.768
X203.098Y193.674
X203.474Y193.596
X203.859Y193.536
X204.253Y193.493
X204.656Y193.468
X205.067Y193.459
X205.773Y193.483
X206.479Y193.556
X207.186Y193.676
X207.893Y193.845
X208.601Y194.062
X209.309Y194.328
X210.018Y194.642
X210.727Y195.004
X211.440Y195.410
X212.161Y195.854
X212.890Y196.338
X213.627Y196.861
X214.372Y197.422
X215.124Y198.023
X215.885Y198.663
X216.653Y199.341
X216.832
Y197.559
X216.846Y197.175
X216.887Y196.797
X216.957Y196.425
X217.055Y196.058
X217.183Y195.704
X217.344Y195.368
X217.539Y195.050
X217.768Y194.751
X218.030Y194.476
X218.328Y194.228
X218.662Y194.008
X219.030Y193.815
X219.439Y193.660
X219.892Y193.548
X220.389Y193.481
X220.931Y193.459
X221.401Y193.474
X221.919Y193.518
X222.486Y193.593
X223.100Y193.697
X223.746Y193.826
X224.407Y193.975
X225.083Y194.145
X225.774Y194.335
X226.470Y194.545
X227.163Y194.774
X227.852Y195.021
X228.537Y195.286
X229.201Y195.567
X229.829Y195.862
X230.419Y196.169
X230.973Y196.489
X230.260Y198.391
X229.699Y198.182
X229.161Y198.001
X228.644Y197.847
X228.150Y197.722
X227.679Y197.625
X227.230Y197.555
X226.802Y197.513
X226.398Y197.499
X226.110Y197.509
X225.841Y197.536
X225.590Y197.583
X225.358Y197.648
X225.144Y197.735
X224.949Y197.848
X224.773Y197.988
X224.615Y198.153
X224.476Y198.348
X224.355Y198.576
X224.253Y198.838
X224.170Y199.133
X224.105Y199.467
X224.058Y199.846
X224.030Y200.270
X224.021Y200.737
X224.066Y202.416
X224.170Y204.956
X224.318Y207.956
X224.467Y211.016
X224.571Y213.735
X224.604Y214.845
X224.615Y215.710
X224.587Y216.756
X224.504Y217.812
X224.365Y218.880
X224.170Y219.959
X224.048Y220.494
X223.906Y221.018
X223.743Y221.529
X223.561Y222.027
X223.357Y222.513
X223.134Y222.986
X222.889Y223.447
X222.625Y223.895
X222.338Y224.327
X222.028Y224.739
X221.694Y225.131
X221.336Y225.503
X220.955Y225.855
X220.550Y226.187
X220.121Y226.499
X219.669Y226.791
X219.190Y227.056
X218.682Y227.285
X218.145Y227.479
X217.578Y227.638
X216.982Y227.762
X216.357Y227.850
X215.703Y227.903
X215.020Y227.920
X214.123Y227.891
X213.215Y227.805
X212.296Y227.661
X211.365Y227.460
X210.436Y227.209
X209.520Y226.918
X208.617Y226.585
X207.726Y226.212
X206.854Y225.803
X206.003Y225.362
X205.175Y224.889
X204.369Y224.385
X203.600Y223.858
X202.880Y223.316
X202.211Y222.758
X201.592Y222.187
X201.028Y221.605
X200.526Y221.021
X200.085Y220.432
X199.705Y219.840
X199.541Y219.544
X199.400Y219.251
X199.280Y218.961
X199.181Y218.674
X199.105Y218.389
X199.051Y218.107
X199.018Y217.828
X199.007Y217.552
X199.025Y217.205
X199.077Y216.876
X199.166Y216.566
X199.289Y216.275
X199.442Y216.003
X199.620Y215.751
X199.821Y215.520
X200.047Y215.309
X200.294Y215.121
X200.559Y214.956
X200.843Y214.816
X201.146Y214.700
X201.463Y214.609
X201.792Y214.544
X202.132Y214.505
X202.483Y214.492
X202.825Y214.504
X203.170Y214.541
X203.516Y214.601
X203.864Y214.685
X204.210Y214.790
X204.547Y214.912
X204.878Y215.050
X205.201Y215.205
X205.513Y215.376
X205.810Y215.562
X206.092Y215.762
X206.360Y215.978
X206.608Y216.204
X206.831Y216.438
X207.031Y216.680
X207.206Y216.928
X206.778Y217.340
X206.415Y217.742
X206.117Y218.134
X205.884Y218.518
X205.709Y218.901
X205.584Y219.294
X205.508Y219.696
X205.483Y220.107
X205.502Y220.475
X205.558Y220.822
X205.652Y221.147
X205.784Y221.451
X205.953Y221.734
X206.160Y221.995
X206.404Y222.235
X206.686Y222.454
X207.004Y222.649
X207.356Y222.818
X207.741Y222.961
X208.161Y223.078
X208.614Y223.169
X209.101Y223.234
X209.622Y223.273
X210.177Y223.286
X210.935Y223.258
X211.663Y223.174
X212.015Y223.112
X212.361Y223.035
X212.699Y222.945
X213.029Y222.840
X213.351Y222.720
X213.661Y222.581
X213.961Y222.425
X214.251Y222.250
X214.530Y222.057
X214.798Y221.846
X215.055Y221.617
X215.302Y221.370
X215.537Y221.103
X215.759Y220.816
X215.967Y220.509
X216.163Y220.181
X216.346Y219.833
X216.516Y219.465
X216.673Y219.076
X216.817Y218.666
X216.946Y218.234
X217.057Y217.776
X217.152Y217.292
X217.229Y216.783
X217.289Y216.249
X217.332Y215.689
X217.358Y215.103
X217.366Y214.492
Y213.601
X215.135Y213.066
X212.836Y212.472
X211.678Y212.149
X210.537Y211.804
X209.413Y211.436
X208.306Y211.046
X207.222Y210.632
X206.170Y210.192
X205.150Y209.726
X204.161Y209.234
X203.218Y208.712
X202.334Y208.157
G0Z5.080
G0X144.079Y225.327
G1Z-1.300F1800.0
G1X144.197Y225.797F1500.0
X144.296Y226.287
X144.378Y226.795
X144.441Y227.323
X144.486Y227.869
X144.513Y228.435
X144.522Y229.019
X144.509Y229.719
X144.470Y230.392
X144.403Y231.037
X144.311Y231.656
X144.192Y232.248
X144.046Y232.813
X143.874Y233.351
X143.676Y233.862
X143.453Y234.348
X143.206Y234.812
X142.936Y235.252
X142.643Y235.670
X142.327Y236.066
X141.988Y236.438
X141.625Y236.788
X141.240Y237.115
X140.831Y237.420
X140.400Y237.703
X139.947Y237.964
X139.472Y238.203
X138.975Y238.420
X138.455Y238.616
X137.912Y238.790
X137.348Y238.942
X136.763Y239.074
X136.161Y239.189
X135.540Y239.286
X134.901Y239.365
X134.244Y239.427
X133.569Y239.471
X132.875Y239.498
X132.164Y239.506
X131.362Y239.495
X130.619Y239.462
X128.955Y239.328
X128.903Y237.535
X128.866Y235.600
X128.844Y233.457
X128.837Y231.040
Y217.879
X129.668
X130.601Y217.889
X131.529Y217.920
X132.451Y217.971
X133.367Y218.042
X134.270Y218.141
X135.150Y218.273
X136.007Y218.438
X136.843Y218.637
X137.652Y218.874
X138.432Y219.156
X139.182Y219.483
X139.903Y219.855
X140.250Y220.058
X140.584Y220.276
X140.907Y220.508
X141.217Y220.753
X141.516Y221.013
X141.802Y221.286
X142.077Y221.573
X142.339Y221.875
X142.588Y222.191
X142.824Y222.525
X143.045Y222.875
X143.252Y223.241
X143.446Y223.625
X143.626Y224.025
X143.791Y224.442
X143.943Y224.875
X144.079Y225.327
G0Z5.080
G0X147.914Y220.407
G1Z-1.300F1800.0
G1X147.468Y220.076F1500.0
X147.006Y219.758
X146.528Y219.453
X146.036Y219.162
X145.535Y218.883
X145.024Y218.617
X144.504Y218.362
X143.433Y217.888
X142.324Y217.463
X144.493Y213.582
X146.424Y210.199
X147.313Y208.683
X148.169Y207.269
X148.992Y205.958
X149.781Y204.748
X150.546Y203.637
X151.296Y202.620
X152.031Y201.698
X152.752Y200.871
X153.110Y200.490
X153.471Y200.128
X153.836Y199.785
X154.204Y199.460
X154.575Y199.154
X154.949Y198.866
X155.327Y198.597
X155.708Y198.346
X156.094Y198.112
X156.487Y197.895
X156.888Y197.693
X157.297Y197.507
X157.713Y197.336
X158.136Y197.182
X158.567Y197.043
X159.005Y196.920
X159.918Y196.713
X160.888Y196.552
X161.916Y196.438
X163.001Y196.370
X161.991Y194.053
X161.190Y193.928
X160.390Y193.819
X159.593Y193.727
X158.797Y193.652
X157.323Y193.552
X156.672Y193.527
X156.079Y193.518
X155.514Y193.527
X154.962Y193.552
X154.424Y193.594
X153.899Y193.652
X153.388Y193.727
X152.890Y193.819
X152.406Y193.928
X151.935Y194.053
X151.475Y194.195
X151.023Y194.353
X150.580Y194.527
X150.145Y194.718
X149.718Y194.925
X149.300Y195.148
X148.890Y195.387
X148.488Y195.643
X148.094Y195.914
X147.704Y196.202
X147.319Y196.507
X146.940Y196.827
X146.566Y197.164
X146.196Y197.517
X145.473Y198.272
X144.759Y199.092
X144.043Y199.980
X143.326Y200.934
X142.606Y201.955
X141.882Y203.042
X141.151Y204.191
X140.412Y205.403
X139.665Y206.679
X136.382Y212.413
X135.610Y213.779
X135.354Y214.177
X135.120Y214.477
X134.890Y214.700
X134.645Y214.864
X134.385Y214.975
X134.110Y215.042
X133.809Y215.075
X133.471Y215.086
X132.847
X132.424Y215.064
X131.926Y215.057
X130.649
X129.810Y215.034
X128.837Y215.027
X128.852Y205.327
X128.867Y203.577
X128.900Y202.056
X128.949Y200.763
X129.015Y199.698
X129.050Y199.303
X129.097Y198.951
X129.154Y198.642
X129.223Y198.376
X129.268Y198.256
X129.331Y198.142
X129.409Y198.033
X129.505Y197.930
X129.746Y197.741
X130.055Y197.574
X130.444Y197.426
X130.927Y197.295
X131.506Y197.181
X132.179Y197.083
X132.974Y196.994
X133.920Y196.905
X136.264Y196.727
X135.075Y194.053
X134.206Y194.139
X133.144Y194.217
X130.619Y194.350
X129.230Y194.402
X127.797Y194.439
X125.034Y194.469
X122.984Y194.450
X121.053Y194.395
X119.293Y194.317
X117.756Y194.231
X116.463Y194.142
X115.438Y194.053
X114.339Y193.994
X114.365Y194.317
X114.443Y194.751
X114.526Y194.999
X114.670Y195.253
X114.875Y195.512
X115.141Y195.776
X115.301Y195.909
X115.483Y196.038
X115.914Y196.289
X116.434Y196.528
X117.043Y196.757
X117.387Y196.864
X117.765Y196.963
X118.625Y197.135
X119.622Y197.275
X120.756Y197.380
X120.864Y198.851
X120.949Y200.589
X121.016Y202.550
X121.068Y204.689
X121.101Y206.976
X121.113Y209.382
Y234.307
X121.098Y236.729
X121.053Y238.556
X119.267Y238.307
X117.473Y238.036
X115.702Y237.742
X113.983Y237.427
X114.696Y240.398
X115.683Y240.633
X116.742Y240.862
X117.873Y241.086
X119.078Y241.304
X120.329Y241.512
X121.603Y241.705
X122.899Y241.883
X124.217Y242.046
X125.547Y242.194
X126.880Y242.325
X128.214Y242.439
X129.550Y242.537
X130.864Y242.615
X132.134Y242.670
X133.360Y242.704
X134.541Y242.715
X135.628Y242.703
X136.720Y242.667
X137.819Y242.606
X138.923Y242.522
X140.018Y242.406
X141.091Y242.251
X142.142Y242.057
X143.171Y241.824
X144.173Y241.549
X145.146Y241.229
X146.090Y240.866
X147.003Y240.457
X147.445Y240.234
X147.872Y239.996
X148.284Y239.742
X148.682Y239.473
X149.064Y239.189
X149.432Y238.889
X149.785Y238.574
X150.122Y238.244
X150.444Y237.898
X150.748Y237.535
X151.035Y237.157
X151.303Y236.762
X151.554Y236.351
X151.788Y235.924
X152.004Y235.480
X152.202Y235.020
X152.380Y234.543
X152.533Y234.046
X152.664Y233.529
X152.770Y232.993
X152.853Y232.437
X152.912Y231.862
X152.948Y231.268
X152.960Y230.653
X152.947Y230.015
X152.908Y229.393
X152.845Y228.786
X152.755Y228.195
X152.640Y227.620
X152.500Y227.061
X152.334Y226.517
X152.143Y225.989
X151.929Y225.476
X151.696Y224.977
X151.444Y224.492
X151.173Y224.021
X150.883Y223.564
X150.575Y223.121
X150.247Y222.691
X149.900Y222.276
X149.535Y221.874
X149.154Y221.487
X148.757Y221.113
X148.344Y220.753
X147.914Y220.407
G0Z5.080
G1Z-1.300F1800.0
G1X148.344Y220.753F1500.0
X148.757Y221.113
X149.154Y221.487
X149.535Y221.874
X149.900Y222.276
X150.247Y222.691
X150.575Y223.121
X150.883Y223.564
X151.173Y224.021
X151.444Y224.492
X151.696Y224.977
X151.929Y225.476
X152.143Y225.989
X152.334Y226.517
X152.500Y227.061
X152.640Y227.620
X152.755Y228.195
X152.845Y228.786
X152.908Y229.393
X152.947Y230.015
X152.960Y230.653
X152.948Y231.268
X152.912Y231.862
X152.853Y232.437
X152.770Y232.993
X152.664Y233.529
X152.533Y234.046
X152.380Y234.543
X152.202Y235.020
X152.004Y235.480
X151.788Y235.924
X151.554Y236.351
X151.303Y236.762
X151.035Y237.157
X150.748Y237.535
X150.444Y237.898
X150.122Y238.244
X149.785Y238.574
X149.432Y238.889
X149.064Y239.189
X148.682Y239.473
X148.284Y239.742
X147.872Y239.996
X147.445Y240.234
X147.003Y240.457
X146.406Y240.730
X145.794Y240.979
X145.794Y241.447
X145.794Y242.005
X145.170Y243.244
X144.546Y244.483
X144.313Y245.847
X144.081Y247.210
X143.448Y249.110
X142.814Y251.010
Y252.132
Y253.254
X143.946Y255.356
X145.078Y257.457
X145.758Y259.313
X146.438Y261.169
X147.310Y262.595
X148.182Y264.022
X148.488Y265.778
X148.794Y267.534
X149.305Y268.421
X149.817Y269.308
X150.728Y269.710
X151.639Y270.113
X154.656Y270.606
X157.673Y271.099
X158.770Y271.519
X159.867Y271.939
X161.854Y273.123
X163.840Y274.307
X166.691Y276.501
X169.541Y278.695
X169.776Y279.249
X170.011Y279.802
X169.311Y281.847
X168.611Y283.892
X167.302Y285.875
X165.993Y287.858
X163.483Y290.460
X160.973Y293.063
X160.692Y293.591
X160.410Y294.119
X156.838Y296.190
X153.265Y298.260
X151.441Y298.264
X149.618Y298.268
X149.045Y297.401
X148.473Y296.533
X147.912Y295.471
X147.351Y294.408
X147.768Y293.825
X148.185Y293.241
X150.218Y293.087
X152.251Y292.933
X153.965Y292.790
X155.679Y292.646
X156.546Y291.276
X157.413Y289.905
X157.895Y288.520
X158.377Y287.134
X158.391Y285.266
X158.406Y283.397
X158.679Y282.338
X158.953Y281.279
X158.582Y281.107
X158.211Y280.936
X156.225Y281.002
X154.238Y281.069
X153.008Y280.684
X151.779Y280.300
X150.577Y279.510
X149.375Y278.720
X145.681Y278.702
X141.986Y278.685
X140.980Y278.273
X139.973Y277.861
X138.662Y276.831
X137.351Y275.802
X135.632Y275.944
X133.914Y276.086
X132.983Y276.351
X132.053Y276.616
X132.632Y276.858
X133.211Y277.101
Y277.951
Y278.800
X132.384Y280.446
X131.556Y282.092
Y282.549
Y283.006
X130.906Y283.459
X130.256Y283.912
X129.769Y284.770
X129.283Y285.627
X127.191Y287.156
X125.099Y288.684
X123.774Y288.951
X122.450Y289.219
X121.261Y289.219
X120.072Y289.220
X118.115Y288.476
X116.159Y287.731
X115.074Y287.051
X113.989Y286.370
X113.505Y285.007
X113.021Y283.644
X113.017Y282.830
X113.013Y282.017
X113.526Y281.099
X114.038Y280.180
X114.767Y279.595
X115.496Y279.010
X116.678Y278.556
X117.860Y278.103
X119.568Y277.092
X121.276Y276.082
X121.780Y275.352
X122.285Y274.622
Y274.064
Y273.507
X120.659Y272.365
X119.034Y271.222
X117.385Y271.204
X115.736Y271.185
X114.090Y270.776
X112.444Y270.367
X111.132Y269.526
X109.821Y268.686
X108.810Y267.242
X107.799Y265.798
X107.593Y265.138
X107.386Y264.477
X106.016Y263.665
X104.646Y262.853
X104.067Y261.885
X103.487Y260.916
X102.502Y261.994
X101.517Y263.072
X101.008Y263.815
X100.499Y264.559
X100.259Y265.995
X100.019Y267.431
X101.411Y268.350
X102.803Y269.268
X104.597Y270.608
X106.391Y271.948
Y272.143
Y272.338
X105.720Y273.189
X105.048Y274.041
X103.357Y274.567
X101.667Y275.093
X100.204
X98.196Y272.537
X96.187Y269.981
X95.627Y269.005
X95.068Y268.029
X94.745Y265.674
X94.423Y263.319
X94.251Y260.925
X94.079Y258.531
X94.448Y256.749
X94.817Y254.968
X95.958Y253.144
X97.099Y251.320
X97.969Y250.893
X98.839Y250.466
X100.876Y250.461
X102.914Y250.455
X107.218Y252.112
X111.523Y253.769
X112.742Y254.641
X113.962Y255.512
X115.186Y256.631
X116.411Y257.750
X116.830Y257.490
X117.249Y257.229
X118.939Y255.038
X120.629Y252.846
Y251.312
Y249.777
X120.103Y247.626
X119.577Y245.474
X118.613Y243.566
X117.649Y241.658
Y241.273
Y241.041
X116.101Y240.725
X114.696Y240.398
X113.983Y237.427
X115.702Y237.742
X117.473Y238.036
X119.267Y238.307
X121.053Y238.556
X121.098Y236.729
X121.113Y234.307
Y209.382
X121.101Y206.976
X121.068Y204.689
X121.016Y202.550
X120.949Y200.589
X120.864Y198.851
X120.756Y197.380
X119.622Y197.275
X118.625Y197.135
X117.765Y196.963
X117.387Y196.864
X117.043Y196.757
X116.434Y196.528
X115.914Y196.289
X115.483Y196.038
X115.301Y195.909
X115.141Y195.776
X114.875Y195.512
X114.670Y195.253
X114.526Y194.999
X114.443Y194.751
X114.365Y194.317
X114.339Y193.994
X115.438Y194.053
X116.463Y194.142
X117.756Y194.231
X119.293Y194.317
X121.053Y194.395
X122.984Y194.450
X125.034Y194.469
X127.797Y194.439
X129.230Y194.402
X130.619Y194.350
X133.144Y194.217
X134.206Y194.139
X135.075Y194.053
X136.264Y196.727
X133.920Y196.905
X132.974Y196.994
X132.179Y197.083
X131.506Y197.181
X130.927Y197.295
X130.444Y197.426
X130.055Y197.574
X129.746Y197.741
X129.505Y197.930
X129.409Y198.033
X129.331Y198.142
X129.268Y198.256
X129.223Y198.376
X129.154Y198.642
X129.097Y198.951
X129.050Y199.303
X129.015Y199.698
X128.949Y200.763
X128.900Y202.056
X128.867Y203.577
X128.852Y205.327
X128.837Y215.027
X129.810Y215.034
X130.649Y215.057
X131.926
X132.424Y215.064
X132.847Y215.086
X133.471
X133.809Y215.075
X134.110Y215.042
X134.385Y214.975
X134.645Y214.864
X134.890Y214.700
X135.120Y214.477
X135.354Y214.177
X135.610Y213.779
X136.382Y212.413
X139.665Y206.679
X140.412Y205.403
X141.151Y204.191
X141.882Y203.042
X142.606Y201.955
X143.326Y200.934
X144.043Y199.980
X144.759Y199.092
X145.473Y198.272
X146.196Y197.517
X146.566Y197.164
X146.940Y196.827
X147.319Y196.507
X147.704Y196.202
X148.094Y195.914
X148.488Y195.643
X148.890Y195.387
X149.300Y195.148
X149.718Y194.925
X150.145Y194.718
X150.580Y194.527
X151.023Y194.353
X151.475Y194.195
X151.935Y194.053
X152.406Y193.928
X152.890Y193.819
X153.388Y193.727
X153.899Y193.652
X154.424Y193.594
X154.962Y193.552
X155.514Y193.527
X156.079Y193.518
X156.672Y193.527
X157.323Y193.552
X158.797Y193.652
X159.593Y193.727
X160.390Y193.819
X161.190Y193.928
X161.991Y194.053
X163.001Y196.370
X161.916Y196.438
X160.888Y196.552
X159.918Y196.713
X159.005Y196.920
X158.567Y197.043
X158.136Y197.182
X157.713Y197.336
X157.297Y197.507
X156.888Y197.693
X156.487Y197.895
X156.094Y198.112
X155.708Y198.346
X155.327Y198.597
X154.949Y198.866
X154.575Y199.154
X154.204Y199.460
X153.836Y199.785
X153.471Y200.128
X153.110Y200.490
X152.752Y200.871
X152.031Y201.698
X151.296Y202.620
X150.546Y203.637
X149.781Y204.748
X148.992Y205.958
X148.169Y207.269
X147.313Y208.683
X146.424Y210.199
X144.493Y213.582
X142.324Y217.463
X143.433Y217.888
X144.504Y218.362
X145.024Y218.617
X145.535Y218.883
X146.036Y219.162
X146.528Y219.453
X147.006Y219.758
X147.468Y220.076
X147.914Y220.407
G0Z5.080
G0X231.775Y244.973
G1Z-1.300F1800.0
G1X233.602Y244.962F1500.0
X234.983Y244.928
X235.526Y244.893
X235.997Y244.832
X236.395Y244.744
X236.721Y244.631
X236.984Y244.487
X237.095Y244.402
X237.193Y244.308
X237.277Y244.205
X237.348Y244.093
X237.405Y243.973
X237.449Y243.844
X237.518Y243.547
X237.575Y243.190
X237.622Y242.774
X237.657Y242.299
X237.716Y238.749
X237.776Y233.684
X237.820Y227.623
X237.835Y221.087
Y217.196
X237.820Y212.858
X237.776Y208.402
X237.716Y204.139
X237.642Y200.351
X237.594Y198.732
X237.538Y197.380
X236.684Y197.247
X235.934Y197.083
X235.288Y196.890
X235.004Y196.783
X234.746Y196.667
X234.288Y196.427
X233.895Y196.181
X233.568Y195.929
X233.305Y195.672
X233.098Y195.416
X232.937Y195.167
X232.823Y194.926
X232.755Y194.692
X232.688Y194.302
X232.666Y194.053
X233.587Y194.157
X234.471Y194.228
X235.577Y194.291
X238.370Y194.410
X239.989Y194.454
X241.697Y194.469
X243.082Y194.462
X244.445Y194.439
X246.911Y194.365
X247.936Y194.317
X248.783Y194.261
X249.778Y194.172
X250.847Y196.667
X249.050Y196.872
X247.698Y197.069
X247.171Y197.171
X246.718Y197.284
X246.339Y197.408
X246.035Y197.544
X245.792Y197.697
X245.600Y197.874
X245.458Y198.076
X245.366Y198.301
X245.306Y198.559
X245.259Y198.858
X245.224Y199.198
X245.203Y199.579
X245.151Y200.875
X245.114Y202.446
X245.091Y204.262
X245.084Y206.293
Y228.217
X245.091Y231.314
X245.114Y234.367
X245.188Y240.130
X245.240Y242.752
X245.307Y245.151
X245.392Y247.275
X245.500Y249.072
X244.906Y249.488
X244.078Y249.236
X242.960Y248.954
X241.597Y248.656
X240.034Y248.359
X238.296Y248.073
X236.409Y247.810
X234.419Y247.583
X232.369Y247.409
X231.775Y244.973
G0Z5.080
G0X273.114Y227.894
G1Z-1.300F1800.0
G1X272.766Y227.072F1500.0
X272.445Y226.228
X272.150Y225.362
X271.881Y224.474
X271.640Y223.565
X271.432Y222.636
X271.256Y221.686
X271.112Y220.716
X271.000Y219.725
X270.920Y218.714
X270.872Y217.683
X270.856Y216.631
X270.882Y215.297
X270.962Y213.997
X271.094Y212.733
X271.279Y211.503
X271.517Y210.308
X271.808Y209.148
X271.974Y208.581
X272.152Y208.022
X272.344Y207.473
X272.549Y206.932
X272.996Y205.879
X273.237Y205.367
X273.490Y204.866
X273.755Y204.375
X274.032Y203.894
X274.321Y203.423
X274.621Y202.962
X274.934Y202.511
X275.258Y202.070
X275.594Y201.640
X275.941Y201.219
X276.301Y200.809
X276.672Y200.409
X277.056Y200.018
X277.451Y199.638
X277.857Y199.269
X278.275Y198.910
X278.703Y198.563
X279.142Y198.226
X279.593Y197.901
X280.054Y197.586
X280.526Y197.283
X281.008Y196.991
X282.007Y196.439
X283.049Y195.931
X284.135Y195.468
X285.264Y195.048
X286.435Y194.676
X287.644Y194.353
X288.893Y194.080
X290.181Y193.856
X291.507Y193.682
X292.873Y193.558
X294.278Y193.484
X295.721Y193.459
X297.158Y193.480
X298.588Y193.544
X300.010Y193.651
X301.425Y193.801
X302.813Y193.976
X304.155Y194.161
X305.450Y194.355
X306.698Y194.558
X309.012Y194.967
X311.051Y195.360
X311.947Y195.535
X312.737Y195.672
X313.418Y195.772
X313.992Y195.836
X313.843Y198.331
X313.754Y200.529
X313.710Y202.639
X313.695Y204.867
X313.706Y207.136
X313.739Y209.189
X313.795Y211.028
X313.873Y212.650
X314.940Y212.769
X315.882Y212.918
X316.700Y213.096
X317.062Y213.196
X317.393Y213.304
X317.982Y213.532
X318.485Y213.772
X318.903Y214.022
X319.080Y214.152
X319.235Y214.284
X319.496Y214.551
X319.699Y214.815
X319.845Y215.078
X319.933Y215.339
X320.022Y215.818
X320.052Y216.215
X319.280Y216.126
X318.418Y216.037
X317.260Y215.948
X315.819Y215.859
X314.111Y215.770
X312.157Y215.703
X309.981Y215.681
X308.384Y215.692
X306.624Y215.725
X303.133Y215.814
X301.592Y215.863
X300.267Y215.918
X299.286Y215.978
X298.781Y216.037
X297.831Y213.423
X302.242Y213.037
X302.972Y212.955
X303.601Y212.858
X304.131Y212.747
X304.559Y212.621
X304.900Y212.474
X305.042Y212.391
X305.165Y212.301
X305.268Y212.205
X305.353Y212.103
X305.419Y211.994
X305.466Y211.878
X305.534Y211.618
X305.592Y211.313
X305.638Y210.964
X305.674Y210.571
X305.777Y208.625
X305.852Y206.011
X305.896Y202.579
X305.911Y198.212
X305.469Y198.056
X305.005Y197.915
X304.519Y197.789
X304.010Y197.678
X302.963Y197.488
X301.901Y197.336
X300.846Y197.221
X299.821Y197.143
X298.870Y197.098
X298.039Y197.083
X297.195Y197.097
X296.374Y197.139
X295.574Y197.209
X294.797Y197.306
X294.041Y197.432
X293.307Y197.585
X292.594Y197.766
X291.904Y197.975
X291.234Y198.208
X290.585Y198.464
X289.955Y198.741
X289.345Y199.040
X288.755Y199.361
X288.186Y199.704
X287.636Y200.069
X287.106Y200.455
X286.596Y200.862
X286.105Y201.288
X285.634Y201.733
X285.182Y202.197
X284.750Y202.680
X284.338Y203.182
X283.944Y203.703
X283.571Y204.243
X283.215Y204.799
X282.876Y205.367
X282.554Y205.948
X282.249Y206.542
X281.960Y207.148
X281.688Y207.766
X281.433Y208.397
X281.194Y209.041
X280.972Y209.696
X280.764Y210.360
X280.572Y211.034
X280.396Y211.718
X280.234Y212.412
X280.088Y213.115
X279.958Y213.829
X279.842Y214.552
X279.654Y216.015
X279.519Y217.493
X279.439Y218.986
X279.412Y220.493
X279.425Y221.556
X279.466Y222.591
X279.535Y223.599
X279.631Y224.578
X279.754Y225.530
X279.905Y226.453
X280.083Y227.349
X280.288Y228.217
X280.525Y229.055
X280.796Y229.861
X281.102Y230.633
X281.443Y231.374
X281.819Y232.082
X282.229Y232.757
X282.675Y233.400
X283.155Y234.010
X283.672Y234.587
X284.227Y235.129
X284.821Y235.636
X285.453Y236.109
X286.124Y236.546
X286.834Y236.949
X287.582Y237.317
X288.369Y237.650
X289.197Y237.946
X290.070Y238.202
X290.989Y238.419
X291.952Y238.597
X292.961Y238.735
X294.014Y238.833
X295.113Y238.893
X296.256Y238.912
X297.050Y238.902
X297.821Y238.873
X298.568Y238.824
X299.292Y238.755
X299.992Y238.667
X300.669Y238.559
X301.323Y238.432
X301.953Y238.285
X302.559Y238.118
X303.142Y237.932
X303.702Y237.726
X304.238Y237.500
X304.751Y237.255
X305.240Y236.990
X305.706Y236.706
X306.149Y236.402
X306.570Y236.078
X306.970Y235.732
X307.351Y235.366
X307.712Y234.979
X308.053Y234.570
X308.374Y234.141
X308.675Y233.691
X308.956Y233.219
X309.217Y232.727
X309.458Y232.214
X309.680Y231.679
X309.881Y231.124
X310.062Y230.548
X310.223Y229.950
X310.365Y229.332
X310.486Y228.693
X313.101Y228.930
X313.056Y230.289
X313.041Y231.753
X312.997Y234.649
X312.967Y237.130
X312.948Y238.080
X312.922Y238.734
X312.874Y239.165
X312.789Y239.506
X312.666Y239.781
X312.506Y240.011
X312.306Y240.201
X312.061Y240.353
X311.437Y240.635
X310.944Y240.841
X310.386Y241.044
X309.763Y241.242
X309.075Y241.437
X308.337Y241.624
X307.564Y241.798
X306.755Y241.958
X305.911Y242.106
X305.039Y242.240
X304.147Y242.358
X303.235Y242.462
X302.302Y242.551
X301.363Y242.623
X300.434Y242.674
X299.514Y242.705
X298.603Y242.715
X297.685Y242.703
X296.773Y242.668
X295.867Y242.610
X294.967Y242.529
X294.074Y242.425
X293.186Y242.297
X292.304Y242.146
X291.429Y241.972
X290.562Y241.775
X289.708Y241.554
X288.867Y241.311
X288.038Y241.044
X287.222Y240.754
X286.418Y240.440
X285.627Y240.104
X284.848Y239.744
X284.084Y239.362
X283.336Y238.957
X282.604Y238.530
X281.889Y238.080
X281.189Y237.609
X280.506Y237.115
X279.839Y236.599
X279.189Y236.060
X278.558Y235.500
X277.949Y234.917
X277.362Y234.313
X276.797Y233.687
X276.255Y233.040
X275.735Y232.370
X275.238Y231.679
X274.762Y230.965
X274.311Y230.230
X273.886Y229.473
X273.487Y228.695
X273.114Y227.894
G0Z5.080
G0X320.082Y224.177
G1Z-1.300F1800.0
G1X321.396Y224.029F1500.0
X322.488Y223.880
X322.961Y223.797
X323.398Y223.698
X323.800Y223.582
X324.167Y223.449
X324.504Y223.294
X324.817Y223.111
X325.105Y222.901
X325.370Y222.662
X325.622Y222.389
X325.875Y222.075
X326.127Y221.721
X326.380Y221.325
X326.863Y220.363
X327.479Y219.023
X328.203Y217.359
X329.009Y215.428
X329.893Y213.248
X330.851Y210.838
X331.857Y208.254
X332.886Y205.550
X334.980Y199.906
X336.017Y197.046
X337.015Y194.231
X337.639Y194.291
X337.974Y194.343
X338.323Y194.380
X338.917Y194.439
X339.333Y194.469
X339.392
X338.723Y192.895
X338.052Y191.383
X337.378Y189.932
X336.704Y188.542
X336.360Y187.874
X336.005Y187.229
X335.640Y186.606
X335.263Y186.006
X334.875Y185.429
X334.475Y184.874
X334.065Y184.343
X333.644Y183.834
X333.209Y183.350
X332.760Y182.893
X332.296Y182.464
X331.817Y182.062
X331.323Y181.688
X330.814Y181.341
X330.290Y181.021
X329.752Y180.729
X329.194Y180.468
X328.611Y180.242
X328.003Y180.050
X327.371Y179.894
X326.715Y179.772
X326.034Y179.685
X325.328Y179.632
X324.598Y179.615
X324.128Y179.623
X323.639Y179.648
X322.607Y179.749
X322.067Y179.828
X321.515Y179.931
X320.953Y180.058
X320.379Y180.209
X320.255Y179.868
X320.152Y179.530
X320.070Y179.193
X320.008Y178.857
X319.930Y178.223
X319.904Y177.654
X319.925Y177.121
X319.989Y176.618
X320.096Y176.148
X320.245Y175.708
X320.437Y175.301
X320.672Y174.925
X320.950Y174.580
X321.270Y174.268
X321.629Y173.989
X322.024Y173.748
X322.454Y173.543
X322.919Y173.376
X323.419Y173.246
X323.955Y173.154
X324.526Y173.098
X325.132Y173.079
X325.825Y173.104
X326.505Y173.178
X327.174Y173.301
X327.832Y173.473
X328.478Y173.694
X329.112Y173.965
X329.735Y174.285
X330.346Y174.654
X330.947Y175.067
X331.540Y175.519
X332.124Y176.010
X332.700Y176.540
X333.268Y177.109
X333.827Y177.717
X334.378Y178.365
X334.921Y179.051
X335.456Y179.774
X335.986Y180.531
X336.509Y181.324
X337.027Y182.151
X337.538Y183.014
X338.043Y183.911
X338.542Y184.842
X339.036Y185.809
X340.012Y187.827
X340.981Y189.942
X341.943Y192.156
X342.898Y194.469
X344.149Y197.640
X345.408Y200.975
X346.682Y204.451
X347.978Y208.046
X350.666Y215.532
X352.074Y219.387
X353.533Y223.286
X354.332Y223.383
X355.063Y223.497
X355.728Y223.628
X356.326Y223.776
X356.861Y223.940
X357.339Y224.121
X357.760Y224.319
X358.123Y224.534
X358.433Y224.763
X358.695Y225.005
X358.908Y225.260
X359.074Y225.529
X359.197Y225.810
X359.285Y226.104
X359.338Y226.412
X359.356Y226.732
X356.831Y226.494
X355.706Y226.416
X354.350Y226.361
X352.764Y226.327
X350.948Y226.316
X348.780Y226.331
X346.611Y226.375
X344.858Y226.435
X344.249Y226.465
X343.908Y226.494
X343.195Y223.999
X345.868Y223.731
X346.360Y223.666
X346.793Y223.587
X347.169Y223.495
X347.488Y223.390
X347.754Y223.270
X347.974Y223.134
X348.148Y222.980
X348.275Y222.810
X348.366Y222.617
X348.431Y222.395
X348.470Y222.142
X348.483Y221.860
X348.465Y221.424
X348.412Y220.920
X348.324Y220.348
X348.201Y219.706
X348.046Y219.009
X347.866Y218.269
X347.428Y216.661
X346.901Y214.912
X346.299Y213.051
X345.646Y211.124
X344.962Y209.175
X343.566Y205.327
X342.887Y203.511
X342.244Y201.837
X342.006
X340.636Y205.647
X339.258Y209.353
X337.907Y212.899
X336.614Y216.230
X334.282Y222.127
X332.440Y226.613
X331.753Y226.561
X330.940Y226.524
X329.949Y226.502
X328.727Y226.494
X327.297Y226.502
X325.920Y226.524
X323.498Y226.583
X321.716Y226.658
X320.795Y226.732
X320.082Y224.177
G0Z5.080
G0X359.801Y222.989
G1Z-1.300F1800.0
G1X361.469Y222.978F1500.0
X362.728Y222.944
X363.223Y222.909
X363.652Y222.848
X364.017Y222.760
X364.317Y222.647
X364.560Y222.504
X364.755Y222.328
X364.902Y222.118
X365.000Y221.875
X365.069Y221.586
X365.127Y221.240
X365.173Y220.836
X365.208Y220.374
X365.283Y218.859
X365.323Y217.719
X365.357Y216.260
X365.416Y212.309
X365.439Y209.758
X365.446Y206.768
Y205.164
X365.416Y202.713
X365.327Y199.950
X365.253Y198.602
X365.149Y197.380
X364.309Y197.247
X363.571Y197.083
X362.935Y196.890
X362.655Y196.783
X362.401Y196.667
X361.951Y196.428
X361.565Y196.185
X361.245Y195.938
X360.990Y195.687
X360.790Y195.437
X360.637Y195.193
X360.530Y194.955
X360.470Y194.722
X360.414Y194.324
X360.396Y194.053
X360.663Y194.090
X361.227Y194.142
X363.099Y194.276
X364.351Y194.347
X365.788Y194.410
X367.381Y194.454
X369.100Y194.469
X370.515Y194.462
X371.908Y194.439
X374.433Y194.365
X375.487Y194.317
X376.364Y194.261
X377.389Y194.172
X378.458Y196.667
X376.687Y196.868
X375.354Y197.054
X374.833Y197.149
X374.384Y197.258
X374.008Y197.380
X373.705Y197.514
X373.463Y197.665
X373.270Y197.837
X373.128Y198.029
X373.036Y198.242
X372.976Y198.485
X372.929Y198.769
X372.894Y199.094
X372.873Y199.460
X372.821Y200.292
X372.784Y201.183
X372.724Y203.352
X372.702Y204.718
X372.695Y206.323
Y213.928
X372.724Y216.141
X372.762Y217.266
X372.814Y218.354
X373.224Y218.749
X373.653Y219.130
X374.100Y219.499
X374.566Y219.855
X375.049Y220.193
X375.547Y220.512
X376.059Y220.810
X376.587Y221.087
X377.126Y221.340
X377.675Y221.563
X378.233Y221.756
X378.800Y221.919
X379.376Y222.049
X379.962Y222.142
X380.557Y222.198
X381.162Y222.216
X381.689Y222.201
X382.186Y222.157
X382.652Y222.083
X383.089Y221.979
X383.495Y221.845
X383.871Y221.682
X384.217Y221.488
X384.533Y221.266
X384.824Y221.019
X385.096Y220.754
X385.348Y220.471
X385.581Y220.170
X385.794Y219.851
X385.987Y219.514
X386.161Y219.158
X386.316Y218.785
X386.453Y218.397
X386.577Y217.997
X386.686Y217.585
X386.780Y217.162
X386.860Y216.728
X386.926Y216.281
X386.977Y215.823
X387.014Y215.354
X387.103Y213.460
X387.133Y211.581
X387.122Y209.464
X387.088Y207.451
X387.025Y205.472
X386.925Y203.456
X386.795Y201.376
X386.643Y199.207
X386.461Y196.887
X386.242Y194.350
X387.148Y194.402
X388.143Y194.439
X389.235Y194.462
X390.430Y194.469
X391.964Y194.462
X393.416Y194.439
X395.941Y194.365
X396.962Y194.317
X397.798Y194.261
X398.778Y194.172
X399.848Y196.667
X398.065Y196.879
X397.330Y196.988
X396.699Y197.098
X396.155Y197.219
X395.681Y197.358
X395.278Y197.516
X394.946Y197.692
X394.676Y197.890
X394.460Y198.112
X394.297Y198.358
X394.188Y198.628
X394.117Y198.931
X394.066Y199.274
X394.035Y199.659
X394.025Y200.084
X394.047Y201.198
X394.114Y202.698
X394.292Y206.412
X394.471Y210.571
X394.538Y212.635
X394.560Y214.552
X394.549Y215.465
X394.515Y216.423
X394.445Y217.396
X394.322Y218.354
X394.732Y218.749
X395.158Y219.130
X395.601Y219.499
X396.060Y219.855
X396.534Y220.193
X397.022Y220.512
X397.522Y220.810
X398.036Y221.087
X398.562Y221.340
X399.101Y221.563
X399.654Y221.756
X400.219Y221.919
X400.796Y222.049
X401.382Y222.142
X401.977Y222.198
X402.581Y222.216
X403.109Y222.201
X403.607Y222.157
X404.076Y222.083
X404.516Y221.979
X404.926Y221.845
X405.308Y221.682
X405.660Y221.488
X405.983Y221.266
X406.281Y221.019
X406.558Y220.755
X406.815Y220.473
X407.052Y220.174
X407.268Y219.857
X407.464Y219.522
X407.640Y219.170
X407.795Y218.800
X407.933Y218.415
X408.057Y218.016
X408.167Y217.605
X408.263Y217.181
X408.345Y216.744
X408.413Y216.293
X408.467Y215.830
X408.508Y215.354
X408.566Y214.386
X408.608Y213.415
X408.633Y212.441
X408.641Y211.462
X408.627Y209.390
X408.582Y207.392
X408.508Y205.416
X408.404Y203.411
X408.263Y201.343
X408.077Y199.178
X407.847Y196.864
X407.572Y194.350
X408.485Y194.402
X409.503Y194.439
X410.617Y194.462
X411.820Y194.469
X413.361Y194.462
X414.836Y194.439
X417.435Y194.365
X418.501Y194.317
X419.381Y194.261
X420.406Y194.172
X421.475Y196.667
X419.659Y196.879
X418.905Y196.988
X418.252Y197.098
X417.687Y197.218
X417.194Y197.354
X416.773Y197.508
X416.425Y197.678
X416.140Y197.869
X415.909Y198.086
X415.731Y198.329
X415.608Y198.598
X415.523Y198.901
X415.463Y199.245
X415.427Y199.629
X415.415Y200.054
X415.441Y201.176
X415.519Y202.698
X415.771Y206.471
X416.009Y210.600
X416.098Y212.598
X416.128Y214.373
X416.099Y215.802
X416.063Y216.496
X416.013Y217.177
X415.948Y217.844
X415.869Y218.498
X415.775Y219.139
X415.667Y219.765
X415.543Y220.375
X415.399Y220.964
X415.236Y221.532
X415.055Y222.079
X414.854Y222.605
X414.634Y223.110
X414.395Y223.595
X414.137Y224.058
X413.859Y224.499
X413.558Y224.915
X413.235Y225.307
X412.890Y225.674
X412.522Y226.016
X412.132Y226.334
X411.720Y226.627
X411.285Y226.895
X410.826Y227.136
X410.340Y227.344
X409.827Y227.520
X409.288Y227.664
X408.721Y227.776
X408.127Y227.856
X407.507Y227.904
X406.859Y227.920
X406.386Y227.912
X405.919Y227.888
X405.456Y227.847
X404.999Y227.790
X404.546Y227.717
X404.099Y227.628
X403.657Y227.522
X403.220Y227.400
X402.359Y227.116
X401.515Y226.784
X400.688Y226.403
X399.878Y225.974
X399.084Y225.502
X398.307Y224.990
X397.546Y224.440
X396.803Y223.850
X396.074Y223.232
X395.358Y222.595
X394.655Y221.940
X393.966Y221.266
X393.728
X393.502Y222.006
X393.242Y222.710
X392.945Y223.380
X392.614Y224.014
X392.245Y224.607
X391.838Y225.154
X391.391Y225.654
X391.153Y225.887
X390.906Y226.108
X390.648Y226.317
X390.379Y226.515
X390.100Y226.700
X389.810Y226.873
X389.510Y227.034
X389.198Y227.183
X388.877Y227.320
X388.544Y227.445
X388.200Y227.556
X387.845Y227.653
X387.478Y227.735
X387.099Y227.801
X386.709Y227.853
X386.308Y227.891
X385.894Y227.913
X385.469Y227.920
X384.997Y227.912
X384.531Y227.886
X384.070Y227.843
X383.616Y227.783
X383.168Y227.706
X382.726Y227.611
X382.290Y227.499
X381.860Y227.371
X381.014Y227.073
X380.185Y226.728
X379.373Y226.337
X378.577Y225.900
X377.798Y225.423
X377.036Y224.912
X376.290Y224.368
X375.562Y223.791
X374.139Y222.580
X372.754Y221.325
X372.576Y221.385
X372.594Y223.304
X372.650Y224.964
X372.728Y226.394
X372.814Y227.623
X372.279Y227.920
X371.469Y227.657
X370.407Y227.341
X369.130Y226.996
X367.674Y226.643
X366.051Y226.294
X364.273Y225.960
X363.334Y225.804
X362.375Y225.662
X361.396Y225.536
X360.396Y225.425
X359.801Y222.989
G0Z5.080
G0X360.825Y171.571
G1Z-1.300F1800.0
G1X359.384Y171.532F1500.0
X357.942Y171.490
X356.502Y171.443
X355.783Y171.418
X355.065Y171.392
X354.348Y171.365
X353.634Y171.337
X352.922Y171.308
X352.212Y171.278
X351.506Y171.247
X350.802Y171.215
X350.102Y171.182
X349.406Y171.148
X348.714Y171.113
X348.027Y171.078
X347.344Y171.041
X347.005Y171.022
X346.667Y171.004
X346.330Y170.985
X345.995Y170.965
X345.661Y170.946
X345.328Y170.926
X344.998Y170.906
X344.668Y170.886
X344.341Y170.865
X344.014Y170.845
X343.690Y170.824
X343.367Y170.803
X343.047Y170.782
X342.727Y170.760
X342.410Y170.739
X342.095Y170.717
X341.781Y170.695
X341.470Y170.673
X341.160Y170.650
X340.853Y170.628
X340.548Y170.605
X340.245Y170.582
X339.943Y170.558
X339.645Y170.535
X339.348Y170.511
X339.054Y170.487
X338.762Y170.463
X338.472Y170.439
X338.185Y170.415
X337.900Y170.390
X337.618Y170.365
X337.338Y170.340
X337.061Y170.315
X336.787Y170.290
X336.515Y170.264
X336.245Y170.239
X335.979Y170.213
X335.715Y170.187
X335.454Y170.160
X335.196Y170.134
X334.941Y170.107
X334.689Y170.081
X334.440Y170.054
X334.193Y170.027
X333.950Y169.999
X333.710Y169.972
X333.473Y169.944
X333.239Y169.917
X333.009Y169.889
X332.781Y169.861
X332.557Y169.832
X332.337Y169.804
X332.119Y169.775
X331.905Y169.746
X331.695Y169.718
X331.488Y169.689
X331.285Y169.659
X331.085Y169.630
X330.888Y169.600
X330.696Y169.571
X330.507Y169.541
X330.322Y169.511
X330.140Y169.481
X329.963Y169.451
X329.789Y169.420
X329.619Y169.390
X329.453Y169.359
X329.291Y169.328
X329.133Y169.297
X328.980Y169.266
X328.830Y169.235
X328.684Y169.203
X328.543Y169.172
X328.406Y169.140
X328.273Y169.108
X328.144Y169.076
X328.020Y169.044
X327.900Y169.012
X327.784Y168.980
X327.673Y168.948
X327.566Y168.915
X327.464Y168.882
X327.367Y168.850
X327.274Y168.817
X327.186Y168.784
X327.102Y168.750
X327.024Y168.717
X326.950Y168.684
X326.881Y168.650
X326.816Y168.617
X326.757Y168.583
X326.703Y168.549
X326.653Y168.515
X326.609Y168.481
X326.569Y168.447
X326.535Y168.413
X326.520Y168.395
X326.506Y168.378
X326.493Y168.361
X326.482Y168.344
X326.456Y168.303
X326.430Y168.262
X326.403Y168.222
X326.375Y168.183
X326.347Y168.144
X326.318Y168.105
X326.289Y168.068
X326.259Y168.030
X326.228Y167.993
X326.197Y167.957
X326.181Y167.939
X326.165Y167.921
X326.149Y167.903
X326.133Y167.886
X326.116Y167.868
X326.099Y167.851
X326.082Y167.834
X326.065Y167.816
X326.048Y167.799
X326.031Y167.783
X326.013Y167.766
X325.996Y167.749
X325.978Y167.733
X325.960Y167.716
X325.942Y167.700
X325.923Y167.684
X325.905Y167.668
X325.886Y167.652
X325.867Y167.636
X325.848Y167.621
X325.829Y167.605
X325.809Y167.590
X325.790Y167.575
X325.770Y167.560
X325.750Y167.545
X325.730Y167.530
X325.709Y167.515
X325.689Y167.500
X325.668Y167.486
X325.647Y167.471
X325.626Y167.457
X325.605Y167.443
X325.583Y167.429
X325.562Y167.415
X325.540Y167.402
X325.518Y167.388
X325.496Y167.374
X325.474Y167.361
X325.451Y167.348
X325.428Y167.335
X325.405Y167.322
X325.382Y167.309
X325.359Y167.296
X325.335Y167.283
X325.311Y167.271
X325.288Y167.258
X325.263Y167.246
X325.239Y167.234
X325.215Y167.222
X325.190Y167.210
X325.165Y167.198
X325.140Y167.186
X325.115Y167.175
X325.089Y167.163
X325.063Y167.152
X325.037Y167.141
X325.011Y167.130
X324.985Y167.119
X324.958Y167.108
X324.932Y167.097
X324.905Y167.087
X324.878Y167.076
X324.850Y167.066
X324.823Y167.056
X324.795Y167.046
X324.767Y167.036
X324.738Y167.026
X324.710Y167.016
X324.681Y167.007
X324.653Y166.997
X324.623Y166.988
X324.594Y166.978
X324.565Y166.969
X324.535Y166.960
X324.505Y166.951
X324.475Y166.942
X324.444Y166.934
X324.414Y166.925
X324.383Y166.917
X324.352Y166.909
X324.321Y166.900
X324.289Y166.892
X324.257Y166.884
X324.225Y166.876
X324.193Y166.869
X324.161Y166.861
X324.128Y166.854
X324.095Y166.846
X324.062Y166.839
X324.029Y166.832
X323.995Y166.825
X323.961Y166.818
X323.927Y166.811
X323.893Y166.805
X323.859Y166.798
X323.824Y166.792
X323.789Y166.785
X323.754Y166.779
X323.718Y166.773
X323.683Y166.767
X323.647Y166.761
X323.611Y166.755
X323.574Y166.750
X323.538Y166.744
X323.501Y166.739
X323.464Y166.734
X323.426Y166.728
X323.388Y166.723
X323.351Y166.719
X323.312Y166.714
X323.274Y166.709
X323.236Y166.704
X323.197Y166.700
X323.158Y166.696
X323.118Y166.691
X323.079Y166.687
X323.039Y166.683
X322.999Y166.679
X322.958Y166.676
X322.918Y166.672
X322.877Y166.668
X322.836Y166.665
X322.794Y166.662
X322.753Y166.659
X322.711Y166.655
X322.668Y166.652
X322.626Y166.650
X322.583Y166.647
X322.540Y166.644
X322.497Y166.642
X322.454Y166.639
X322.410Y166.637
X322.366Y166.635
X322.322Y166.633
X322.277Y166.631
X322.232Y166.629
X322.187Y166.627
X322.142Y166.626
X322.096Y166.624
X322.050Y166.623
X322.004Y166.622
X321.958Y166.620
X321.911Y166.619
X321.864Y166.618
X321.817Y166.618
X321.769Y166.617
X321.722Y166.616
X321.674Y166.616
X321.625Y166.615
X321.577Y166.615
X321.528Y166.615
X321.479Y166.615
X321.429Y166.615
X321.379Y166.615
X321.329Y166.615
X321.279Y166.616
X321.228Y166.616
X321.177Y166.617
X321.126Y166.618
X321.075Y166.618
X321.023Y166.619
X320.971Y166.620
X320.919Y166.622
X320.866Y166.623
X320.813Y166.624
X320.760Y166.626
X320.707Y166.627
X320.653Y166.629
X320.599Y166.631
X320.544Y166.633
X320.490Y166.635
X320.435Y166.637
X320.380Y166.639
X320.324Y166.642
X320.268Y166.644
X320.212Y166.647
X320.156Y166.649
X320.099Y166.652
X320.042Y166.655
X319.984Y166.658
X319.927Y166.661
X319.869Y166.665
X319.811Y166.668
X319.752Y166.671
X319.693Y166.675
X319.634Y166.679
X319.575Y166.682
X319.515Y166.686
X319.455Y166.690
X319.394Y166.694
X319.334Y166.699
X319.273Y166.703
X319.211Y166.707
X319.150Y166.712
X319.088Y166.716
X319.025Y166.721
X318.963Y166.726
X318.900Y166.731
X318.837Y166.736
X318.773Y166.741
X318.709Y166.746
X318.645Y166.752
X318.580Y166.757
X318.516Y166.763
X318.451Y166.769
X318.385Y166.774
X318.319Y166.780
X318.253Y166.786
X318.187Y166.792
X318.120Y166.799
X318.053Y166.805
X317.985Y166.811
X317.918Y166.818
X317.850Y166.824
X317.781Y166.831
X317.712Y166.838
X317.643Y166.845
X317.574Y166.852
X317.504Y166.859
X317.434Y166.866
X317.364Y166.874
X317.293Y166.881
X317.222Y166.889
X317.151Y166.897
X317.079Y166.904
X317.007Y166.912
X316.934Y166.920
X316.862Y166.928
X316.788Y166.936
X316.715Y166.945
X316.641Y166.953
X316.567Y166.962
X316.493Y166.970
X316.418Y166.979
X316.343Y166.988
X316.267Y166.997
X316.153Y167.010
X316.039Y167.023
X315.925Y167.036
X315.811Y167.048
X315.698Y167.061
X315.585Y167.072
X315.472Y167.084
X315.359Y167.095
X315.247Y167.106
X315.135Y167.117
X315.023Y167.127
X314.912Y167.137
X314.801Y167.147
X314.690Y167.156
X314.580Y167.165
X314.470Y167.174
X314.360Y167.183
X314.251Y167.191
X314.142Y167.199
X314.033Y167.207
X313.925Y167.214
X313.817Y167.221
X313.710Y167.228
X313.603Y167.234
X313.496Y167.240
X313.390Y167.246
X313.284Y167.252
X313.179Y167.257
X313.074Y167.262
X312.970Y167.267
X312.866Y167.271
X312.763Y167.275
X312.660Y167.279
X312.558Y167.282
X312.456Y167.286
X312.355Y167.289
X312.254Y167.291
X312.154Y167.294
X312.055Y167.296
X311.955Y167.297
X311.857Y167.299
X311.759Y167.300
X311.662Y167.301
X311.565Y167.302
X311.469Y167.302
X311.374Y167.302
X311.279Y167.302
X311.185Y167.301
X311.091Y167.301
X310.998Y167.299
X310.906Y167.298
X310.814Y167.296
X310.723Y167.295
X310.633Y167.292
X310.544Y167.290
X310.455Y167.287
X310.367Y167.284
X310.323Y167.283
X310.280Y167.281
X310.236Y167.279
X310.193Y167.277
X310.150Y167.275
X310.107Y167.273
X310.064Y167.271
X310.022Y167.269
X309.980Y167.267
X309.938Y167.265
X309.896Y167.263
X309.854Y167.260
X309.813Y167.258
X309.771Y167.255
X309.730Y167.253
X309.689Y167.250
X309.649Y167.247
X309.608Y167.245
X309.568Y167.242
X309.528Y167.239
X309.488Y167.236
X309.448Y167.233
X309.409Y167.230
X309.369Y167.226
X309.330Y167.223
X309.291Y167.220
X309.253Y167.216
X309.214Y167.213
X309.176Y167.209
X309.138Y167.206
X309.100Y167.202
X309.063Y167.199
X309.025Y167.195
X308.988Y167.191
X308.951Y167.187
X308.915Y167.183
X308.878Y167.179
X308.842Y167.175
X308.806Y167.171
X308.770Y167.166
X308.735Y167.162
X308.699Y167.158
X308.664Y167.153
X308.629Y167.149
X308.595Y167.144
X308.560Y167.139
X308.526Y167.135
X308.492Y167.130
X308.458Y167.125
X308.425Y167.120
X308.392Y167.115
X308.359Y167.110
X308.326Y167.105
X308.293Y167.100
X308.261Y167.094
X308.229Y167.089
X308.197Y167.084
X308.166Y167.078
X308.135Y167.073
X308.104Y167.067
X308.073Y167.062
X308.042Y167.056
X308.012Y167.050
X307.982Y167.044
X307.952Y167.038
X307.923Y167.032
X307.893Y167.026
X307.864Y167.020
X307.836Y167.014
X307.807Y167.008
X307.779Y167.001
X307.751Y166.995
X307.723Y166.989
X307.696Y166.982
X307.669Y166.976
X307.642Y166.969
X307.615Y166.962
X307.589Y166.956
X307.563Y166.949
X307.537Y166.942
X307.511Y166.935
X307.486Y166.928
X307.461Y166.921
X307.436Y166.914
X307.412Y166.907
X307.388Y166.899
X307.364Y166.892
X307.340Y166.885
X307.317Y166.877
X307.294Y166.870
X307.271Y166.862
X307.249Y166.855
X307.226Y166.847
X307.204Y166.839
X307.183Y166.831
X307.161Y166.823
X307.140Y166.816
X307.120Y166.808
X307.099Y166.799
X307.079Y166.791
X307.059Y166.783
X307.040Y166.775
X307.020Y166.767
X307.001Y166.758
X306.983Y166.750
X306.964Y166.741
X306.946Y166.733
X306.928Y166.724
X306.911Y166.715
X306.894Y166.707
X306.877Y166.698
X306.860Y166.689
X306.844Y166.680
X306.828Y166.671
X306.813Y166.662
X306.797Y166.653
X306.782Y166.644
X306.768Y166.634
X306.753Y166.625
X306.739Y166.616
X306.726Y166.606
X306.712Y166.597
X306.699Y166.587
X306.686Y166.578
X306.674Y166.568
X306.662Y166.558
X306.650Y166.549
X306.638Y166.539
X306.627Y166.529
X306.616Y166.519
X306.606Y166.509
X306.596Y166.499
X306.586Y166.489
X306.577Y166.478
X306.567Y166.468
X306.559Y166.458
X306.550Y166.447
X306.542Y166.437
X306.534Y166.426
X306.527Y166.416
X306.519Y166.405
X306.513Y166.395
X306.496Y166.369
X306.479Y166.343
X306.460Y166.318
X306.441Y166.292
X306.421Y166.267
X306.400Y166.243
X306.377Y166.218
X306.354Y166.194
X306.330Y166.170
X306.306Y166.146
X306.280Y166.122
X306.253Y166.098
X306.226Y166.075
X306.197Y166.052
X306.168Y166.029
X306.138Y166.007
X306.107Y165.984
X306.075Y165.962
X306.042Y165.940
X306.008Y165.918
X305.974Y165.897
X305.938Y165.875
X305.902Y165.854
X305.865Y165.833
X305.827Y165.813
X305.788Y165.792
X305.749Y165.772
X305.708Y165.752
X305.667Y165.732
X305.625Y165.713
X305.582Y165.693
X305.539Y165.674
X305.494Y165.655
X305.449Y165.636
X305.403Y165.618
X305.356Y165.599
X305.309Y165.581
X305.260Y165.563
X305.211Y165.546
X305.161Y165.528
X305.110Y165.511
X305.059Y165.494
X305.007Y165.477
X304.954Y165.461
X304.900Y165.444
X304.846Y165.428
X304.790Y165.412
X304.734Y165.396
X304.678Y165.381
X304.620Y165.365
X304.562Y165.350
X304.503Y165.335
X304.444Y165.321
X304.384Y165.306
X304.323Y165.292
X304.261Y165.278
X304.199Y165.264
X304.136Y165.251
X304.072Y165.237
X304.008Y165.224
X303.943Y165.211
X303.877Y165.198
X303.810Y165.186
X303.743Y165.173
X303.676Y165.161
X303.607Y165.149
X303.538Y165.138
X303.469Y165.126
X303.398Y165.115
X303.327Y165.104
X303.256Y165.093
X303.184Y165.082
X303.111Y165.072
X303.038Y165.062
X302.964Y165.052
X302.889Y165.042
X302.814Y165.032
X302.738Y165.023
X302.661Y165.014
X302.584Y165.005
X302.507Y164.996
X302.429Y164.988
X302.350Y164.979
X302.271Y164.971
X302.191Y164.963
X302.110Y164.956
X302.029Y164.948
X301.948Y164.941
X301.866Y164.934
X301.783Y164.927
X301.700Y164.920
X301.616Y164.914
X301.532Y164.908
X301.447Y164.902
X301.362Y164.896
X301.276Y164.890
X301.190Y164.885
X301.103Y164.880
X301.016Y164.875
X300.928Y164.870
X300.839Y164.866
X300.751Y164.862
X300.661Y164.857
X300.572Y164.854
X300.481Y164.850
X300.391Y164.846
X300.300Y164.843
X300.208Y164.840
X300.116Y164.837
X300.023Y164.835
X299.930Y164.832
X299.837Y164.830
X299.743Y164.828
X299.649Y164.826
X299.554Y164.825
X299.459Y164.823
X299.363Y164.822
X299.267Y164.821
X299.171Y164.821
X299.074Y164.820
X298.879Y164.820
X298.683Y164.820
X298.485Y164.821
X298.286Y164.824
X298.085Y164.827
X297.883Y164.830
X297.679Y164.835
X297.474Y164.840
X297.268Y164.847
X297.060Y164.854
X296.851Y164.862
X296.641Y164.871
X296.430Y164.880
X296.218Y164.891
X296.004Y164.902
X295.790Y164.914
X295.574Y164.927
X295.358Y164.941
X295.141Y164.955
X294.922Y164.971
X294.703Y164.987
X294.483Y165.004
X294.262Y165.022
X294.040Y165.041
X293.818Y165.060
X293.595Y165.081
X293.371Y165.102
X293.147Y165.124
X292.922Y165.147
X292.697Y165.171
X292.471Y165.195
X292.244Y165.221
X292.017Y165.247
X291.790Y165.274
X291.562Y165.302
X291.334Y165.330
X291.106Y165.360
X290.877Y165.390
X290.649Y165.421
X290.420Y165.453
X290.191Y165.486
X289.961Y165.519
X289.732Y165.554
X289.503Y165.589
X289.273Y165.625
X289.044Y165.662
X288.815Y165.699
X288.586Y165.738
X288.357Y165.777
X288.128Y165.817
X287.900Y165.858
X287.671Y165.900
X287.443Y165.942
X287.216Y165.986
X286.988Y166.030
X286.761Y166.075
X286.535Y166.121
X286.309Y166.167
X286.083Y166.215
X285.858Y166.263
X285.634Y166.312
X285.410Y166.362
X285.187Y166.413
X284.965Y166.464
X284.743Y166.516
X284.522Y166.569
X284.302Y166.623
X284.083Y166.678
X283.984Y166.703
X283.886Y166.727
X283.787Y166.751
X283.688Y166.775
X283.588Y166.798
X283.489Y166.821
X283.389Y166.844
X283.290Y166.867
X283.190Y166.889
X283.090Y166.911
X282.990Y166.932
X282.889Y166.954
X282.789Y166.975
X282.689Y166.995
X282.588Y167.016
X282.488Y167.036
X282.387Y167.056
X282.287Y167.075
X282.186Y167.094
X282.085Y167.113
X281.985Y167.132
X281.884Y167.150
X281.783Y167.168
X281.683Y167.186
X281.582Y167.203
X281.482Y167.220
X281.381Y167.237
X281.281Y167.253
X281.180Y167.270
X281.080Y167.285
X280.980Y167.301
X280.880Y167.316
X280.780Y167.331
X280.680Y167.345
X280.580Y167.360
X280.481Y167.374
X280.381Y167.387
X280.282Y167.400
X280.183Y167.413
X280.084Y167.426
X279.986Y167.438
X279.887Y167.450
X279.789Y167.462
X279.691Y167.473
X279.594Y167.484
X279.496Y167.495
X279.399Y167.506
X279.302Y167.516
X279.205Y167.525
X279.109Y167.535
X279.013Y167.544
X278.918Y167.553
X278.822Y167.561
X278.727Y167.569
X278.633Y167.577
X278.538Y167.585
X278.444Y167.592
X278.351Y167.599
X278.258Y167.605
X278.165Y167.611
X278.073Y167.617
X277.981Y167.623
X277.890Y167.628
X277.799Y167.633
X277.708Y167.637
X277.618Y167.642
X277.529Y167.645
X277.440Y167.649
X277.351Y167.652
X277.263Y167.655
X277.175Y167.658
X277.089Y167.660
X277.002Y167.662
X276.916Y167.663
X276.831Y167.664
X276.746Y167.665
X276.662Y167.666
X276.579Y167.666
X276.496Y167.666
X276.413Y167.665
X276.332Y167.664
X276.251Y167.663
X276.170Y167.662
X276.091Y167.660
X276.012Y167.658
X275.933Y167.655
X275.856Y167.652
X275.779Y167.649
X275.702Y167.645
X275.627Y167.641
X275.552Y167.637
X275.478Y167.632
X275.405Y167.627
X275.332Y167.622
X275.297Y167.619
X275.261Y167.617
X275.225Y167.614
X275.190Y167.610
X275.155Y167.607
X275.120Y167.604
X275.085Y167.601
X275.051Y167.597
X275.016Y167.594
X274.982Y167.590
X274.948Y167.587
X274.914Y167.583
X274.881Y167.579
X274.848Y167.575
X274.815Y167.571
X274.782Y167.567
X274.749Y167.563
X274.717Y167.559
X274.685Y167.554
X274.653Y167.550
X274.621Y167.545
X274.589Y167.541
X274.558Y167.536
X274.527Y167.531
X274.496Y167.526
X274.465Y167.521
X274.435Y167.516
X274.405Y167.511
X274.375Y167.506
X274.345Y167.500
X274.316Y167.495
X274.287Y167.489
X274.258Y167.484
X274.229Y167.478
X274.200Y167.472
X274.172Y167.466
X274.144Y167.460
X274.116Y167.454
X274.089Y167.448
X274.062Y167.442
X274.035Y167.436
X274.008Y167.429
X273.981Y167.423
X273.955Y167.416
X273.929Y167.409
X273.903Y167.403
X273.878Y167.396
X273.852Y167.389
X273.827Y167.382
X273.803Y167.375
X273.778Y167.367
X273.754Y167.360
X273.730Y167.353
X273.706Y167.345
X273.683Y167.338
X273.660Y167.330
X273.637Y167.322
X273.614Y167.314
X273.592Y167.306
X273.570Y167.298
X273.548Y167.290
X273.527Y167.282
X273.506Y167.274
X273.485Y167.265
X273.464Y167.257
X273.444Y167.248
X273.424Y167.239
X273.404Y167.231
X273.315Y167.191
X273.226Y167.151
X273.139Y167.112
X273.052Y167.074
X272.966Y167.036
X272.881Y166.999
X272.797Y166.962
X272.713Y166.926
X272.630Y166.890
X272.547Y166.855
X272.464Y166.820
X272.382Y166.786
X272.301Y166.752
X272.219Y166.719
X272.138Y166.686
X272.057Y166.654
X271.895Y166.590
X271.733Y166.529
X271.570Y166.469
X271.488Y166.439
X271.406Y166.410
X271.324Y166.381
X271.241Y166.353
X271.157Y166.325
X271.074Y166.297
X270.989Y166.270
X270.904Y166.243
X270.818Y166.216
X270.732Y166.190
X270.644Y166.164
X270.556Y166.138
X270.466Y166.113
X270.376Y166.088
X270.285Y166.063
X270.192Y166.038
X270.099Y166.014
X270.004Y165.990
X269.908Y165.966
X269.810Y165.942
X269.711Y165.919
X269.611Y165.896
X269.509Y165.873
X269.405Y165.850
X269.300Y165.827
X269.193Y165.805
X269.085Y165.783
X268.974Y165.761
X268.919Y165.750
X268.862Y165.739
X268.805Y165.728
X268.748Y165.717
X268.690Y165.706
X268.632Y165.696
X268.573Y165.685
X268.514Y165.674
X268.454Y165.664
X268.394Y165.653
X268.333Y165.642
X268.271Y165.632
X268.209Y165.621
X268.147Y165.611
X268.083Y165.600
X268.020Y165.590
X267.955Y165.579
X267.891Y165.569
X267.825Y165.558
X267.759Y165.548
X267.692Y165.538
X267.625Y165.527
X267.557Y165.517
X267.488Y165.507
X267.419Y165.496
X267.349Y165.486
X267.279Y165.476
X267.208Y165.466
X267.136Y165.455
X267.063Y165.445
X266.990Y165.435
X266.916Y165.425
X266.842Y165.414
X266.766Y165.404
X266.690Y165.394
X266.614Y165.384
X266.536Y165.374
X266.458Y165.363
X266.379Y165.353
X266.300Y165.343
X266.219Y165.333
X266.138Y165.323
X266.056Y165.312
X265.974Y165.302
X265.890Y165.292
X265.806Y165.282
X265.721Y165.272
X265.635Y165.261
X265.548Y165.251
X265.461Y165.241
X265.372Y165.231
X265.283Y165.220
X265.193Y165.210
X265.103Y165.200
X265.011Y165.190
X264.918Y165.179
X264.825Y165.169
X264.731Y165.159
X264.636Y165.148
X264.540Y165.138
X264.443Y165.127
X264.345Y165.117
X264.246Y165.106
X264.146Y165.096
X264.046Y165.085
X263.944Y165.075
X263.842Y165.064
X263.738Y165.054
X263.634Y165.043
X263.529Y165.032
X263.422Y165.022
X263.315Y165.011
X263.207Y165.000
X263.098Y164.989
X262.987Y164.979
X262.876Y164.968
X262.764Y164.957
X262.651Y164.946
X262.536Y164.935
X262.421Y164.924
X262.305Y164.913
X262.187Y164.902
X262.069Y164.891
X261.949Y164.879
X261.829Y164.868
X261.707Y164.857
X261.584Y164.846
X261.461Y164.834
X261.336Y164.823
X261.210Y164.811
X261.082Y164.800
X260.954Y164.788
X260.825Y164.776
X260.694Y164.765
X260.563Y164.753
X260.430Y164.741
X260.296Y164.729
X260.161Y164.717
X260.024Y164.705
X259.887Y164.693
X259.748Y164.681
X259.609Y164.669
X259.467Y164.657
X259.325Y164.645
X259.182Y164.632
X259.037Y164.620
X258.891Y164.607
X258.744Y164.595
X258.596Y164.582
X258.446Y164.569
X258.295Y164.556
X258.143Y164.544
X257.990Y164.531
X257.835Y164.518
X257.679Y164.504
X257.522Y164.491
X257.363Y164.478
X257.204Y164.465
X257.042Y164.451
X256.880Y164.438
X256.716Y164.424
X256.551Y164.411
X256.385Y164.397
X256.217Y164.383
X256.048Y164.369
X255.877Y164.355
X255.705Y164.341
X255.532Y164.327
X255.357Y164.312
X255.181Y164.298
X255.004Y164.284
X254.825Y164.269
X254.645Y164.254
X254.463Y164.240
X254.280Y164.225
X254.095Y164.210
X253.909Y164.195
X253.722Y164.180
X253.533Y164.164
X253.343Y164.149
X253.151Y164.134
X252.958Y164.118
X252.763Y164.102
X252.567Y164.087
X252.369Y164.071
X252.170Y164.055
X251.969Y164.039
X251.767Y164.022
X251.563Y164.006
X251.357Y163.990
X251.151Y163.973
X250.942Y163.956
X250.732Y163.940
X250.521Y163.923
X250.307Y163.906
X250.093Y163.889
X249.969Y163.879
X249.846Y163.869
X249.724Y163.859
X249.602Y163.850
X249.481Y163.840
X249.360Y163.831
X249.240Y163.822
X249.120Y163.813
X249.001Y163.804
X248.883Y163.795
X248.765Y163.786
X248.647Y163.777
X248.531Y163.768
X248.414Y163.760
X248.298Y163.751
X248.183Y163.743
X248.068Y163.735
X247.954Y163.726
X247.841Y163.718
X247.728Y163.710
X247.615Y163.702
X247.503Y163.695
X247.392Y163.687
X247.281Y163.679
X247.170Y163.672
X247.060Y163.664
X246.951Y163.657
X246.842Y163.650
X246.734Y163.643
X246.626Y163.636
X246.519Y163.629
X246.413Y163.622
X246.307Y163.615
X246.201Y163.609
X246.096Y163.602
X245.992Y163.596
X245.888Y163.589
X245.784Y163.583
X245.681Y163.577
X245.579Y163.571
X245.477Y163.565
X245.376Y163.559
X245.275Y163.553
X245.175Y163.548
X245.075Y163.542
X244.976Y163.536
X244.877Y163.531
X244.779Y163.526
X244.682Y163.521
X244.584Y163.516
X244.488Y163.511
X244.392Y163.506
X244.296Y163.501
X244.201Y163.496
X244.107Y163.492
X244.013Y163.487
X243.920Y163.483
X243.827Y163.478
X243.734Y163.474
X243.643Y163.470
X243.551Y163.466
X243.460Y163.462
X243.370Y163.458
X243.280Y163.455
X243.191Y163.451
X243.102Y163.448
X243.014Y163.444
X242.926Y163.441
X242.839Y163.438
X242.753Y163.434
X242.666Y163.431
X242.581Y163.429
X242.496Y163.426
X242.411Y163.423
X242.327Y163.420
X242.243Y163.418
X242.160Y163.415
X242.078Y163.413
X241.996Y163.411
X241.914Y163.409
X241.833Y163.407
X241.753Y163.405
X241.673Y163.403
X241.593Y163.401
X241.514Y163.399
X241.436Y163.398
X241.358Y163.396
X241.280Y163.395
X241.203Y163.394
X241.127Y163.393
X241.051Y163.391
X240.975Y163.391
X240.900Y163.390
X240.826Y163.389
X240.752Y163.388
X240.678Y163.388
X240.605Y163.387
X240.533Y163.387
X240.461Y163.387
X240.389Y163.386
X240.318Y163.386
X240.248Y163.386
X240.178Y163.386
X240.108Y163.387
X240.040Y163.387
X239.971Y163.387
X239.903Y163.388
X239.836Y163.388
X239.769Y163.389
X239.702Y163.390
X239.636Y163.391
X239.570Y163.392
X239.505Y163.393
X239.441Y163.394
X239.377Y163.396
X239.313Y163.397
X239.250Y163.398
X239.188Y163.400
X239.126Y163.402
X239.064Y163.404
X239.003Y163.405
X238.942Y163.407
X238.882Y163.410
X238.822Y163.412
X238.763Y163.414
X238.705Y163.416
X238.646Y163.419
X238.589Y163.422
X238.531Y163.424
X238.475Y163.427
X238.418Y163.430
X238.363Y163.433
X238.307Y163.436
X238.253Y163.439
X238.198Y163.442
X238.144Y163.446
X238.091Y163.449
X238.038Y163.453
X237.986Y163.457
X237.934Y163.460
X237.882Y163.464
X237.831Y163.468
X237.781Y163.472
X237.731Y163.477
X237.681Y163.481
X237.632Y163.485
X237.583Y163.490
X237.535Y163.494
X237.488Y163.499
X237.440Y163.504
X237.394Y163.509
X237.347Y163.514
X237.302Y163.519
X237.256Y163.524
X237.211Y163.529
X237.167Y163.535
X237.123Y163.540
X237.080Y163.546
X237.037Y163.551
X236.994Y163.557
X236.952Y163.563
X236.911Y163.569
X236.869Y163.575
X236.829Y163.581
X236.789Y163.588
X236.749Y163.594
X236.710Y163.600
X236.671Y163.607
X236.632Y163.614
X236.595Y163.621
X236.557Y163.627
X236.520Y163.634
X236.484Y163.642
X236.448Y163.649
X236.412Y163.656
X236.377Y163.663
X236.342Y163.671
X236.308Y163.678
X236.274Y163.686
X236.241Y163.694
X236.208Y163.702
X236.176Y163.710
X236.144Y163.718
X236.113Y163.726
X236.081Y163.734
X236.051Y163.743
X236.021Y163.751
X235.991Y163.760
X235.962Y163.769
X235.933Y163.777
X235.905Y163.786
X235.877Y163.795
X235.850Y163.804
X235.823Y163.814
X235.796Y163.823
X235.770Y163.832
X235.744Y163.842
X235.719Y163.852
X235.695Y163.861
X235.670Y163.871
X235.646Y163.881
X235.623Y163.891
X235.600Y163.901
X235.578Y163.911
X235.555Y163.922
X235.534Y163.932
X235.513Y163.943
X235.492Y163.953
X235.472Y163.964
X235.452Y163.975
X235.432Y163.986
X235.413Y163.997
X235.395Y164.008
X235.377Y164.019
X235.359Y164.030
X235.342Y164.042
X235.325Y164.053
X235.309Y164.065
X235.293Y164.077
X235.277Y164.089
X235.262Y164.101
X235.248Y164.113
X235.233Y164.125
X235.220Y164.137
X235.206Y164.149
X235.193Y164.162
X235.181Y164.174
X235.169Y164.187
X235.157Y164.200
X235.146Y164.213
X235.135Y164.226
X235.125Y164.239
X235.115Y164.252
X235.106Y164.265
X235.097Y164.278
X235.088Y164.292
X235.080Y164.305
X235.072Y164.319
X235.065Y164.333
X235.058Y164.347
X235.051Y164.361
X235.045Y164.375
X235.040Y164.389
X235.034Y164.403
X235.030Y164.418
X235.025Y164.432
X235.021Y164.447
X235.018Y164.461
X235.015Y164.476
X235.012Y164.491
X235.010Y164.506
X235.008Y164.521
X235.006Y164.537
X235.005Y164.552
X235.005Y164.567
X235.004Y164.583
X235.004Y164.597
X235.004Y164.610
X235.003Y164.624
X235.001Y164.638
X235.000Y164.651
X234.998Y164.665
X234.995Y164.678
X234.993Y164.692
X234.989Y164.705
X234.986Y164.718
X234.982Y164.732
X234.978Y164.745
X234.973Y164.758
X234.968Y164.772
X234.963Y164.785
X234.957Y164.798
X234.951Y164.811
X234.945Y164.824
X234.938Y164.837
X234.931Y164.850
X234.924Y164.863
X234.916Y164.876
X234.908Y164.889
X234.899Y164.901
X234.890Y164.914
X234.881Y164.927
X234.871Y164.939
X234.861Y164.952
X234.851Y164.965
X234.840Y164.977
X234.829Y164.990
X234.818Y165.002
X234.806Y165.014
X234.794Y165.027
X234.781Y165.039
X234.769Y165.051
X234.755Y165.063
X234.742Y165.076
X234.728Y165.088
X234.714Y165.100
X234.699Y165.112
X234.684Y165.124
X234.669Y165.136
X234.654Y165.148
X234.638Y165.159
X234.621Y165.171
X234.605Y165.183
X234.588Y165.195
X234.570Y165.206
X234.553Y165.218
X234.535Y165.230
X234.516Y165.241
X234.498Y165.253
X234.479Y165.264
X234.459Y165.275
X234.439Y165.287
X234.419Y165.298
X234.399Y165.309
X234.378Y165.320
X234.357Y165.331
X234.336Y165.343
X234.314Y165.354
X234.292Y165.365
X234.269Y165.376
X234.247Y165.386
X234.224Y165.397
X234.200Y165.408
X234.176Y165.419
X234.152Y165.430
X234.128Y165.440
X234.103Y165.451
X234.078Y165.461
X234.052Y165.472
X234.027Y165.482
X234.001Y165.493
X233.974Y165.503
X233.947Y165.514
X233.920Y165.524
X233.893Y165.534
X233.865Y165.544
X233.837Y165.554
X233.809Y165.564
X233.780Y165.574
X233.751Y165.584
X233.722Y165.594
X233.692Y165.604
X233.662Y165.614
X233.632Y165.624
X233.601Y165.634
X233.570Y165.643
X233.539Y165.653
X233.507Y165.662
X233.475Y165.672
X233.443Y165.681
X233.410Y165.691
X233.377Y165.700
X233.344Y165.710
X233.310Y165.719
X233.276Y165.728
X233.242Y165.737
X233.208Y165.746
X233.173Y165.755
X233.138Y165.764
X233.102Y165.773
X233.067Y165.782
X233.031Y165.791
X232.994Y165.800
X232.957Y165.809
X232.920Y165.817
X232.883Y165.826
X232.845Y165.835
X232.807Y165.843
X232.769Y165.852
X232.731Y165.860
X232.692Y165.869
X232.653Y165.877
X232.613Y165.885
X232.573Y165.893
X232.533Y165.902
X232.493Y165.910
X232.452Y165.918
X232.411Y165.926
X232.370Y165.934
X232.328Y165.942
X232.286Y165.950
X232.244Y165.957
X232.201Y165.965
X232.158Y165.973
X232.115Y165.981
X232.072Y165.988
X232.028Y165.996
X231.984Y166.003
X231.940Y166.011
X231.895Y166.018
X231.850Y166.025
X231.805Y166.033
X231.759Y166.040
X231.713Y166.047
X231.667Y166.054
X231.621Y166.061
X231.574Y166.068
X231.527Y166.075
X231.480Y166.082
X231.432Y166.089
X231.384Y166.096
X231.336Y166.102
X231.287Y166.109
X231.239Y166.116
X231.190Y166.122
X231.140Y166.129
X231.091Y166.135
X231.041Y166.141
X230.990Y166.148
X230.940Y166.154
X230.889Y166.160
X230.838Y166.166
X230.787Y166.173
X230.735Y166.179
X230.683Y166.185
X230.631Y166.191
X230.578Y166.196
X230.525Y166.202
X230.472Y166.208
X230.419Y166.214
X230.365Y166.219
X230.311Y166.225
X230.257Y166.230
X230.203Y166.236
X230.148Y166.241
X230.093Y166.247
X230.037Y166.252
X229.982Y166.257
X229.926Y166.262
X229.870Y166.268
X229.813Y166.273
X229.757Y166.278
X229.700Y166.283
X229.642Y166.287
X229.585Y166.292
X229.527Y166.297
X229.469Y166.302
X229.410Y166.306
X229.352Y166.311
X229.293Y166.316
X229.234Y166.320
X229.174Y166.325
X229.115Y166.329
X229.055Y166.333
X228.994Y166.337
X228.934Y166.342
X228.873Y166.346
X228.812Y166.350
X228.751Y166.354
X228.689Y166.358
X228.627Y166.362
X228.565Y166.365
X228.502Y166.369
X228.440Y166.373
X228.377Y166.377
X228.314Y166.380
X228.250Y166.384
X228.187Y166.387
X228.123Y166.391
X228.058Y166.394
X227.994Y166.397
X227.929Y166.400
X227.864Y166.404
X227.799Y166.407
X227.733Y166.410
X227.667Y166.413
X227.601Y166.416
X227.535Y166.418
X227.468Y166.421
X227.402Y166.424
X227.334Y166.427
X227.267Y166.429
X227.200Y166.432
X227.132Y166.434
X227.064Y166.437
X226.995Y166.439
X226.927Y166.441
X226.858Y166.443
X226.789Y166.446
X226.719Y166.448
X226.650Y166.450
X226.580Y166.452
X226.510Y166.454
X226.439Y166.455
X226.369Y166.457
X226.298Y166.459
X226.227Y166.461
X226.155Y166.462
X226.084Y166.464
X226.012Y166.465
X225.940Y166.467
X225.868Y166.468
X225.795Y166.469
X225.722Y166.470
X225.649Y166.472
X225.576Y166.473
X225.502Y166.474
X225.429Y166.475
X225.355Y166.475
X225.280Y166.476
X225.206Y166.477
X225.131Y166.478
X225.056Y166.478
X224.981Y166.479
X224.905Y166.479
X224.830Y166.480
X224.754Y166.480
X224.678Y166.480
X224.601Y166.481
X224.525Y166.481
X224.448Y166.481
X224.371Y166.481
X224.234Y166.481
X224.098Y166.481
X223.962Y166.480
X223.827Y166.480
X223.692Y166.479
X223.559Y166.478
X223.425Y166.477
X223.293Y166.476
X223.161Y166.474
X223.029Y166.473
X222.899Y166.471
X222.769Y166.469
X222.639Y166.467
X222.510Y166.465
X222.382Y166.463
X222.255Y166.460
X222.129Y166.458
X222.003Y166.455
X221.878Y166.452
X221.753Y166.449
X221.629Y166.446
X221.507Y166.443
X221.384Y166.439
X221.263Y166.435
X221.143Y166.432
X221.023Y166.428
X220.963Y166.426
X220.904Y166.424
X220.845Y166.422
X220.786Y166.420
X220.727Y166.417
X220.668Y166.415
X220.610Y166.413
X220.552Y166.411
X220.494Y166.409
X220.436Y166.406
X220.379Y166.404
X220.321Y166.401
X220.264Y166.399
X220.207Y166.397
X220.151Y166.394
X220.094Y166.392
X220.038Y166.389
X219.982Y166.386
X219.926Y166.384
X219.871Y166.381
X219.816Y166.379
X219.761Y166.376
X219.706Y166.373
X219.651Y166.370
X219.597Y166.367
X219.543Y166.365
X219.489Y166.362
X219.435Y166.359
X219.381Y166.356
X219.328Y166.353
X219.275Y166.350
X219.223Y166.347
X219.170Y166.344
X219.118Y166.341
X219.066Y166.338
X219.014Y166.335
X218.962Y166.331
X218.911Y166.328
X218.860Y166.325
X218.809Y166.322
X218.759Y166.318
X218.709Y166.315
X218.658Y166.312
X218.609Y166.308
X218.559Y166.305
X218.510Y166.301
X218.461Y166.298
X218.412Y166.294
X218.364Y166.291
X218.315Y166.287
X218.267Y166.284
X218.220Y166.280
X218.172Y166.276
X218.125Y166.273
X218.078Y166.269
X218.032Y166.265
X217.985Y166.262
X217.939Y166.258
X217.893Y166.254
X217.848Y166.250
X217.802Y166.246
X217.757Y166.242
X217.713Y166.238
X217.668Y166.234
X217.624Y166.230
X217.580Y166.226
X217.536Y166.222
X217.493Y166.218
X217.450Y166.214
X217.407Y166.210
X217.365Y166.206
X217.323Y166.202
X217.281Y166.198
X217.239Y166.193
X217.198Y166.189
X217.157Y166.185
X217.116Y166.181
X217.076Y166.176
X217.035Y166.172
X216.996Y166.168
X216.956Y166.163
X216.917Y166.159
X216.878Y166.154
X216.839Y166.150
X216.801Y166.145
X216.763Y166.141
X216.725Y166.136
X216.687Y166.132
X216.650Y166.127
X216.614Y166.123
X216.577Y166.118
X216.541Y166.113
X216.505Y166.109
X216.469Y166.104
X216.434Y166.099
X216.399Y166.094
X216.365Y166.090
X216.330Y166.085
X216.296Y166.080
X216.263Y166.075
X216.229Y166.070
X216.196Y166.065
X216.163Y166.060
X216.131Y166.056
X216.099Y166.051
X216.067Y166.046
X216.036Y166.041
X216.005Y166.036
X215.974Y166.031
X215.944Y166.025
X215.914Y166.020
X215.884Y166.015
X215.855Y166.010
X215.826Y166.005
X215.797Y166.000
X215.768Y165.995
X215.740Y165.989
X215.713Y165.984
X215.685Y165.979
X215.658Y165.974
X215.632Y165.968
X215.605Y165.963
X215.579Y165.958
X215.554Y165.952
X215.529Y165.947
X215.504Y165.942
X215.479Y165.936
X215.455Y165.931
X215.431Y165.925
X215.408Y165.920
X215.384Y165.915
X215.362Y165.909
X215.339Y165.904
X215.317Y165.898
X215.296Y165.892
X215.274Y165.887
X215.253Y165.881
X215.233Y165.876
X215.212Y165.870
X215.193Y165.864
X215.173Y165.859
X215.154Y165.853
X215.135Y165.847
X215.117Y165.842
X215.099Y165.836
X215.081Y165.830
X215.064Y165.824
X215.047Y165.819
X215.031Y165.813
X215.015Y165.807
X214.999Y165.801
X214.984Y165.795
X214.969Y165.790
X214.954Y165.784
X214.940Y165.778
X214.926Y165.772
X214.913Y165.766
X214.900Y165.760
X214.887Y165.754
X214.875Y165.748
X214.863Y165.742
X214.852Y165.736
X214.841Y165.730
X214.830Y165.724
X214.820Y165.718
X214.810Y165.712
X214.801Y165.706
X214.792Y165.700
X214.783Y165.694
X214.775Y165.688
X214.767Y165.682
X214.759Y165.676
X214.753Y165.669
X214.746Y165.663
X214.740Y165.657
X214.734Y165.651
X214.729Y165.645
X214.724Y165.638
X214.719Y165.632
X214.715Y165.626
X214.711Y165.620
X214.708Y165.614
X214.705Y165.607
X214.703Y165.601
X214.701Y165.595
X214.699Y165.588
X214.698Y165.582
X214.697Y165.576
X214.697Y165.569
X214.697Y165.563
X214.698Y165.557
X214.699Y165.550
X214.700Y165.544
X214.702Y165.538
X214.704Y165.531
X214.707Y165.525
X214.710Y165.518
X214.714Y165.512
X214.718Y165.505
X214.723Y165.499
X214.727Y165.493
X214.733Y165.486
X214.739Y165.480
X214.745Y165.473
X214.753Y165.465
X214.761Y165.457
X214.769Y165.448
X214.776Y165.440
X214.784Y165.431
X214.791Y165.422
X214.798Y165.413
X214.805Y165.404
X214.812Y165.395
X214.819Y165.386
X214.825Y165.377
X214.832Y165.367
X214.838Y165.358
X214.844Y165.348
X214.850Y165.338
X214.856Y165.329
X214.861Y165.319
X214.867Y165.309
X214.872Y165.299
X214.877Y165.288
X214.882Y165.278
X214.887Y165.268
X214.892Y165.257
X214.896Y165.246
X214.901Y165.236
X214.905Y165.225
X214.909Y165.214
X214.913Y165.203
X214.917Y165.192
X214.920Y165.181
X214.924Y165.169
X214.927Y165.158
X214.931Y165.146
X214.934Y165.135
X214.937Y165.123
X214.939Y165.111
X214.942Y165.099
X214.945Y165.087
X214.947Y165.075
X214.949Y165.063
X214.951Y165.051
X214.953Y165.039
X214.955Y165.026
X214.957Y165.014
X214.958Y165.001
X214.960Y164.989
X214.962Y164.963
X214.964Y164.937
X214.965Y164.911
X214.966Y164.884
X214.966Y164.857
X214.966Y164.830
X214.965Y164.802
X214.963Y164.774
X214.961Y164.746
X214.959Y164.717
X214.956Y164.688
X214.952Y164.659
X214.948Y164.629
X214.944Y164.600
X214.939Y164.569
X214.933Y164.539
X214.927Y164.508
X214.921Y164.477
X214.914Y164.446
X214.906Y164.415
X214.898Y164.383
X214.890Y164.351
X214.881Y164.318
X214.871Y164.286
X214.861Y164.253
X214.851Y164.220
X214.840Y164.186
X214.829Y164.153
X214.817Y164.119
X214.805Y164.085
X214.792Y164.050
X214.779Y164.016
X214.766Y163.981
X214.752Y163.946
X214.737Y163.911
X214.722Y163.875
X214.707Y163.840
X214.691Y163.804
X214.675Y163.768
X214.659Y163.732
X214.642Y163.695
X214.625Y163.659
X214.607Y163.622
X214.589Y163.585
X214.570Y163.548
X214.551Y163.510
X214.532Y163.473
X214.512Y163.435
X214.492Y163.397
X214.471Y163.359
X214.451Y163.321
X214.429Y163.283
X214.408Y163.245
X214.386Y163.206
X214.363Y163.167
X214.341Y163.128
X214.317Y163.089
X214.294Y163.050
X214.270Y163.011
X214.246Y162.972
X214.222Y162.932
X214.197Y162.893
X214.172Y162.853
X214.146Y162.813
X214.120Y162.773
X214.094Y162.733
X214.068Y162.693
X214.041Y162.653
X214.014Y162.613
X213.986Y162.573
X213.959Y162.532
X213.931Y162.492
X213.902Y162.451
X213.874Y162.411
X213.845Y162.370
X213.816Y162.329
X213.786Y162.289
X213.756Y162.248
X213.726Y162.207
X213.696Y162.166
X213.665Y162.125
X213.635Y162.084
X213.603Y162.043
X213.572Y162.002
X213.540Y161.961
X213.508Y161.920
X213.476Y161.879
X213.444Y161.838
X213.411Y161.797
X213.378Y161.756
X213.345Y161.715
X213.312Y161.674
X213.278Y161.633
X213.244Y161.592
X213.210Y161.551
X213.176Y161.510
X213.142Y161.469
X213.107Y161.428
X213.072Y161.387
X213.037Y161.347
X213.002Y161.306
X212.966Y161.265
X212.930Y161.225
X212.894Y161.184
X212.858Y161.143
X212.822Y161.103
X212.786Y161.062
X212.749Y161.022
X212.712Y160.982
X212.675Y160.942
X212.638Y160.901
X212.601Y160.861
X212.563Y160.821
X212.526Y160.782
X212.488Y160.742
X212.450Y160.702
X212.412Y160.663
X212.374Y160.623
X212.335Y160.584
X212.297Y160.545
X212.258Y160.506
X212.219Y160.467
X212.181Y160.428
X212.142Y160.389
X212.102Y160.351
X212.063Y160.312
X212.024Y160.274
X211.984Y160.236
X211.945Y160.198
X211.905Y160.160
X211.865Y160.123
X211.826Y160.085
X211.786Y160.048
X211.746Y160.011
X211.706Y159.974
X211.665Y159.937
X211.625Y159.901
X211.585Y159.864
X211.544Y159.828
X211.504Y159.792
X211.463Y159.756
X211.423Y159.721
X211.382Y159.685
X211.342Y159.650
X211.301Y159.615
X211.260Y159.581
X211.219Y159.546
X211.178Y159.512
X211.138Y159.478
X211.097Y159.444
X211.056Y159.411
X211.015Y159.377
X210.974Y159.344
X210.933Y159.311
X210.892Y159.279
X210.851Y159.247
X210.810Y159.215
X210.769Y159.183
X210.728Y159.151
X210.687Y159.120
X210.646Y159.089
X210.605Y159.059
X210.564Y159.028
X210.523Y158.998
X210.482Y158.969
X210.441Y158.939
X210.400Y158.910
X210.359Y158.881
X210.319Y158.853
X210.278Y158.825
X210.237Y158.797
X210.196Y158.769
X210.156Y158.742
X210.115Y158.715
X210.075Y158.688
X210.034Y158.662
X209.994Y158.636
X209.954Y158.611
X209.913Y158.586
X209.873Y158.561
X209.833Y158.536
X209.793Y158.512
X209.753Y158.489
X209.714Y158.465
X209.674Y158.442
X209.634Y158.420
X209.595Y158.397
X209.555Y158.376
X209.516Y158.354
X209.477Y158.333
X209.438Y158.313
X209.399Y158.292
X209.360Y158.272
X209.321Y158.253
X209.283Y158.234
X209.244Y158.215
X209.206Y158.197
X209.168Y158.180
X209.130Y158.162
X209.092Y158.145
X209.054Y158.129
X209.017Y158.113
X208.979Y158.098
X208.942Y158.082
X208.905Y158.068
X208.868Y158.054
X208.831Y158.040
X208.795Y158.027
X208.758Y158.014
X208.722Y158.002
X208.686Y157.990
X208.650Y157.979
X208.614Y157.968
X208.579Y157.957
X208.544Y157.947
X208.509Y157.938
X208.474Y157.929
X208.439Y157.921
X208.405Y157.913
X208.371Y157.906
X208.337Y157.899
X208.303Y157.893
X208.269Y157.887
X208.236Y157.882
X208.203Y157.877
X208.170Y157.873
X208.138Y157.869
X208.105Y157.866
X208.073Y157.864
X208.041Y157.862
X208.010Y157.860
X207.978Y157.859
X207.947Y157.859
X207.934Y157.859
X207.920Y157.859
X207.906Y157.859
X207.892Y157.860
X207.879Y157.860
X207.865Y157.861
X207.852Y157.861
X207.838Y157.862
X207.825Y157.863
X207.812Y157.864
X207.798Y157.865
X207.785Y157.866
X207.772Y157.867
X207.759Y157.868
X207.746Y157.870
X207.733Y157.871
X207.720Y157.873
X207.707Y157.875
X207.695Y157.876
X207.682Y157.878
X207.669Y157.880
X207.657Y157.882
X207.644Y157.884
X207.632Y157.887
X207.619Y157.889
X207.607Y157.891
X207.595Y157.894
X207.582Y157.896
X207.570Y157.899
X207.558Y157.902
X207.546Y157.905
X207.534Y157.908
X207.522Y157.911
X207.510Y157.914
X207.499Y157.917
X207.487Y157.920
X207.475Y157.924
X207.464Y157.927
X207.452Y157.931
X207.441Y157.934
X207.429Y157.938
X207.418Y157.942
X207.407Y157.946
X207.395Y157.950
X207.384Y157.954
X207.373Y157.958
X207.362Y157.962
X207.351Y157.966
X207.340Y157.971
X207.329Y157.975
X207.319Y157.980
X207.308Y157.984
X207.297Y157.989
X207.287Y157.994
X207.276Y157.999
X207.266Y158.004
X207.255Y158.009
X207.245Y158.014
X207.235Y158.019
X207.225Y158.025
X207.215Y158.030
X207.205Y158.035
X207.195Y158.041
X207.185Y158.046
X207.175Y158.052
X207.165Y158.058
X207.155Y158.064
X207.146Y158.070
X207.136Y158.076
X207.127Y158.082
X207.117Y158.088
X207.108Y158.094
X207.099Y158.101
X207.089Y158.107
X207.080Y158.113
X207.071Y158.120
X207.062Y158.127
X207.053Y158.133
X207.044Y158.140
X207.036Y158.147
X207.027Y158.154
X207.018Y158.161
X207.009Y158.168
X207.001Y158.175
X206.992Y158.182
X206.984Y158.189
X206.976Y158.197
X206.968Y158.204
X206.959Y158.212
X206.951Y158.219
X206.943Y158.227
X206.935Y158.235
X206.927Y158.242
X206.919Y158.250
X206.912Y158.258
X206.904Y158.266
X206.896Y158.274
X206.889Y158.282
X206.881Y158.291
X206.874Y158.299
X206.867Y158.307
X206.860Y158.316
X206.852Y158.324
X206.845Y158.333
X206.838Y158.341
X206.831Y158.350
X206.824Y158.359
X206.818Y158.367
X206.811Y158.376
X206.804Y158.385
X206.798Y158.394
X206.791Y158.403
X206.785Y158.412
X206.778Y158.422
X206.772Y158.431
X206.766Y158.440
X206.760Y158.450
X206.754Y158.459
X206.748Y158.469
X206.742Y158.478
X206.736Y158.488
X206.730Y158.497
X206.724Y158.507
X206.719Y158.517
X206.713Y158.527
X206.708Y158.537
X206.703Y158.547
X206.697Y158.557
X206.692Y158.567
X206.687Y158.577
X206.682Y158.587
X206.677Y158.598
X206.672Y158.608
X206.667Y158.618
X206.662Y158.629
X206.658Y158.640
X206.653Y158.650
X206.649Y158.661
X206.644Y158.671
X206.640Y158.682
X206.635Y158.693
X206.631Y158.704
X206.627Y158.715
X206.623Y158.726
X206.619Y158.737
X206.615Y158.748
X206.611Y158.759
X206.608Y158.770
X206.604Y158.782
X206.600Y158.793
X206.597Y158.804
X206.594Y158.816
X206.590Y158.827
X206.587Y158.839
X206.584Y158.850
X206.581Y158.862
X206.578Y158.873
X206.575Y158.885
X206.572Y158.897
X206.569Y158.909
X206.567Y158.921
X206.564Y158.933
X206.562Y158.945
X206.559Y158.957
X206.557Y158.969
X206.554Y158.981
X206.552Y158.993
X206.550Y159.005
X206.548Y159.018
X206.546Y159.030
X206.544Y159.042
X206.543Y159.055
X206.541Y159.067
X206.539Y159.080
X206.538Y159.092
X206.536Y159.105
X206.535Y159.117
X206.534Y159.130
X206.533Y159.143
X206.532Y159.156
X206.531Y159.168
X206.530Y159.181
X206.529Y159.194
X206.528Y159.207
X206.528Y159.220
X206.527Y159.233
X206.526Y159.246
X206.526Y159.259
X206.526Y159.273
X206.526Y159.286
X206.525Y159.299
X206.525Y159.312
X206.525Y159.326
X206.525Y159.339
X206.526Y159.352
X206.526Y159.366
X206.526Y159.379
X206.527Y159.393
X206.527Y159.406
X206.528Y159.420
X206.529Y159.434
X206.530Y159.447
X206.531Y159.461
X206.532Y159.475
X206.533Y159.489
X206.534Y159.502
X206.535Y159.516
X206.536Y159.530
X206.538Y159.544
X206.539Y159.558
X206.541Y159.572
X206.543Y159.586
X206.545Y159.600
X206.546Y159.614
X206.548Y159.629
X206.551Y159.643
X206.553Y159.657
X206.555Y159.671
X206.557Y159.686
X206.560Y159.700
X206.562Y159.714
X206.565Y159.729
X206.568Y159.743
X206.570Y159.757
X206.573Y159.772
X206.576Y159.786
X206.579Y159.801
X206.583Y159.816
X206.586Y159.830
X206.589Y159.845
X206.593Y159.859
X206.596Y159.874
X206.600Y159.889
X206.604Y159.904
X206.607Y159.918
X206.611Y159.933
X206.615Y159.948
X206.620Y159.963
X206.624Y159.978
X206.628Y159.993
X206.632Y160.008
X206.637Y160.023
X206.641Y160.038
X206.646Y160.053
X206.651Y160.068
X206.656Y160.083
X206.661Y160.098
X206.666Y160.113
X206.671Y160.128
X206.676Y160.143
X206.682Y160.158
X206.687Y160.174
X206.693Y160.189
X206.698Y160.204
X206.704Y160.219
X206.710Y160.235
X206.717Y160.254
X206.724Y160.273
X206.731Y160.292
X206.737Y160.311
X206.743Y160.331
X206.749Y160.350
X206.755Y160.369
X206.760Y160.388
X206.765Y160.407
X206.770Y160.425
X206.774Y160.444
X206.778Y160.463
X206.782Y160.482
X206.786Y160.501
X206.789Y160.519
X206.792Y160.538
X206.798Y160.575
X206.802Y160.612
X206.805Y160.649
X206.808Y160.686
X206.809Y160.723
X206.809Y160.759
X206.808Y160.796
X206.806Y160.832
X206.804Y160.868
X206.800Y160.904
X206.795Y160.939
X206.789Y160.975
X206.782Y161.010
X206.774Y161.046
X206.766Y161.081
X206.756Y161.115
X206.745Y161.150
X206.734Y161.185
X206.721Y161.219
X206.707Y161.253
X206.693Y161.287
X206.678Y161.321
X206.661Y161.355
X206.644Y161.388
X206.626Y161.422
X206.607Y161.455
X206.588Y161.488
X206.567Y161.520
X206.545Y161.553
X206.523Y161.585
X206.500Y161.618
X206.476Y161.650
X206.451Y161.681
X206.425Y161.713
X206.399Y161.745
X206.371Y161.776
X206.343Y161.807
X206.314Y161.838
X206.285Y161.868
X206.254Y161.899
X206.223Y161.929
X206.191Y161.959
X206.158Y161.989
X206.125Y162.019
X206.090Y162.048
X206.055Y162.078
X206.020Y162.107
X205.983Y162.136
X205.946Y162.164
X205.908Y162.193
X205.870Y162.221
X205.830Y162.249
X205.790Y162.277
X205.750Y162.304
X205.709Y162.332
X205.667Y162.359
X205.624Y162.386
X205.581Y162.413
X205.537Y162.439
X205.493Y162.466
X205.447Y162.492
X205.402Y162.518
X205.355Y162.543
X205.308Y162.569
X205.261Y162.594
X205.213Y162.619
X205.164Y162.643
X205.115Y162.668
X205.065Y162.692
X205.015Y162.716
X204.964Y162.740
X204.912Y162.764
X204.861Y162.787
X204.808Y162.810
X204.755Y162.833
X204.702Y162.856
X204.648Y162.878
X204.593Y162.900
X204.538Y162.922
X204.483Y162.944
X204.427Y162.965
X204.370Y162.986
X204.313Y163.007
X204.256Y163.028
X204.198Y163.048
X204.140Y163.069
X204.082Y163.088
X204.023Y163.108
X203.963Y163.128
X203.903Y163.147
X203.843Y163.166
X203.782Y163.184
X203.721Y163.203
X203.660Y163.221
X203.598Y163.239
X203.536Y163.256
X203.474Y163.274
X203.411Y163.291
X203.348Y163.307
X203.284Y163.324
X203.221Y163.340
X203.156Y163.356
X203.092Y163.372
X203.027Y163.387
X202.962Y163.403
X202.897Y163.418
X202.832Y163.432
X202.766Y163.447
X202.700Y163.461
X202.633Y163.474
X202.567Y163.488
X202.500Y163.501
X202.433Y163.514
X202.366Y163.527
X202.298Y163.539
X202.231Y163.551
X202.163Y163.563
X202.095Y163.575
X202.026Y163.586
X201.958Y163.597
X201.889Y163.608
X201.821Y163.618
X201.752Y163.628
X201.683Y163.638
X201.613Y163.647
X201.544Y163.656
X201.475Y163.665
X201.405Y163.674
X201.335Y163.682
X201.265Y163.690
X201.196Y163.698
X201.126Y163.705
X201.055Y163.712
X200.985Y163.719
X200.915Y163.725
X200.845Y163.732
X200.775Y163.737
X200.704Y163.743
X200.634Y163.748
X200.563Y163.753
X200.493Y163.758
X200.422Y163.762
X200.352Y163.766
X200.282Y163.769
X200.211Y163.773
X200.141Y163.776
X200.070Y163.778
X200.000Y163.781
X199.930Y163.783
X199.859Y163.784
X199.789Y163.786
X199.719Y163.787
X199.649Y163.787
X199.579Y163.788
X199.509Y163.788
X199.439Y163.787
X199.369Y163.787
X199.300Y163.786
X199.230Y163.784
X199.161Y163.783
X199.091Y163.781
X199.022Y163.778
X198.953Y163.776
X198.884Y163.773
X198.816Y163.769
X198.747Y163.766
X198.679Y163.761
X198.611Y163.757
X198.543Y163.752
X198.475Y163.747
X198.407Y163.742
X198.340Y163.736
X198.273Y163.730
X198.206Y163.723
X198.139Y163.716
X198.073Y163.709
X198.007Y163.702
X197.941Y163.694
X197.875Y163.685
X197.810Y163.677
X197.745Y163.668
X197.680Y163.658
X197.615Y163.648
X197.551Y163.638
X197.487Y163.628
X197.424Y163.617
X197.361Y163.606
X197.298Y163.594
X197.235Y163.582
X197.173Y163.570
X197.111Y163.557
X197.049Y163.544
X196.988Y163.530
X196.927Y163.516
X196.867Y163.502
X196.807Y163.488
X196.747Y163.473
X196.688Y163.457
X196.629Y163.441
X196.571Y163.425
X196.513Y163.409
X196.456Y163.392
X196.399Y163.374
X196.342Y163.357
X196.286Y163.339
X196.230Y163.320
X196.175Y163.301
X196.120Y163.282
X196.066Y163.262
X196.012Y163.242
X195.959Y163.222
X195.907Y163.201
X195.854Y163.180
X195.803Y163.158
X195.752Y163.136
X195.701Y163.113
X195.651Y163.090
X195.602Y163.067
X195.553Y163.043
X195.504Y163.019
X195.457Y162.995
X195.409Y162.970
X195.363Y162.944
X195.317Y162.919
X195.272Y162.892
X195.227Y162.866
X195.183Y162.839
X195.139Y162.811
X195.096Y162.784
X195.054Y162.755
X195.013Y162.727
X194.972Y162.697
X194.932Y162.668
X194.892Y162.638
X194.853Y162.608
X194.815Y162.577
X194.778Y162.545
X194.741Y162.514
X194.705Y162.482
X194.670Y162.449
X194.635Y162.416
X194.601Y162.383
X194.568Y162.349
X194.536Y162.314
X194.504Y162.280
X194.473Y162.245
X194.443Y162.209
X194.414Y162.173
X194.388Y162.141
X194.362Y162.109
X194.335Y162.077
X194.308Y162.046
X194.280Y162.014
X194.251Y161.983
X194.222Y161.952
X194.192Y161.921
X194.162Y161.890
X194.132Y161.860
X194.101Y161.830
X194.069Y161.799
X194.037Y161.769
X194.004Y161.740
X193.971Y161.710
X193.938Y161.681
X193.903Y161.651
X193.869Y161.622
X193.834Y161.593
X193.798Y161.565
X193.762Y161.536
X193.725Y161.508
X193.688Y161.480
X193.651Y161.452
X193.613Y161.424
X193.574Y161.396
X193.535Y161.369
X193.496Y161.341
X193.456Y161.314
X193.415Y161.287
X193.375Y161.261
X193.333Y161.234
X193.292Y161.208
X193.249Y161.182
X193.207Y161.156
X193.164Y161.130
X193.120Y161.104
X193.076Y161.079
X193.032Y161.054
X192.987Y161.029
X192.941Y161.004
X192.896Y160.979
X192.850Y160.954
X192.803Y160.930
X192.756Y160.906
X192.709Y160.882
X192.661Y160.858
X192.612Y160.835
X192.564Y160.811
X192.515Y160.788
X192.465Y160.765
X192.415Y160.742
X192.365Y160.720
X192.314Y160.697
X192.263Y160.675
X192.211Y160.653
X192.160Y160.631
X192.107Y160.609
X192.055Y160.588
X192.001Y160.567
X191.948Y160.546
X191.894Y160.525
X191.840Y160.504
X191.785Y160.483
X191.730Y160.463
X191.675Y160.443
X191.619Y160.423
X191.563Y160.403
X191.507Y160.384
X191.450Y160.364
X191.393Y160.345
X191.335Y160.326
X191.278Y160.307
X191.219Y160.289
X191.161Y160.270
X191.102Y160.252
X191.043Y160.234
X190.983Y160.216
X190.923Y160.199
X190.863Y160.181
X190.802Y160.164
X190.741Y160.147
X190.680Y160.130
X190.619Y160.114
X190.557Y160.097
X190.495Y160.081
X190.432Y160.065
X190.369Y160.049
X190.306Y160.033
X190.243Y160.018
X190.179Y160.003
X190.115Y159.988
X190.051Y159.973
X189.986Y159.958
X189.921Y159.944
X189.856Y159.929
X189.790Y159.915
X189.725Y159.902
X189.658Y159.888
X189.592Y159.875
X189.525Y159.861
X189.459Y159.848
X189.324Y159.823
X189.188Y159.798
X189.051Y159.774
X188.914Y159.751
X188.775Y159.729
X188.635Y159.708
X188.494Y159.687
X188.353Y159.667
X188.210Y159.649
X188.066Y159.630
X187.922Y159.613
X187.777Y159.597
X187.631Y159.581
X187.484Y159.566
X187.336Y159.553
X187.187Y159.540
X187.038Y159.527
X186.888Y159.516
X186.737Y159.505
X186.586Y159.496
X186.434Y159.487
X186.281Y159.479
X186.128Y159.472
X185.974Y159.466
X185.819Y159.460
X185.664Y159.456
X185.508Y159.452
X185.352Y159.449
X185.195Y159.447
X185.038Y159.446
X184.880Y159.446
X184.722Y159.447
X184.563Y159.449
X184.404Y159.451
X184.245Y159.454
X184.085Y159.459
X183.925Y159.464
X183.765Y159.470
X183.604Y159.477
X183.443Y159.485
X183.282Y159.493
X183.120Y159.503
X182.959Y159.513
X182.797Y159.525
X182.635Y159.537
X182.473Y159.550
X182.310Y159.564
X182.148Y159.579
X181.985Y159.595
X181.823Y159.612
X181.660Y159.630
X181.498Y159.649
X181.335Y159.668
X181.172Y159.689
X181.010Y159.710
X180.847Y159.733
X180.685Y159.756
X180.522Y159.781
X180.360Y159.806
X180.198Y159.832
X180.036Y159.859
X179.874Y159.887
X179.713Y159.916
X179.551Y159.946
X179.390Y159.977
X179.229Y160.009
X179.069Y160.041
X178.908Y160.075
X178.749Y160.110
X178.589Y160.145
X178.430Y160.182
X178.271Y160.220
X178.113Y160.258
X177.955Y160.298
X177.797Y160.338
X177.640Y160.380
X177.484Y160.422
X177.446Y160.432
X177.408Y160.443
X177.370Y160.453
X177.332Y160.463
X177.295Y160.473
X177.257Y160.483
X177.220Y160.492
X177.183Y160.502
X177.146Y160.512
X177.109Y160.521
X177.072Y160.531
X177.035Y160.540
X176.998Y160.549
X176.962Y160.558
X176.925Y160.567
X176.889Y160.576
X176.852Y160.585
X176.816Y160.593
X176.780Y160.602
X176.744Y160.610
X176.708Y160.618
X176.672Y160.627
X176.637Y160.635
X176.601Y160.643
X176.566Y160.651
X176.530Y160.659
X176.495Y160.666
X176.460Y160.674
X176.425Y160.682
X176.390Y160.689
X176.355Y160.696
X176.320Y160.703
X176.286Y160.711
X176.251Y160.718
X176.217Y160.724
X176.183Y160.731
X176.148Y160.738
X176.114Y160.745
X176.080Y160.751
X176.046Y160.757
X176.013Y160.764
X175.979Y160.770
X175.945Y160.776
X175.912Y160.782
X175.879Y160.788
X175.845Y160.794
X175.812Y160.799
X175.779Y160.805
X175.746Y160.810
X175.714Y160.816
X175.681Y160.821
X175.648Y160.826
X175.616Y160.831
X175.583Y160.836
X175.551Y160.841
X175.519Y160.846
X175.487Y160.850
X175.455Y160.855
X175.423Y160.859
X175.391Y160.864
X175.360Y160.868
X175.328Y160.872
X175.297Y160.876
X175.265Y160.880
X175.234Y160.884
X175.203Y160.888
X175.172Y160.891
X175.141Y160.895
X175.110Y160.898
X175.080Y160.902
X175.049Y160.905
X175.019Y160.908
X174.988Y160.911
X174.958Y160.914
X174.928Y160.917
X174.898Y160.919
X174.868Y160.922
X174.838Y160.924
X174.809Y160.927
X174.779Y160.929
X174.749Y160.931
X174.720Y160.934
X174.691Y160.936
X174.662Y160.937
X174.633Y160.939
X174.604Y160.941
X174.575Y160.942
X174.546Y160.944
X174.518Y160.945
X174.489Y160.947
X174.461Y160.948
X174.432Y160.949
X174.404Y160.950
X174.376Y160.951
X174.348Y160.952
X174.320Y160.952
X174.292Y160.953
X174.265Y160.953
X174.237Y160.954
X174.210Y160.954
X174.183Y160.954
X174.155Y160.954
X174.128Y160.954
X174.101Y160.954
X174.074Y160.954
X174.048Y160.953
X174.021Y160.953
X173.994Y160.952
X173.968Y160.952
X173.942Y160.951
X173.916Y160.950
X173.889Y160.949
X173.863Y160.948
X173.838Y160.947
X173.812Y160.946
X173.786Y160.944
X173.761Y160.943
X173.735Y160.941
X173.710Y160.939
X173.685Y160.938
X173.659Y160.936
X173.634Y160.934
X173.610Y160.932
X173.585Y160.930
X173.560Y160.927
X173.536Y160.925
X173.511Y160.922
X173.487Y160.920
X173.462Y160.917
X173.438Y160.914
X173.414Y160.911
X173.390Y160.908
X173.367Y160.905
X173.343Y160.902
X173.319Y160.899
X173.296Y160.895
X173.273Y160.892
X173.249Y160.888
X173.226Y160.885
X173.203Y160.881
X173.180Y160.877
X173.158Y160.873
X173.135Y160.869
X173.112Y160.865
X173.090Y160.860
X173.068Y160.856
X173.045Y160.851
X173.023Y160.847
X173.001Y160.842
X172.979Y160.837
X172.958Y160.832
X172.936Y160.827
X172.914Y160.822
X172.893Y160.817
X172.872Y160.811
X172.850Y160.806
X172.829Y160.800
X172.808Y160.795
X172.787Y160.789
X172.767Y160.783
X172.746Y160.777
X172.725Y160.771
X172.705Y160.765
X172.685Y160.759
X172.665Y160.752
X172.644Y160.746
X172.624Y160.739
X172.605Y160.733
X172.585Y160.726
X172.565Y160.719
X172.546Y160.712
X172.526Y160.705
X172.507Y160.698
X172.488Y160.691
X172.469Y160.683
X172.450Y160.676
X172.431Y160.668
X172.412Y160.661
X172.394Y160.653
X172.375Y160.645
X172.357Y160.637
X172.338Y160.629
X172.320Y160.621
X172.302Y160.612
X172.284Y160.604
X172.266Y160.596
X172.249Y160.587
X172.231Y160.578
X172.214Y160.570
X172.196Y160.561
X172.179Y160.552
X172.162Y160.543
X172.145Y160.533
X172.128Y160.524
X172.111Y160.515
X172.094Y160.505
X172.078Y160.496
X172.061Y160.486
X172.045Y160.476
X172.029Y160.466
X172.013Y160.456
X171.997Y160.446
X171.981Y160.436
X171.965Y160.426
X171.949Y160.415
X171.934Y160.405
X171.918Y160.394
X171.903Y160.383
X171.888Y160.372
X171.873Y160.362
X171.858Y160.351
X171.843Y160.339
X171.828Y160.328
X171.814Y160.317
X171.799Y160.305
X171.785Y160.294
X171.771Y160.282
X171.757Y160.271
X171.742Y160.259
X171.729Y160.247
X171.715Y160.235
X171.701Y160.223
X171.687Y160.210
X171.674Y160.198
X171.661Y160.186
X171.647Y160.173
X171.634Y160.160
X171.621Y160.148
X171.609Y160.135
X171.596Y160.122
X171.583Y160.109
X171.571Y160.096
X171.558Y160.083
X171.546Y160.069
X171.534Y160.056
X171.522Y160.042
X171.510Y160.029
X171.498Y160.015
X171.486Y160.001
X171.475Y159.987
X171.463Y159.973
X171.452Y159.959
X171.441Y159.945
X171.429Y159.930
X171.418Y159.916
X171.408Y159.901
X171.397Y159.886
X171.386Y159.872
X171.376Y159.857
X171.365Y159.842
X171.355Y159.827
X171.345Y159.812
X171.335Y159.796
X171.325Y159.781
X171.315Y159.766
X171.305Y159.750
X171.294Y159.733
X171.284Y159.716
X171.273Y159.699
X171.262Y159.682
X171.251Y159.665
X171.240Y159.649
X171.229Y159.632
X171.217Y159.616
X171.206Y159.600
X171.195Y159.584
X171.184Y159.568
X171.172Y159.552
X171.161Y159.536
X171.149Y159.521
X171.137Y159.505
X171.126Y159.490
X171.114Y159.475
X171.102Y159.460
X171.090Y159.445
X171.078Y159.430
X171.066Y159.415
X171.054Y159.401
X171.041Y159.387
X171.029Y159.372
X171.017Y159.358
X171.004Y159.344
X170.992Y159.330
X170.979Y159.317
X170.966Y159.303
X170.954Y159.289
X170.941Y159.276
X170.928Y159.263
X170.915Y159.250
X170.902Y159.237
X170.889Y159.224
X170.875Y159.211
X170.862Y159.199
X170.849Y159.186
X170.835Y159.174
X170.822Y159.162
X170.808Y159.150
X170.794Y159.138
X170.781Y159.126
X170.767Y159.114
X170.753Y159.103
X170.739Y159.091
X170.725Y159.080
X170.710Y159.069
X170.696Y159.058
X170.682Y159.047
X170.667Y159.036
X170.653Y159.025
X170.638Y159.015
X170.623Y159.004
X170.609Y158.994
X170.594Y158.984
X170.579Y158.974
X170.564Y158.964
X170.549Y158.954
X170.533Y158.945
X170.518Y158.935
X170.503Y158.926
X170.487Y158.917
X170.472Y158.908
X170.456Y158.899
X170.440Y158.890
X170.424Y158.881
X170.408Y158.872
X170.392Y158.864
X170.376Y158.856
X170.360Y158.847
X170.344Y158.839
X170.327Y158.831
X170.311Y158.824
X170.294Y158.816
X170.277Y158.808
X170.261Y158.801
X170.244Y158.794
X170.227Y158.786
X170.210Y158.779
X170.192Y158.772
X170.175Y158.766
X170.158Y158.759
X170.140Y158.752
X170.123Y158.746
X170.105Y158.740
X170.087Y158.733
X170.070Y158.727
X170.052Y158.721
X170.033Y158.716
X170.015Y158.710
X169.997Y158.705
X169.979Y158.699
X169.960Y158.694
X169.942Y158.689
X169.923Y158.684
X169.904Y158.679
X169.885Y158.674
X169.866Y158.669
X169.847Y158.665
X169.828Y158.661
X169.809Y158.656
X169.789Y158.652
X169.770Y158.648
X169.750Y158.644
X169.731Y158.641
X169.711Y158.637
X169.691Y158.633
X169.671Y158.630
X169.651Y158.627
X169.630Y158.624
X169.610Y158.621
X169.590Y158.618
X169.569Y158.615
X169.548Y158.613
X169.528Y158.610
X169.507Y158.608
X169.486Y158.606
X169.465Y158.604
X169.443Y158.602
X169.422Y158.600
X169.400Y158.598
X169.379Y158.597
X169.357Y158.595
X169.335Y158.594
X169.313Y158.593
X169.291Y158.592
X169.269Y158.591
X169.247Y158.590
X169.225Y158.589
X169.202Y158.589
X169.180Y158.588
X169.157Y158.588
X169.134Y158.588
X169.111Y158.588
X169.088Y158.588
X169.065Y158.588
X169.041Y158.588
X169.018Y158.589
X168.994Y158.589
X168.971Y158.590
X168.947Y158.591
X168.923Y158.592
X168.899Y158.593
X168.875Y158.594
X168.850Y158.596
X168.826Y158.597
X168.801Y158.599
X168.777Y158.600
X168.752Y158.602
X168.727Y158.604
X168.702Y158.606
X168.677Y158.609
X168.652Y158.611
X168.626Y158.614
X168.601Y158.616
X168.575Y158.619
X168.549Y158.622
X168.523Y158.625
X168.497Y158.628
X168.471Y158.631
X168.445Y158.635
X168.418Y158.638
X168.392Y158.642
X168.365Y158.645
X168.338Y158.649
X168.311Y158.653
X168.284Y158.658
X168.257Y158.662
X168.230Y158.666
X168.202Y158.671
X168.175Y158.675
X168.147Y158.680
X168.119Y158.685
X168.091Y158.690
X168.063Y158.695
X168.035Y158.701
X168.006Y158.706
X167.978Y158.712
X167.949Y158.717
X167.920Y158.723
X167.891Y158.729
X167.862Y158.735
X167.833Y158.741
X167.804Y158.747
X167.774Y158.754
X167.745Y158.760
X167.715Y158.767
