(VECTRIC POST REV.)
(82074C4DCA892683619619E26FA56BD3)
T1M6
G17
G0Z20.320
G0X0.000Y0.000S18000M3
G0X27.078Y26.809
G0Z5.080
G1Z-3.000F304.8
G1X26.883Y27.273F1016.0
X26.688Y27.737
G2X26.777Y29.147I1.464J0.615
G1X32.145Y38.429
X37.515Y47.713
X38.697Y49.736
X39.874Y51.749
X42.694Y56.666
X44.154Y59.212
X43.760
X40.626
G2X39.039Y60.799I0.000J1.587
G1Y61.294
Y61.788
G2X39.254Y62.587I1.587J0.000
G1X43.873Y70.520
X48.488Y78.448
X51.207Y83.199
X52.569Y85.579
X51.826
X48.346
G2X47.031Y86.276I0.000J1.588
G1X46.847Y86.548
X46.662Y86.821
G2X46.635Y88.558I1.315J0.890
G1X48.201Y91.039
X49.772Y93.528
X52.156Y97.208
X54.535Y100.878
X59.021Y107.817
X61.178Y111.153
G2X60.042Y111.567I-0.066J1.586
G1X59.826Y111.764
X59.610Y111.961
G2X59.124Y113.446I1.070J1.172
G1X59.742Y116.517
X60.173Y118.655
X58.486Y120.045
X56.066Y122.040
G2X55.488Y123.265I1.010J1.225
G1Y123.700
Y124.136
G2X56.862Y125.709I1.588J0.000
G1X60.217Y126.165
X62.810Y126.517
X64.097Y128.692
X65.774Y131.529
G2X67.546Y132.256I1.366J-0.808
G1X67.831Y132.180
X68.117Y132.105
G2X69.098Y131.342I-0.406J-1.535
G1X70.634Y128.580
X71.786Y126.509
X74.384Y126.144
X77.765Y125.670
G2X79.132Y124.098I-0.221J-1.572
G1Y123.746
Y123.395
G2X78.620Y122.227I-1.588J0.000
G1X76.238Y120.036
X74.509Y118.445
X74.888Y116.491
X75.459Y113.539
X75.470Y113.158
X75.476Y112.908
G2X73.889Y111.278I-1.587J-0.042
G1X73.378
X76.925Y105.764
X82.643Y96.874
X85.326Y92.771
X88.011Y88.663
G2X88.270Y87.794I-1.329J-0.869
G1Y87.492
Y87.189
G2X86.724Y85.602I-1.587J0.000
G1X83.088Y85.507
X82.119Y85.482
X84.444Y81.451
X88.101Y75.113
X91.732Y68.880
X95.365Y62.644
G2X95.581Y61.845I-1.372J-0.799
G1Y61.322
Y60.799
G2X93.993Y59.212I-1.588J0.000
G1X90.886
X90.422
X91.090Y58.073
X93.033Y54.757
X95.066Y51.249
X97.097Y47.745
X102.476Y38.462
X107.856Y29.180
G2X107.946Y27.769I-1.374J-0.796
G1X107.744Y27.289
X107.542Y26.809
G2X106.079Y25.836I-1.464J0.615
G1X89.631
X74.725
X74.666Y23.790
X74.562Y20.202
G2X73.002Y18.661I-1.587J0.046
G1X67.470Y18.569
X61.939Y18.477
G2X60.449Y19.449I-0.026J1.587
G1X60.223Y19.986
X59.998Y20.522
G2X59.874Y21.137I1.464J0.615
G1Y24.281
Y25.837
X45.001
X28.541
G2X27.078Y26.809I0.000J1.587
G0Z5.080
G0Z20.320
G0X0.000Y0.000
M30
