(VECTRIC POST REV.)
(82074C4DCA892683619619E26FA56BD3)
T1M6
G17
G0Z20.320
G0X0.000Y0.000S14000M3
G0X40.698Y71.273
G0Z5.080
G1Z-1.000F20.0
G1X40.108Y71.170F762.0
X39.579Y71.330
X39.050Y71.490
X37.874Y72.018
X36.697Y72.547
X36.066Y73.178
X35.435Y73.809
X33.465Y75.264
X31.495Y76.720
X31.132Y77.398
X30.769Y78.076
Y79.824
Y81.572
X31.791Y82.667
X32.814Y83.762
X33.694
X34.574
X36.514Y82.741
X38.454Y81.720
X39.494Y82.829
X40.534Y83.938
X40.731Y84.504
X40.928Y85.071
X42.016Y85.288
X43.103Y85.506
X44.136Y85.299
X45.168Y85.093
X45.939Y84.273
X46.709Y83.453
X46.887Y81.873
X47.065Y80.293
X46.535Y78.736
X46.004Y77.178
X44.756Y75.543
X43.508Y73.908
X43.292Y73.227
X43.076Y72.547
X42.182Y71.962
X41.289Y71.376
X40.698Y71.273
G1Z-2.000F20.0
G1X40.108Y71.170F762.0
X39.579Y71.330
X39.050Y71.490
X37.874Y72.018
X36.697Y72.547
X36.066Y73.178
X35.435Y73.809
X33.465Y75.264
X31.495Y76.720
X31.132Y77.398
X30.769Y78.076
Y79.824
Y81.572
X31.791Y82.667
X32.814Y83.762
X33.694
X34.574
X36.514Y82.741
X38.454Y81.720
X39.494Y82.829
X40.534Y83.938
X40.731Y84.504
X40.928Y85.071
X42.016Y85.288
X43.103Y85.506
X44.136Y85.299
X45.168Y85.093
X45.939Y84.273
X46.709Y83.453
X46.887Y81.873
X47.065Y80.293
X46.535Y78.736
X46.004Y77.178
X44.756Y75.543
X43.508Y73.908
X43.292Y73.227
X43.076Y72.547
X42.182Y71.962
X41.289Y71.376
X40.698Y71.273
G0Z5.080
G0X85.716Y35.675
G1Z-1.000F20.0
G1X84.160Y35.515F762.0
X82.920Y35.827
X81.680Y36.139
X79.996Y36.862
X78.311Y37.584
X76.654Y38.695
X74.997Y39.807
X73.466Y41.409
X71.934Y43.012
X71.600Y43.891
X71.266Y44.770
X71.634Y46.486
X72.002Y48.202
X72.539Y49.242
X73.077Y50.281
X74.125
X75.174
Y49.444
Y48.608
X74.641Y47.098
X74.108Y45.588
X74.616Y44.813
X75.124Y44.037
X76.647Y42.543
X78.169Y41.049
X81.123Y39.635
X84.076Y38.222
X85.307Y38.421
X86.538Y38.621
X87.170Y39.193
X87.803Y39.765
X88.625Y39.649
X89.447Y39.532
Y38.319
Y37.105
X88.359Y36.470
X87.271Y35.834
X85.716Y35.675
G1Z-2.000F20.0
G1X84.160Y35.515F762.0
X82.920Y35.827
X81.680Y36.139
X79.996Y36.862
X78.311Y37.584
X76.654Y38.695
X74.997Y39.807
X73.466Y41.409
X71.934Y43.012
X71.600Y43.891
X71.266Y44.770
X71.634Y46.486
X72.002Y48.202
X72.539Y49.242
X73.077Y50.281
X74.125
X75.174
Y49.444
Y48.608
X74.641Y47.098
X74.108Y45.588
X74.616Y44.813
X75.124Y44.037
X76.647Y42.543
X78.169Y41.049
X81.123Y39.635
X84.076Y38.222
X85.307Y38.421
X86.538Y38.621
X87.170Y39.193
X87.803Y39.765
X88.625Y39.649
X89.447Y39.532
Y38.319
Y37.105
X88.359Y36.470
X87.271Y35.834
X85.716Y35.675
G0Z5.080
G0X83.808Y56.030
G1Z-1.000F20.0
G1X83.103Y55.963F762.0
X81.693Y57.004
X80.284Y58.044
X79.056Y58.585
X77.828Y59.125
X77.682Y58.688
X77.536Y58.251
X76.723Y57.438
X75.910Y56.625
X74.363
X72.816
X72.222Y57.281
X71.628Y57.937
X71.335Y58.958
X71.042Y59.979
X71.340Y60.783
X71.637Y61.587
X71.235Y62.231
X70.833Y62.875
X71.054Y63.450
X71.275Y64.026
X72.219
X73.163
X75.240Y63.268
X77.317Y62.511
X80.915Y60.675
X84.513Y58.839
Y57.468
Y56.096
X83.808Y56.030
G1Z-2.000F20.0
G1X83.103Y55.963F762.0
X81.693Y57.004
X80.284Y58.044
X79.056Y58.585
X77.828Y59.125
X77.682Y58.688
X77.536Y58.251
X76.723Y57.438
X75.910Y56.625
X74.363
X72.816
X72.222Y57.281
X71.628Y57.937
X71.335Y58.958
X71.042Y59.979
X71.340Y60.783
X71.637Y61.587
X71.235Y62.231
X70.833Y62.875
X71.054Y63.450
X71.275Y64.026
X72.219
X73.163
X75.240Y63.268
X77.317Y62.511
X80.915Y60.675
X84.513Y58.839
Y57.468
Y56.096
X83.808Y56.030
G0Z5.080
G0X103.367Y41.931
G1Z-1.000F20.0
G1X102.486Y41.863F762.0
X102.046Y42.049
X101.605Y42.234
Y42.603
Y42.972
X100.019Y44.448
X98.433Y45.925
Y45.338
Y44.752
X97.817Y44.210
X97.200Y43.669
X96.433Y43.435
X95.666Y43.202
X94.410Y43.726
X93.154Y44.251
X92.571Y45.475
X91.987Y46.698
X92.711Y48.163
X93.436Y49.627
X93.145Y50.640
X92.854Y51.654
X93.363Y52.077
X93.873Y52.499
X94.655Y52.139
X95.438Y51.779
X97.290Y50.383
X99.143Y48.986
X101.803Y46.596
X104.463Y44.206
X104.355Y43.103
X104.248Y41.999
X103.367Y41.931
G1Z-2.000F20.0
G1X102.486Y41.863F762.0
X102.046Y42.049
X101.605Y42.234
Y42.603
Y42.972
X100.019Y44.448
X98.433Y45.925
Y45.338
Y44.752
X97.817Y44.210
X97.200Y43.669
X96.433Y43.435
X95.666Y43.202
X94.410Y43.726
X93.154Y44.251
X92.571Y45.475
X91.987Y46.698
X92.711Y48.163
X93.436Y49.627
X93.145Y50.640
X92.854Y51.654
X93.363Y52.077
X93.873Y52.499
X94.655Y52.139
X95.438Y51.779
X97.290Y50.383
X99.143Y48.986
X101.803Y46.596
X104.463Y44.206
X104.355Y43.103
X104.248Y41.999
X103.367Y41.931
G0Z5.080
G0X81.165Y9.976
G1Z-1.000F20.0
G1X84.513Y10.023F762.0
X84.761Y11.738
X85.009Y13.453
X85.074Y15.392
X85.138Y17.330
X85.483Y19.621
X85.827Y21.911
X86.504Y23.030
X87.180Y24.149
X89.666Y26.257
X92.151Y28.364
X93.375Y28.594
X94.599Y28.824
X95.714Y28.172
X96.829Y27.521
X97.154Y26.390
X97.478Y25.259
X98.170
X98.863
X100.925Y26.359
X102.988Y27.458
X105.096Y29.284
X107.205Y31.110
X108.634Y32.905
X110.063Y34.699
Y35.019
Y35.339
X110.458Y35.734
X110.853Y36.129
X111.706Y38.183
X112.558Y40.237
X113.337Y42.352
X114.116Y44.466
X114.102Y50.105
X114.088Y55.744
X112.311Y59.444
X110.535Y63.145
X107.203Y66.316
X103.872Y69.488
X101.593Y70.636
X99.314Y71.784
X94.733Y73.387
X90.151Y74.989
X87.156Y75.188
X84.160Y75.386
X80.886Y74.983
X77.613Y74.580
X75.952Y74.038
X74.292Y73.496
X71.297Y72.064
X68.301Y70.632
X67.305Y69.796
X66.309Y68.960
X65.892
X65.476
X63.540Y67.053
X61.605Y65.146
X60.724Y63.676
X59.843Y62.206
X59.106Y61.266
X58.370Y60.325
X57.911Y59.092
X57.453Y57.858
X57.140Y55.744
X56.828Y53.629
X56.621Y51.043
X56.415Y48.457
X57.027Y45.933
X57.639Y43.409
X58.643Y41.295
X59.647Y39.180
X61.531Y36.713
X63.415Y34.246
X65.418Y32.915
X67.420Y31.584
Y30.857
Y30.130
X66.715Y29.545
X66.009Y28.960
X64.228Y24.907
X62.447Y20.854
X61.963Y18.916
X61.478Y16.978
X61.365Y13.630
X61.253Y10.282
X66.854Y10.184
X72.454Y10.087
X73.109Y10.679
X73.764Y11.272
Y11.734
Y12.195
X72.753Y13.353
X71.741Y14.511
X69.933Y17.287
X68.125Y20.064
Y21.032
Y22.001
X68.649Y22.436
X69.173Y22.871
X69.690Y22.673
X70.208Y22.474
X70.921Y21.077
X71.634Y19.679
X73.519Y17.447
X75.405Y15.215
X75.818Y14.018
X76.231Y12.820
Y11.487
Y10.154
X77.024Y10.042
X77.816Y9.929
X81.165Y9.976
G1Z-2.000F20.0
G1X84.513Y10.023F762.0
X84.761Y11.738
X85.009Y13.453
X85.074Y15.392
X85.138Y17.330
X85.483Y19.621
X85.827Y21.911
X86.504Y23.030
X87.180Y24.149
X89.666Y26.257
X92.151Y28.364
X93.375Y28.594
X94.599Y28.824
X95.714Y28.172
X96.829Y27.521
X97.154Y26.390
X97.478Y25.259
X98.170
X98.863
X100.925Y26.359
X102.988Y27.458
X105.096Y29.284
X107.205Y31.110
X108.634Y32.905
X110.063Y34.699
Y35.019
Y35.339
X110.458Y35.734
X110.853Y36.129
X111.706Y38.183
X112.558Y40.237
X113.337Y42.352
X114.116Y44.466
X114.102Y50.105
X114.088Y55.744
X112.311Y59.444
X110.535Y63.145
X107.203Y66.316
X103.872Y69.488
X101.593Y70.636
X99.314Y71.784
X94.733Y73.387
X90.151Y74.989
X87.156Y75.188
X84.160Y75.386
X80.886Y74.983
X77.613Y74.580
X75.952Y74.038
X74.292Y73.496
X71.297Y72.064
X68.301Y70.632
X67.305Y69.796
X66.309Y68.960
X65.892
X65.476
X63.540Y67.053
X61.605Y65.146
X60.724Y63.676
X59.843Y62.206
X59.106Y61.266
X58.370Y60.325
X57.911Y59.092
X57.453Y57.858
X57.140Y55.744
X56.828Y53.629
X56.621Y51.043
X56.415Y48.457
X57.027Y45.933
X57.639Y43.409
X58.643Y41.295
X59.647Y39.180
X61.531Y36.713
X63.415Y34.246
X65.418Y32.915
X67.420Y31.584
Y30.857
Y30.130
X66.715Y29.545
X66.009Y28.960
X64.228Y24.907
X62.447Y20.854
X61.963Y18.916
X61.478Y16.978
X61.365Y13.630
X61.253Y10.282
X66.854Y10.184
X72.454Y10.087
X73.109Y10.679
X73.764Y11.272
Y11.734
Y12.195
X72.753Y13.353
X71.741Y14.511
X69.933Y17.287
X68.125Y20.064
Y21.032
Y22.001
X68.649Y22.436
X69.173Y22.871
X69.690Y22.673
X70.208Y22.474
X70.921Y21.077
X71.634Y19.679
X73.519Y17.447
X75.405Y15.215
X75.818Y14.018
X76.231Y12.820
Y11.487
Y10.154
X77.024Y10.042
X77.816Y9.929
X81.165Y9.976
G0Z5.080
G0X90.570Y9.753
G1Z-1.000F20.0
G1X93.734F762.0
X93.939Y9.958
X94.144Y10.162
X93.441Y12.689
X92.738Y15.215
X92.678Y17.536
X92.618Y19.856
X93.602Y21.276
X94.585Y22.695
X94.788Y23.943
X94.990Y25.191
X94.266Y25.579
X93.542Y25.966
X91.077Y23.840
X88.613Y21.714
X88.250Y20.579
X87.887Y19.444
X87.647Y14.599
X87.406Y9.753
X90.570
G1Z-2.000F20.0
G1X93.734F762.0
X93.939Y9.958
X94.144Y10.162
X93.441Y12.689
X92.738Y15.215
X92.678Y17.536
X92.618Y19.856
X93.602Y21.276
X94.585Y22.695
X94.788Y23.943
X94.990Y25.191
X94.266Y25.579
X93.542Y25.966
X91.077Y23.840
X88.613Y21.714
X88.250Y20.579
X87.887Y19.444
X87.647Y14.599
X87.406Y9.753
X90.570
G0Z5.080
G0X98.959Y9.826
G1Z-1.000F20.0
G1X100.724Y9.929F762.0
X100.620Y11.339
X100.516Y12.749
X99.286Y16.664
X98.055Y20.579
X97.581Y21.227
X97.107Y21.876
X96.148Y19.983
X95.189Y18.091
X95.390Y16.829
X95.590Y15.568
X96.393Y12.645
X97.195Y9.722
X98.959Y9.826
G1Z-2.000F20.0
G1X100.724Y9.929F762.0
X100.620Y11.339
X100.516Y12.749
X99.286Y16.664
X98.055Y20.579
X97.581Y21.227
X97.107Y21.876
X96.148Y19.983
X95.189Y18.091
X95.390Y16.829
X95.590Y15.568
X96.393Y12.645
X97.195Y9.722
X98.959Y9.826
G0Z5.080
G0X110.533Y74.668
G1Z-1.000F20.0
G1X111.995Y74.775F762.0
X112.112Y75.392
X112.229Y76.008
X111.345
X110.461
X109.536Y75.657
X108.611Y75.305
X108.841Y74.933
X109.070Y74.561
X110.533Y74.668
G1Z-2.000F20.0
G1X111.995Y74.775F762.0
X112.112Y75.392
X112.229Y76.008
X111.345
X110.461
X109.536Y75.657
X108.611Y75.305
X108.841Y74.933
X109.070Y74.561
X110.533Y74.668
G0Z5.080
G0X106.396Y77.418
G1Z-1.000F20.0
G1X106.521F762.0
X107.080Y78.499
X107.639Y79.579
X107.529Y80.525
X107.420Y81.471
X106.539
X105.658
X105.543Y80.464
X105.428Y79.457
X105.850Y78.437
X106.272Y77.418
X106.396
G1Z-2.000F20.0
G1X106.521F762.0
X107.080Y78.499
X107.639Y79.579
X107.529Y80.525
X107.420Y81.471
X106.539
X105.658
X105.543Y80.464
X105.428Y79.457
X105.850Y78.437
X106.272Y77.418
X106.396
G0Z5.080
G0X129.887Y6.997
G1Z-1.000F20.0
G1X128.918Y7.061F762.0
X121.517Y7.306
X114.116Y7.551
X70.945Y7.819
X27.773Y8.087
X27.369Y8.404
X26.965Y8.722
X27.146Y9.414
X27.327Y10.106
X42.754
X58.182
X58.380Y10.622
X58.578Y11.138
X58.801Y13.882
X59.024Y16.626
X59.534Y19.228
X60.045Y21.831
X60.719Y23.309
X61.392Y24.788
X62.143Y26.698
X62.894Y28.608
X63.600Y29.753
X64.306Y30.899
X63.910
X63.513
X61.722Y32.573
X59.931Y34.246
X58.448Y36.537
X56.965Y38.828
X55.883Y41.471
X54.802Y44.114
X54.406Y47.286
X54.010Y50.458
X54.502Y54.334
X54.994Y58.211
X55.911Y60.451
X56.829Y62.691
X58.056Y64.539
X59.283Y66.388
X61.812Y68.918
X64.342Y71.447
X66.057Y72.185
X67.773Y72.923
Y73.252
Y73.581
X69.447Y74.286
X71.121Y74.991
X72.502Y75.690
X73.883Y76.389
X77.964Y77.078
X82.046Y77.767
X84.575Y77.768
X87.105Y77.769
X89.862Y77.395
X92.618Y77.021
X97.330Y75.457
X102.041Y73.893
X102.489
X102.937
X103.693Y74.509
X104.450Y75.126
X103.753Y76.565
X103.055Y78.004
X102.976Y79.738
X102.897Y81.472
X103.311Y82.246
X103.725Y83.019
X104.506Y83.566
X105.286Y84.113
X106.425
X107.563
X108.437Y83.715
X109.311Y83.317
X109.725Y82.316
X110.139Y81.316
X110.007Y79.932
X109.875Y78.547
X111.374Y78.378
X112.872Y78.209
X113.758Y77.629
X114.645Y77.048
Y75.507
Y73.966
X113.348Y72.827
X112.051Y71.688
X109.843Y71.894
X107.635Y72.100
X106.960Y72.522
X106.284Y72.944
X105.452Y72.361
X104.620Y71.778
X105.007
X105.394
X107.923Y69.510
X110.453Y67.242
X111.798Y65.545
X113.144Y63.849
X114.271Y61.609
X115.397Y59.368
X116.078Y56.706
X116.759Y54.044
Y50.071
Y46.098
X116.253Y43.696
X115.747Y41.294
X114.430Y38.122
X113.113Y34.950
X111.702Y32.836
X110.290Y30.721
X107.622Y28.156
X104.953Y25.591
X102.414Y24.138
X99.875Y22.685
X100.206Y22.067
X100.536Y21.450
X101.644Y18.156
X102.751Y14.862
X103.158Y12.395
X103.566Y9.928
X117.211Y9.836
X130.856Y9.744
Y9.219
Y8.695
X122.868
X114.880
X115.045Y8.530
X115.210Y8.364
X123.033Y8.329
X130.856Y8.294
Y7.613
Y6.933
X129.887Y6.997
G1Z-2.000F20.0
G1X128.918Y7.061F762.0
X121.517Y7.306
X114.116Y7.551
X70.945Y7.819
X27.773Y8.087
X27.369Y8.404
X26.965Y8.722
X27.146Y9.414
X27.327Y10.106
X42.754
X58.182
X58.380Y10.622
X58.578Y11.138
X58.801Y13.882
X59.024Y16.626
X59.534Y19.228
X60.045Y21.831
X60.719Y23.309
X61.392Y24.788
X62.143Y26.698
X62.894Y28.608
X63.600Y29.753
X64.306Y30.899
X63.910
X63.513
X61.722Y32.573
X59.931Y34.246
X58.448Y36.537
X56.965Y38.828
X55.883Y41.471
X54.802Y44.114
X54.406Y47.286
X54.010Y50.458
X54.502Y54.334
X54.994Y58.211
X55.911Y60.451
X56.829Y62.691
X58.056Y64.539
X59.283Y66.388
X61.812Y68.918
X64.342Y71.447
X66.057Y72.185
X67.773Y72.923
Y73.252
Y73.581
X69.447Y74.286
X71.121Y74.991
X72.502Y75.690
X73.883Y76.389
X77.964Y77.078
X82.046Y77.767
X84.575Y77.768
X87.105Y77.769
X89.862Y77.395
X92.618Y77.021
X97.330Y75.457
X102.041Y73.893
X102.489
X102.937
X103.693Y74.509
X104.450Y75.126
X103.753Y76.565
X103.055Y78.004
X102.976Y79.738
X102.897Y81.472
X103.311Y82.246
X103.725Y83.019
X104.506Y83.566
X105.286Y84.113
X106.425
X107.563
X108.437Y83.715
X109.311Y83.317
X109.725Y82.316
X110.139Y81.316
X110.007Y79.932
X109.875Y78.547
X111.374Y78.378
X112.872Y78.209
X113.758Y77.629
X114.645Y77.048
Y75.507
Y73.966
X113.348Y72.827
X112.051Y71.688
X109.843Y71.894
X107.635Y72.100
X106.960Y72.522
X106.284Y72.944
X105.452Y72.361
X104.620Y71.778
X105.007
X105.394
X107.923Y69.510
X110.453Y67.242
X111.798Y65.545
X113.144Y63.849
X114.271Y61.609
X115.397Y59.368
X116.078Y56.706
X116.759Y54.044
Y50.071
Y46.098
X116.253Y43.696
X115.747Y41.294
X114.430Y38.122
X113.113Y34.950
X111.702Y32.836
X110.290Y30.721
X107.622Y28.156
X104.953Y25.591
X102.414Y24.138
X99.875Y22.685
X100.206Y22.067
X100.536Y21.450
X101.644Y18.156
X102.751Y14.862
X103.158Y12.395
X103.566Y9.928
X117.211Y9.836
X130.856Y9.744
Y9.219
Y8.695
X122.868
X114.880
X115.045Y8.530
X115.210Y8.364
X123.033Y8.329
X130.856Y8.294
Y7.613
Y6.933
X129.887Y6.997
G0Z5.080
G0Z20.320
G0X0.000Y0.000
M30
