(VECTRIC POST REV.)
(82074C4DCA892683619619E26FA56BD3)

G20 G21
G0Z20.320
G0X0.000Y0.000S18000M3
G0X92.002Y1.213
G0Z5.080
G1Z-0.750F304.8
G1X92.003Y1.186F1016.0
X92.003Y1.158
X92.004Y1.131
X92.005Y1.104
X92.006Y1.076
X92.008Y1.049
X92.009Y1.022
X92.011Y0.995
X92.012Y0.968
X92.014Y0.941
X92.017Y0.914
X92.019Y0.887
X92.021Y0.860
X92.024Y0.833
X92.027Y0.807
X92.030Y0.780
X92.033Y0.753
X92.036Y0.727
X92.040Y0.700
X92.043Y0.673
X92.047Y0.647
X92.051Y0.621
X92.059Y0.568
X92.068Y0.515
X92.078Y0.463
X92.088Y0.411
X92.099Y0.359
X92.111Y0.308
X92.123Y0.257
X92.136Y0.206
X92.149Y0.155
X92.163Y0.104
X92.178Y0.054
X92.193Y0.004
X92.209Y-0.046
X92.225Y-0.096
X92.242Y-0.145
X92.260Y-0.194
X92.278Y-0.243
X92.297Y-0.291
X92.316Y-0.339
X92.336Y-0.387
X92.357Y-0.434
X92.378Y-0.482
X92.399Y-0.529
X92.421Y-0.575
X92.444Y-0.622
X92.467Y-0.668
X92.491Y-0.713
X92.515Y-0.759
X92.540Y-0.804
X92.565Y-0.848
X92.591Y-0.893
X92.618Y-0.937
X92.645Y-0.980
X92.672Y-1.024
X92.700Y-1.067
X92.728Y-1.109
X92.757Y-1.151
X92.787Y-1.193
X92.816Y-1.235
X92.847Y-1.276
X92.878Y-1.317
X92.909Y-1.357
X92.941Y-1.397
X92.973Y-1.436
X93.006Y-1.476
X93.039Y-1.514
X93.073Y-1.553
X93.107Y-1.591
X93.141Y-1.628
X93.176Y-1.665
X93.212Y-1.702
X93.247Y-1.738
X93.284Y-1.774
X93.320Y-1.810
X93.358Y-1.845
X93.395Y-1.879
X93.433Y-1.913
X93.472Y-1.947
X93.510Y-1.980
X93.549Y-2.013
X93.589Y-2.045
X93.629Y-2.077
X93.669Y-2.108
X93.710Y-2.139
X93.751Y-2.170
X93.793Y-2.199
X93.835Y-2.229
X93.877Y-2.258
X93.919Y-2.286
X93.962Y-2.314
X94.006Y-2.341
X94.049Y-2.368
X94.093Y-2.395
X94.138Y-2.421
X94.182Y-2.446
X94.227Y-2.471
X94.273Y-2.495
X94.318Y-2.519
X94.364Y-2.542
X94.411Y-2.565
X94.457Y-2.587
X94.504Y-2.608
X94.552Y-2.629
X94.599Y-2.650
X94.647Y-2.670
X94.695Y-2.689
X94.743Y-2.708
X94.792Y-2.726
X94.841Y-2.743
X94.890Y-2.761
X94.940Y-2.777
X94.990Y-2.793
X95.040Y-2.808
X95.090Y-2.823
X95.141Y-2.837
X95.191Y-2.850
X95.243Y-2.863
X95.294Y-2.875
X95.345Y-2.887
X95.397Y-2.898
X95.449Y-2.908
X95.501Y-2.918
X95.554Y-2.927
X95.607Y-2.935
X95.633Y-2.939
X95.659Y-2.943
X95.686Y-2.946
X95.713Y-2.950
X95.739Y-2.953
X95.766Y-2.956
X95.793Y-2.959
X95.819Y-2.962
X95.846Y-2.965
X95.873Y-2.967
X95.900Y-2.969
X95.927Y-2.972
X95.954Y-2.974
X95.981Y-2.975
X96.008Y-2.977
X96.035Y-2.978
X96.062Y-2.980
X96.090Y-2.981
X96.117Y-2.982
X96.144Y-2.983
X96.172Y-2.983
X96.199Y-2.984
X96.227Y-2.984
X96.254Y-2.984
X96.281Y-2.984
X96.309Y-2.984
X96.336Y-2.983
X96.364Y-2.983
X96.391Y-2.982
X96.418Y-2.981
X96.446Y-2.980
X96.473Y-2.978
X96.500Y-2.977
X96.527Y-2.975
X96.554Y-2.974
X96.581Y-2.972
X96.608Y-2.969
X96.635Y-2.967
X96.662Y-2.965
X96.689Y-2.962
X96.715Y-2.959
X96.742Y-2.956
X96.769Y-2.953
X96.795Y-2.950
X96.822Y-2.946
X96.849Y-2.943
X96.875Y-2.939
X96.901Y-2.935
X96.954Y-2.927
X97.007Y-2.918
X97.059Y-2.908
X97.111Y-2.898
X97.163Y-2.887
X97.214Y-2.875
X97.265Y-2.863
X97.317Y-2.850
X97.367Y-2.837
X97.418Y-2.823
X97.468Y-2.808
X97.518Y-2.793
X97.568Y-2.777
X97.618Y-2.761
X97.667Y-2.743
X97.716Y-2.726
X97.765Y-2.708
X97.813Y-2.689
X97.861Y-2.670
X97.909Y-2.650
X97.956Y-2.629
X98.004Y-2.608
X98.051Y-2.587
X98.097Y-2.565
X98.144Y-2.542
X98.190Y-2.519
X98.235Y-2.495
X98.281Y-2.471
X98.326Y-2.446
X98.370Y-2.421
X98.415Y-2.395
X98.459Y-2.368
X98.502Y-2.341
X98.546Y-2.314
X98.589Y-2.286
X98.631Y-2.258
X98.673Y-2.229
X98.715Y-2.199
X98.757Y-2.170
X98.798Y-2.139
X98.839Y-2.108
X98.879Y-2.077
X98.919Y-2.045
X98.959Y-2.013
X98.998Y-1.980
X99.036Y-1.947
X99.075Y-1.913
X99.113Y-1.879
X99.150Y-1.845
X99.188Y-1.810
X99.224Y-1.774
X99.260Y-1.738
X99.296Y-1.702
X99.332Y-1.665
X99.367Y-1.628
X99.401Y-1.591
X99.435Y-1.553
X99.469Y-1.514
X99.502Y-1.476
X99.535Y-1.436
X99.567Y-1.397
X99.599Y-1.357
X99.630Y-1.317
X99.661Y-1.276
X99.692Y-1.235
X99.721Y-1.193
X99.751Y-1.151
X99.780Y-1.109
X99.808Y-1.067
X99.836Y-1.024
X99.863Y-0.980
X99.890Y-0.937
X99.917Y-0.893
X99.943Y-0.848
X99.968Y-0.804
X99.993Y-0.759
X100.017Y-0.713
X100.041Y-0.668
X100.064Y-0.622
X100.087Y-0.575
X100.109Y-0.529
X100.130Y-0.482
X100.151Y-0.434
X100.172Y-0.387
X100.192Y-0.339
X100.211Y-0.291
X100.230Y-0.243
X100.248Y-0.194
X100.266Y-0.145
X100.283Y-0.096
X100.299Y-0.046
X100.315Y0.004
X100.330Y0.054
X100.345Y0.104
X100.359Y0.155
X100.372Y0.206
X100.385Y0.257
X100.397Y0.308
X100.409Y0.359
X100.420Y0.411
X100.430Y0.463
X100.440Y0.515
X100.449Y0.568
X100.457Y0.621
X100.461Y0.647
X100.465Y0.673
X100.468Y0.700
X100.472Y0.727
X100.475Y0.753
X100.478Y0.780
X100.481Y0.807
X100.484Y0.833
X100.487Y0.860
X100.489Y0.887
X100.491Y0.914
X100.494Y0.941
X100.496Y0.968
X100.497Y0.995
X100.499Y1.022
X100.500Y1.049
X100.502Y1.076
X100.503Y1.104
X100.504Y1.131
X100.505Y1.158
X100.505Y1.186
X100.506Y1.213
X100.506Y1.241
X100.506Y1.268
X100.506Y1.296
X100.506Y1.323
X100.505Y1.350
X100.505Y1.378
X100.504Y1.405
X100.503Y1.432
X100.502Y1.460
X100.500Y1.487
X100.499Y1.514
X100.497Y1.541
X100.496Y1.568
X100.494Y1.595
X100.491Y1.622
X100.489Y1.649
X100.487Y1.676
X100.484Y1.703
X100.481Y1.730
X100.478Y1.756
X100.475Y1.783
X100.472Y1.810
X100.468Y1.836
X100.465Y1.863
X100.461Y1.889
X100.457Y1.916
X100.449Y1.968
X100.440Y2.021
X100.430Y2.073
X100.420Y2.125
X100.409Y2.177
X100.397Y2.228
X100.385Y2.280
X100.372Y2.331
X100.359Y2.381
X100.345Y2.432
X100.330Y2.482
X100.315Y2.532
X100.299Y2.582
X100.283Y2.632
X100.266Y2.681
X100.248Y2.730
X100.230Y2.779
X100.211Y2.827
X100.192Y2.875
X100.172Y2.923
X100.151Y2.971
X100.130Y3.018
X100.109Y3.065
X100.087Y3.111
X100.064Y3.158
X100.041Y3.204
X100.017Y3.249
X99.993Y3.295
X99.968Y3.340
X99.943Y3.384
X99.917Y3.429
X99.890Y3.473
X99.863Y3.516
X99.836Y3.560
X99.808Y3.603
X99.780Y3.645
X99.751Y3.687
X99.721Y3.729
X99.692Y3.771
X99.661Y3.812
X99.630Y3.853
X99.599Y3.893
X99.567Y3.933
X99.535Y3.973
X99.502Y4.012
X99.469Y4.051
X99.435Y4.089
X99.401Y4.127
X99.367Y4.164
X99.332Y4.202
X99.296Y4.238
X99.260Y4.275
X99.224Y4.310
X99.188Y4.346
X99.150Y4.381
X99.113Y4.415
X99.075Y4.449
X99.036Y4.483
X98.998Y4.516
X98.959Y4.549
X98.919Y4.581
X98.879Y4.613
X98.839Y4.644
X98.798Y4.675
X98.757Y4.706
X98.715Y4.735
X98.673Y4.765
X98.631Y4.794
X98.589Y4.822
X98.546Y4.850
X98.502Y4.878
X98.459Y4.904
X98.415Y4.931
X98.370Y4.957
X98.326Y4.982
X98.281Y5.007
X98.235Y5.031
X98.190Y5.055
X98.144Y5.078
X98.097Y5.101
X98.051Y5.123
X98.004Y5.144
X97.956Y5.165
X97.909Y5.186
X97.861Y5.206
X97.813Y5.225
X97.765Y5.244
X97.716Y5.262
X97.667Y5.280
X97.618Y5.297
X97.568Y5.313
X97.518Y5.329
X97.468Y5.344
X97.418Y5.359
X97.367Y5.373
X97.317Y5.386
X97.265Y5.399
X97.214Y5.411
X97.163Y5.423
X97.111Y5.434
X97.059Y5.444
X97.007Y5.454
X96.954Y5.463
X96.901Y5.471
X96.875Y5.475
X96.849Y5.479
X96.822Y5.482
X96.795Y5.486
X96.769Y5.489
X96.742Y5.492
X96.715Y5.495
X96.689Y5.498
X96.662Y5.501
X96.635Y5.503
X96.608Y5.506
X96.581Y5.508
X96.554Y5.510
X96.527Y5.511
X96.500Y5.513
X96.473Y5.515
X96.446Y5.516
X96.418Y5.517
X96.391Y5.518
X96.364Y5.519
X96.336Y5.519
X96.309Y5.520
X96.281Y5.520
X96.254Y5.520
X96.227Y5.520
X96.199Y5.520
X96.172Y5.519
X96.144Y5.519
X96.117Y5.518
X96.090Y5.517
X96.062Y5.516
X96.035Y5.515
X96.008Y5.513
X95.981Y5.511
X95.954Y5.510
X95.927Y5.508
X95.900Y5.506
X95.873Y5.503
X95.846Y5.501
X95.819Y5.498
X95.793Y5.495
X95.766Y5.492
X95.739Y5.489
X95.713Y5.486
X95.686Y5.482
X95.659Y5.479
X95.633Y5.475
X95.607Y5.471
X95.554Y5.463
X95.501Y5.454
X95.449Y5.444
X95.397Y5.434
X95.345Y5.423
X95.294Y5.411
X95.243Y5.399
X95.191Y5.386
X95.141Y5.373
X95.090Y5.359
X95.040Y5.344
X94.990Y5.329
X94.940Y5.313
X94.890Y5.297
X94.841Y5.280
X94.792Y5.262
X94.743Y5.244
X94.695Y5.225
X94.647Y5.206
X94.599Y5.186
X94.552Y5.165
X94.504Y5.144
X94.457Y5.123
X94.411Y5.101
X94.364Y5.078
X94.318Y5.055
X94.273Y5.031
X94.227Y5.007
X94.182Y4.982
X94.138Y4.957
X94.093Y4.931
X94.049Y4.904
X94.006Y4.878
X93.962Y4.850
X93.919Y4.822
X93.877Y4.794
X93.835Y4.765
X93.793Y4.735
X93.751Y4.706
X93.710Y4.675
X93.669Y4.644
X93.629Y4.613
X93.589Y4.581
X93.549Y4.549
X93.510Y4.516
X93.472Y4.483
X93.433Y4.449
X93.395Y4.415
X93.358Y4.381
X93.320Y4.346
X93.284Y4.310
X93.247Y4.275
X93.212Y4.238
X93.176Y4.202
X93.141Y4.164
X93.107Y4.127
X93.073Y4.089
X93.039Y4.051
X93.006Y4.012
X92.973Y3.973
X92.941Y3.933
X92.909Y3.893
X92.878Y3.853
X92.847Y3.812
X92.816Y3.771
X92.787Y3.729
X92.757Y3.687
X92.728Y3.645
X92.700Y3.603
X92.672Y3.560
X92.645Y3.516
X92.618Y3.473
X92.591Y3.429
X92.565Y3.384
X92.540Y3.340
X92.515Y3.295
X92.491Y3.249
X92.467Y3.204
X92.444Y3.158
X92.421Y3.111
X92.399Y3.065
X92.378Y3.018
X92.357Y2.971
X92.336Y2.923
X92.316Y2.875
X92.297Y2.827
X92.278Y2.779
X92.260Y2.730
X92.242Y2.681
X92.225Y2.632
X92.209Y2.582
X92.193Y2.532
X92.178Y2.482
X92.163Y2.432
X92.149Y2.381
X92.136Y2.331
X92.123Y2.280
X92.111Y2.228
X92.099Y2.177
X92.088Y2.125
X92.078Y2.073
X92.068Y2.021
X92.059Y1.968
X92.051Y1.916
X92.047Y1.889
X92.043Y1.863
X92.040Y1.836
X92.036Y1.810
X92.033Y1.783
X92.030Y1.756
X92.027Y1.730
X92.024Y1.703
X92.021Y1.676
X92.019Y1.649
X92.017Y1.622
X92.014Y1.595
X92.012Y1.568
X92.011Y1.541
X92.009Y1.514
X92.008Y1.487
X92.006Y1.460
X92.005Y1.432
X92.004Y1.405
X92.003Y1.378
X92.003Y1.350
X92.002Y1.323
X92.002Y1.296
X92.002Y1.268
X92.002Y1.241
X92.002Y1.213
G1Z-1.500F304.8
G1X92.003Y1.186F1016.0
X92.003Y1.158
X92.004Y1.131
X92.005Y1.104
X92.006Y1.076
X92.008Y1.049
X92.009Y1.022
X92.011Y0.995
X92.012Y0.968
X92.014Y0.941
X92.017Y0.914
X92.019Y0.887
X92.021Y0.860
X92.024Y0.833
X92.027Y0.807
X92.030Y0.780
X92.033Y0.753
X92.036Y0.727
X92.040Y0.700
X92.043Y0.673
X92.047Y0.647
X92.051Y0.621
X92.059Y0.568
X92.068Y0.515
X92.078Y0.463
X92.088Y0.411
X92.099Y0.359
X92.111Y0.308
X92.123Y0.257
X92.136Y0.206
X92.149Y0.155
X92.163Y0.104
X92.178Y0.054
X92.193Y0.004
X92.209Y-0.046
X92.225Y-0.096
X92.242Y-0.145
X92.260Y-0.194
X92.278Y-0.243
X92.297Y-0.291
X92.316Y-0.339
X92.336Y-0.387
X92.357Y-0.434
X92.378Y-0.482
X92.399Y-0.529
X92.421Y-0.575
X92.444Y-0.622
X92.467Y-0.668
X92.491Y-0.713
X92.515Y-0.759
X92.540Y-0.804
X92.565Y-0.848
X92.591Y-0.893
X92.618Y-0.937
X92.645Y-0.980
X92.672Y-1.024
X92.700Y-1.067
X92.728Y-1.109
X92.757Y-1.151
X92.787Y-1.193
X92.816Y-1.235
X92.847Y-1.276
X92.878Y-1.317
X92.909Y-1.357
X92.941Y-1.397
X92.973Y-1.436
X93.006Y-1.476
X93.039Y-1.514
X93.073Y-1.553
X93.107Y-1.591
X93.141Y-1.628
X93.176Y-1.665
X93.212Y-1.702
X93.247Y-1.738
X93.284Y-1.774
X93.320Y-1.810
X93.358Y-1.845
X93.395Y-1.879
X93.433Y-1.913
X93.472Y-1.947
X93.510Y-1.980
X93.549Y-2.013
X93.589Y-2.045
X93.629Y-2.077
X93.669Y-2.108
X93.710Y-2.139
X93.751Y-2.170
X93.793Y-2.199
X93.835Y-2.229
X93.877Y-2.258
X93.919Y-2.286
X93.962Y-2.314
X94.006Y-2.341
X94.049Y-2.368
X94.093Y-2.395
X94.138Y-2.421
X94.182Y-2.446
X94.227Y-2.471
X94.273Y-2.495
X94.318Y-2.519
X94.364Y-2.542
X94.411Y-2.565
X94.457Y-2.587
X94.504Y-2.608
X94.552Y-2.629
X94.599Y-2.650
X94.647Y-2.670
X94.695Y-2.689
X94.743Y-2.708
X94.792Y-2.726
X94.841Y-2.743
X94.890Y-2.761
X94.940Y-2.777
X94.990Y-2.793
X95.040Y-2.808
X95.090Y-2.823
X95.141Y-2.837
X95.191Y-2.850
X95.243Y-2.863
X95.294Y-2.875
X95.345Y-2.887
X95.397Y-2.898
X95.449Y-2.908
X95.501Y-2.918
X95.554Y-2.927
X95.607Y-2.935
X95.633Y-2.939
X95.659Y-2.943
X95.686Y-2.946
X95.713Y-2.950
X95.739Y-2.953
X95.766Y-2.956
X95.793Y-2.959
X95.819Y-2.962
X95.846Y-2.965
X95.873Y-2.967
X95.900Y-2.969
X95.927Y-2.972
X95.954Y-2.974
X95.981Y-2.975
X96.008Y-2.977
X96.035Y-2.978
X96.062Y-2.980
X96.090Y-2.981
X96.117Y-2.982
X96.144Y-2.983
X96.172Y-2.983
X96.199Y-2.984
X96.227Y-2.984
X96.254Y-2.984
X96.281Y-2.984
X96.309Y-2.984
X96.336Y-2.983
X96.364Y-2.983
X96.391Y-2.982
X96.418Y-2.981
X96.446Y-2.980
X96.473Y-2.978
X96.500Y-2.977
X96.527Y-2.975
X96.554Y-2.974
X96.581Y-2.972
X96.608Y-2.969
X96.635Y-2.967
X96.662Y-2.965
X96.689Y-2.962
X96.715Y-2.959
X96.742Y-2.956
X96.769Y-2.953
X96.795Y-2.950
X96.822Y-2.946
X96.849Y-2.943
X96.875Y-2.939
X96.901Y-2.935
X96.954Y-2.927
X97.007Y-2.918
X97.059Y-2.908
X97.111Y-2.898
X97.163Y-2.887
X97.214Y-2.875
X97.265Y-2.863
X97.317Y-2.850
X97.367Y-2.837
X97.418Y-2.823
X97.468Y-2.808
X97.518Y-2.793
X97.568Y-2.777
X97.618Y-2.761
X97.667Y-2.743
X97.716Y-2.726
X97.765Y-2.708
X97.813Y-2.689
X97.861Y-2.670
X97.909Y-2.650
X97.956Y-2.629
X98.004Y-2.608
X98.051Y-2.587
X98.097Y-2.565
X98.144Y-2.542
X98.190Y-2.519
X98.235Y-2.495
X98.281Y-2.471
X98.326Y-2.446
X98.370Y-2.421
X98.415Y-2.395
X98.459Y-2.368
X98.502Y-2.341
X98.546Y-2.314
X98.589Y-2.286
X98.631Y-2.258
X98.673Y-2.229
X98.715Y-2.199
X98.757Y-2.170
X98.798Y-2.139
X98.839Y-2.108
X98.879Y-2.077
X98.919Y-2.045
X98.959Y-2.013
X98.998Y-1.980
X99.036Y-1.947
X99.075Y-1.913
X99.113Y-1.879
X99.150Y-1.845
X99.188Y-1.810
X99.224Y-1.774
X99.260Y-1.738
X99.296Y-1.702
X99.332Y-1.665
X99.367Y-1.628
X99.401Y-1.591
X99.435Y-1.553
X99.469Y-1.514
X99.502Y-1.476
X99.535Y-1.436
X99.567Y-1.397
X99.599Y-1.357
X99.630Y-1.317
X99.661Y-1.276
X99.692Y-1.235
X99.721Y-1.193
X99.751Y-1.151
X99.780Y-1.109
X99.808Y-1.067
X99.836Y-1.024
X99.863Y-0.980
X99.890Y-0.937
X99.917Y-0.893
X99.943Y-0.848
X99.968Y-0.804
X99.993Y-0.759
X100.017Y-0.713
X100.041Y-0.668
X100.064Y-0.622
X100.087Y-0.575
X100.109Y-0.529
X100.130Y-0.482
X100.151Y-0.434
X100.172Y-0.387
X100.192Y-0.339
X100.211Y-0.291
X100.230Y-0.243
X100.248Y-0.194
X100.266Y-0.145
X100.283Y-0.096
X100.299Y-0.046
X100.315Y0.004
X100.330Y0.054
X100.345Y0.104
X100.359Y0.155
X100.372Y0.206
X100.385Y0.257
X100.397Y0.308
X100.409Y0.359
X100.420Y0.411
X100.430Y0.463
X100.440Y0.515
X100.449Y0.568
X100.457Y0.621
X100.461Y0.647
X100.465Y0.673
X100.468Y0.700
X100.472Y0.727
X100.475Y0.753
X100.478Y0.780
X100.481Y0.807
X100.484Y0.833
X100.487Y0.860
X100.489Y0.887
X100.491Y0.914
X100.494Y0.941
X100.496Y0.968
X100.497Y0.995
X100.499Y1.022
X100.500Y1.049
X100.502Y1.076
X100.503Y1.104
X100.504Y1.131
X100.505Y1.158
X100.505Y1.186
X100.506Y1.213
X100.506Y1.241
X100.506Y1.268
X100.506Y1.296
X100.506Y1.323
X100.505Y1.350
X100.505Y1.378
X100.504Y1.405
X100.503Y1.432
X100.502Y1.460
X100.500Y1.487
X100.499Y1.514
X100.497Y1.541
X100.496Y1.568
X100.494Y1.595
X100.491Y1.622
X100.489Y1.649
X100.487Y1.676
X100.484Y1.703
X100.481Y1.730
X100.478Y1.756
X100.475Y1.783
X100.472Y1.810
X100.468Y1.836
X100.465Y1.863
X100.461Y1.889
X100.457Y1.916
X100.449Y1.968
X100.440Y2.021
X100.430Y2.073
X100.420Y2.125
X100.409Y2.177
X100.397Y2.228
X100.385Y2.280
X100.372Y2.331
X100.359Y2.381
X100.345Y2.432
X100.330Y2.482
X100.315Y2.532
X100.299Y2.582
X100.283Y2.632
X100.266Y2.681
X100.248Y2.730
X100.230Y2.779
X100.211Y2.827
X100.192Y2.875
X100.172Y2.923
X100.151Y2.971
X100.130Y3.018
X100.109Y3.065
X100.087Y3.111
X100.064Y3.158
X100.041Y3.204
X100.017Y3.249
X99.993Y3.295
X99.968Y3.340
X99.943Y3.384
X99.917Y3.429
X99.890Y3.473
X99.863Y3.516
X99.836Y3.560
X99.808Y3.603
X99.780Y3.645
X99.751Y3.687
X99.721Y3.729
X99.692Y3.771
X99.661Y3.812
X99.630Y3.853
X99.599Y3.893
X99.567Y3.933
X99.535Y3.973
X99.502Y4.012
X99.469Y4.051
X99.435Y4.089
X99.401Y4.127
X99.367Y4.164
X99.332Y4.202
X99.296Y4.238
X99.260Y4.275
X99.224Y4.310
X99.188Y4.346
X99.150Y4.381
X99.113Y4.415
X99.075Y4.449
X99.036Y4.483
X98.998Y4.516
X98.959Y4.549
X98.919Y4.581
X98.879Y4.613
X98.839Y4.644
X98.798Y4.675
X98.757Y4.706
X98.715Y4.735
X98.673Y4.765
X98.631Y4.794
X98.589Y4.822
X98.546Y4.850
X98.502Y4.878
X98.459Y4.904
X98.415Y4.931
X98.370Y4.957
X98.326Y4.982
X98.281Y5.007
X98.235Y5.031
X98.190Y5.055
X98.144Y5.078
X98.097Y5.101
X98.051Y5.123
X98.004Y5.144
X97.956Y5.165
X97.909Y5.186
X97.861Y5.206
X97.813Y5.225
X97.765Y5.244
X97.716Y5.262
X97.667Y5.280
X97.618Y5.297
X97.568Y5.313
X97.518Y5.329
X97.468Y5.344
X97.418Y5.359
X97.367Y5.373
X97.317Y5.386
X97.265Y5.399
X97.214Y5.411
X97.163Y5.423
X97.111Y5.434
X97.059Y5.444
X97.007Y5.454
X96.954Y5.463
X96.901Y5.471
X96.875Y5.475
X96.849Y5.479
X96.822Y5.482
X96.795Y5.486
X96.769Y5.489
X96.742Y5.492
X96.715Y5.495
X96.689Y5.498
X96.662Y5.501
X96.635Y5.503
X96.608Y5.506
X96.581Y5.508
X96.554Y5.510
X96.527Y5.511
X96.500Y5.513
X96.473Y5.515
X96.446Y5.516
X96.418Y5.517
X96.391Y5.518
X96.364Y5.519
X96.336Y5.519
X96.309Y5.520
X96.281Y5.520
X96.254Y5.520
X96.227Y5.520
X96.199Y5.520
X96.172Y5.519
X96.144Y5.519
X96.117Y5.518
X96.090Y5.517
X96.062Y5.516
X96.035Y5.515
X96.008Y5.513
X95.981Y5.511
X95.954Y5.510
X95.927Y5.508
X95.900Y5.506
X95.873Y5.503
X95.846Y5.501
X95.819Y5.498
X95.793Y5.495
X95.766Y5.492
X95.739Y5.489
X95.713Y5.486
X95.686Y5.482
X95.659Y5.479
X95.633Y5.475
X95.607Y5.471
X95.554Y5.463
X95.501Y5.454
X95.449Y5.444
X95.397Y5.434
X95.345Y5.423
X95.294Y5.411
X95.243Y5.399
X95.191Y5.386
X95.141Y5.373
X95.090Y5.359
X95.040Y5.344
X94.990Y5.329
X94.940Y5.313
X94.890Y5.297
X94.841Y5.280
X94.792Y5.262
X94.743Y5.244
X94.695Y5.225
X94.647Y5.206
X94.599Y5.186
X94.552Y5.165
X94.504Y5.144
X94.457Y5.123
X94.411Y5.101
X94.364Y5.078
X94.318Y5.055
X94.273Y5.031
X94.227Y5.007
X94.182Y4.982
X94.138Y4.957
X94.093Y4.931
X94.049Y4.904
X94.006Y4.878
X93.962Y4.850
X93.919Y4.822
X93.877Y4.794
X93.835Y4.765
X93.793Y4.735
X93.751Y4.706
X93.710Y4.675
X93.669Y4.644
X93.629Y4.613
X93.589Y4.581
X93.549Y4.549
X93.510Y4.516
X93.472Y4.483
X93.433Y4.449
X93.395Y4.415
X93.358Y4.381
X93.320Y4.346
X93.284Y4.310
X93.247Y4.275
X93.212Y4.238
X93.176Y4.202
X93.141Y4.164
X93.107Y4.127
X93.073Y4.089
X93.039Y4.051
X93.006Y4.012
X92.973Y3.973
X92.941Y3.933
X92.909Y3.893
X92.878Y3.853
X92.847Y3.812
X92.816Y3.771
X92.787Y3.729
X92.757Y3.687
X92.728Y3.645
X92.700Y3.603
X92.672Y3.560
X92.645Y3.516
X92.618Y3.473
X92.591Y3.429
X92.565Y3.384
X92.540Y3.340
X92.515Y3.295
X92.491Y3.249
X92.467Y3.204
X92.444Y3.158
X92.421Y3.111
X92.399Y3.065
X92.378Y3.018
X92.357Y2.971
X92.336Y2.923
X92.316Y2.875
X92.297Y2.827
X92.278Y2.779
X92.260Y2.730
X92.242Y2.681
X92.225Y2.632
X92.209Y2.582
X92.193Y2.532
X92.178Y2.482
X92.163Y2.432
X92.149Y2.381
X92.136Y2.331
X92.123Y2.280
X92.111Y2.228
X92.099Y2.177
X92.088Y2.125
X92.078Y2.073
X92.068Y2.021
X92.059Y1.968
X92.051Y1.916
X92.047Y1.889
X92.043Y1.863
X92.040Y1.836
X92.036Y1.810
X92.033Y1.783
X92.030Y1.756
X92.027Y1.730
X92.024Y1.703
X92.021Y1.676
X92.019Y1.649
X92.017Y1.622
X92.014Y1.595
X92.012Y1.568
X92.011Y1.541
X92.009Y1.514
X92.008Y1.487
X92.006Y1.460
X92.005Y1.432
X92.004Y1.405
X92.003Y1.378
X92.003Y1.350
X92.002Y1.323
X92.002Y1.296
X92.002Y1.268
X92.002Y1.241
X92.002Y1.213
G1Z-2.250F304.8
G1X92.003Y1.186F1016.0
X92.003Y1.158
X92.004Y1.131
X92.005Y1.104
X92.006Y1.076
X92.008Y1.049
X92.009Y1.022
X92.011Y0.995
X92.012Y0.968
X92.014Y0.941
X92.017Y0.914
X92.019Y0.887
X92.021Y0.860
X92.024Y0.833
X92.027Y0.807
X92.030Y0.780
X92.033Y0.753
X92.036Y0.727
X92.040Y0.700
X92.043Y0.673
X92.047Y0.647
X92.051Y0.621
X92.059Y0.568
X92.068Y0.515
X92.078Y0.463
X92.088Y0.411
X92.099Y0.359
X92.111Y0.308
X92.123Y0.257
X92.136Y0.206
X92.149Y0.155
X92.163Y0.104
X92.178Y0.054
X92.193Y0.004
X92.209Y-0.046
X92.225Y-0.096
X92.242Y-0.145
X92.260Y-0.194
X92.278Y-0.243
X92.297Y-0.291
X92.316Y-0.339
X92.336Y-0.387
X92.357Y-0.434
X92.378Y-0.482
X92.399Y-0.529
X92.421Y-0.575
X92.444Y-0.622
X92.467Y-0.668
X92.491Y-0.713
X92.515Y-0.759
X92.540Y-0.804
X92.565Y-0.848
X92.591Y-0.893
X92.618Y-0.937
X92.645Y-0.980
X92.672Y-1.024
X92.700Y-1.067
X92.728Y-1.109
X92.757Y-1.151
X92.787Y-1.193
X92.816Y-1.235
X92.847Y-1.276
X92.878Y-1.317
X92.909Y-1.357
X92.941Y-1.397
X92.973Y-1.436
X93.006Y-1.476
X93.039Y-1.514
X93.073Y-1.553
X93.107Y-1.591
X93.141Y-1.628
X93.176Y-1.665
X93.212Y-1.702
X93.247Y-1.738
X93.284Y-1.774
X93.320Y-1.810
X93.358Y-1.845
X93.395Y-1.879
X93.433Y-1.913
X93.472Y-1.947
X93.510Y-1.980
X93.549Y-2.013
X93.589Y-2.045
X93.629Y-2.077
X93.669Y-2.108
X93.710Y-2.139
X93.751Y-2.170
X93.793Y-2.199
X93.835Y-2.229
X93.877Y-2.258
X93.919Y-2.286
X93.962Y-2.314
X94.006Y-2.341
X94.049Y-2.368
X94.093Y-2.395
X94.138Y-2.421
X94.182Y-2.446
X94.227Y-2.471
X94.273Y-2.495
X94.318Y-2.519
X94.364Y-2.542
X94.411Y-2.565
X94.457Y-2.587
X94.504Y-2.608
X94.552Y-2.629
X94.599Y-2.650
X94.647Y-2.670
X94.695Y-2.689
X94.743Y-2.708
X94.792Y-2.726
X94.841Y-2.743
X94.890Y-2.761
X94.940Y-2.777
X94.990Y-2.793
X95.040Y-2.808
X95.090Y-2.823
X95.141Y-2.837
X95.191Y-2.850
X95.243Y-2.863
X95.294Y-2.875
X95.345Y-2.887
X95.397Y-2.898
X95.449Y-2.908
X95.501Y-2.918
X95.554Y-2.927
X95.607Y-2.935
X95.633Y-2.939
X95.659Y-2.943
X95.686Y-2.946
X95.713Y-2.950
X95.739Y-2.953
X95.766Y-2.956
X95.793Y-2.959
X95.819Y-2.962
X95.846Y-2.965
X95.873Y-2.967
X95.900Y-2.969
X95.927Y-2.972
X95.954Y-2.974
X95.981Y-2.975
X96.008Y-2.977
X96.035Y-2.978
X96.062Y-2.980
X96.090Y-2.981
X96.117Y-2.982
X96.144Y-2.983
X96.172Y-2.983
X96.199Y-2.984
X96.227Y-2.984
X96.254Y-2.984
X96.281Y-2.984
X96.309Y-2.984
X96.336Y-2.983
X96.364Y-2.983
X96.391Y-2.982
X96.418Y-2.981
X96.446Y-2.980
X96.473Y-2.978
X96.500Y-2.977
X96.527Y-2.975
X96.554Y-2.974
X96.581Y-2.972
X96.608Y-2.969
X96.635Y-2.967
X96.662Y-2.965
X96.689Y-2.962
X96.715Y-2.959
X96.742Y-2.956
X96.769Y-2.953
X96.795Y-2.950
X96.822Y-2.946
X96.849Y-2.943
X96.875Y-2.939
X96.901Y-2.935
X96.954Y-2.927
X97.007Y-2.918
X97.059Y-2.908
X97.111Y-2.898
X97.163Y-2.887
X97.214Y-2.875
X97.265Y-2.863
X97.317Y-2.850
X97.367Y-2.837
X97.418Y-2.823
X97.468Y-2.808
X97.518Y-2.793
X97.568Y-2.777
X97.618Y-2.761
X97.667Y-2.743
X97.716Y-2.726
X97.765Y-2.708
X97.813Y-2.689
X97.861Y-2.670
X97.909Y-2.650
X97.956Y-2.629
X98.004Y-2.608
X98.051Y-2.587
X98.097Y-2.565
X98.144Y-2.542
X98.190Y-2.519
X98.235Y-2.495
X98.281Y-2.471
X98.326Y-2.446
X98.370Y-2.421
X98.415Y-2.395
X98.459Y-2.368
X98.502Y-2.341
X98.546Y-2.314
X98.589Y-2.286
X98.631Y-2.258
X98.673Y-2.229
X98.715Y-2.199
X98.757Y-2.170
X98.798Y-2.139
X98.839Y-2.108
X98.879Y-2.077
X98.919Y-2.045
X98.959Y-2.013
X98.998Y-1.980
X99.036Y-1.947
X99.075Y-1.913
X99.113Y-1.879
X99.150Y-1.845
X99.188Y-1.810
X99.224Y-1.774
X99.260Y-1.738
X99.296Y-1.702
X99.332Y-1.665
X99.367Y-1.628
X99.401Y-1.591
X99.435Y-1.553
X99.469Y-1.514
X99.502Y-1.476
X99.535Y-1.436
X99.567Y-1.397
X99.599Y-1.357
X99.630Y-1.317
X99.661Y-1.276
X99.692Y-1.235
X99.721Y-1.193
X99.751Y-1.151
X99.780Y-1.109
X99.808Y-1.067
X99.836Y-1.024
X99.863Y-0.980
X99.890Y-0.937
X99.917Y-0.893
X99.943Y-0.848
X99.968Y-0.804
X99.993Y-0.759
X100.017Y-0.713
X100.041Y-0.668
X100.064Y-0.622
X100.087Y-0.575
X100.109Y-0.529
X100.130Y-0.482
X100.151Y-0.434
X100.172Y-0.387
X100.192Y-0.339
X100.211Y-0.291
X100.230Y-0.243
X100.248Y-0.194
X100.266Y-0.145
X100.283Y-0.096
X100.299Y-0.046
X100.315Y0.004
X100.330Y0.054
X100.345Y0.104
X100.359Y0.155
X100.372Y0.206
X100.385Y0.257
X100.397Y0.308
X100.409Y0.359
X100.420Y0.411
X100.430Y0.463
X100.440Y0.515
X100.449Y0.568
X100.457Y0.621
X100.461Y0.647
X100.465Y0.673
X100.468Y0.700
X100.472Y0.727
X100.475Y0.753
X100.478Y0.780
X100.481Y0.807
X100.484Y0.833
X100.487Y0.860
X100.489Y0.887
X100.491Y0.914
X100.494Y0.941
X100.496Y0.968
X100.497Y0.995
X100.499Y1.022
X100.500Y1.049
X100.502Y1.076
X100.503Y1.104
X100.504Y1.131
X100.505Y1.158
X100.505Y1.186
X100.506Y1.213
X100.506Y1.241
X100.506Y1.268
X100.506Y1.296
X100.506Y1.323
X100.505Y1.350
X100.505Y1.378
X100.504Y1.405
X100.503Y1.432
X100.502Y1.460
X100.500Y1.487
X100.499Y1.514
X100.497Y1.541
X100.496Y1.568
X100.494Y1.595
X100.491Y1.622
X100.489Y1.649
X100.487Y1.676
X100.484Y1.703
X100.481Y1.730
X100.478Y1.756
X100.475Y1.783
X100.472Y1.810
X100.468Y1.836
X100.465Y1.863
X100.461Y1.889
X100.457Y1.916
X100.449Y1.968
X100.440Y2.021
X100.430Y2.073
X100.420Y2.125
X100.409Y2.177
X100.397Y2.228
X100.385Y2.280
X100.372Y2.331
X100.359Y2.381
X100.345Y2.432
X100.330Y2.482
X100.315Y2.532
X100.299Y2.582
X100.283Y2.632
X100.266Y2.681
X100.248Y2.730
X100.230Y2.779
X100.211Y2.827
X100.192Y2.875
X100.172Y2.923
X100.151Y2.971
X100.130Y3.018
X100.109Y3.065
X100.087Y3.111
X100.064Y3.158
X100.041Y3.204
X100.017Y3.249
X99.993Y3.295
X99.968Y3.340
X99.943Y3.384
X99.917Y3.429
X99.890Y3.473
X99.863Y3.516
X99.836Y3.560
X99.808Y3.603
X99.780Y3.645
X99.751Y3.687
X99.721Y3.729
X99.692Y3.771
X99.661Y3.812
X99.630Y3.853
X99.599Y3.893
X99.567Y3.933
X99.535Y3.973
X99.502Y4.012
X99.469Y4.051
X99.435Y4.089
X99.401Y4.127
X99.367Y4.164
X99.332Y4.202
X99.296Y4.238
X99.260Y4.275
X99.224Y4.310
X99.188Y4.346
X99.150Y4.381
X99.113Y4.415
X99.075Y4.449
X99.036Y4.483
X98.998Y4.516
X98.959Y4.549
X98.919Y4.581
X98.879Y4.613
X98.839Y4.644
X98.798Y4.675
X98.757Y4.706
X98.715Y4.735
X98.673Y4.765
X98.631Y4.794
X98.589Y4.822
X98.546Y4.850
X98.502Y4.878
X98.459Y4.904
X98.415Y4.931
X98.370Y4.957
X98.326Y4.982
X98.281Y5.007
X98.235Y5.031
X98.190Y5.055
X98.144Y5.078
X98.097Y5.101
X98.051Y5.123
X98.004Y5.144
X97.956Y5.165
X97.909Y5.186
X97.861Y5.206
X97.813Y5.225
X97.765Y5.244
X97.716Y5.262
X97.667Y5.280
X97.618Y5.297
X97.568Y5.313
X97.518Y5.329
X97.468Y5.344
X97.418Y5.359
X97.367Y5.373
X97.317Y5.386
X97.265Y5.399
X97.214Y5.411
X97.163Y5.423
X97.111Y5.434
X97.059Y5.444
X97.007Y5.454
X96.954Y5.463
X96.901Y5.471
X96.875Y5.475
X96.849Y5.479
X96.822Y5.482
X96.795Y5.486
X96.769Y5.489
X96.742Y5.492
X96.715Y5.495
X96.689Y5.498
X96.662Y5.501
X96.635Y5.503
X96.608Y5.506
X96.581Y5.508
X96.554Y5.510
X96.527Y5.511
X96.500Y5.513
X96.473Y5.515
X96.446Y5.516
X96.418Y5.517
X96.391Y5.518
X96.364Y5.519
X96.336Y5.519
X96.309Y5.520
X96.281Y5.520
X96.254Y5.520
X96.227Y5.520
X96.199Y5.520
X96.172Y5.519
X96.144Y5.519
X96.117Y5.518
X96.090Y5.517
X96.062Y5.516
X96.035Y5.515
X96.008Y5.513
X95.981Y5.511
X95.954Y5.510
X95.927Y5.508
X95.900Y5.506
X95.873Y5.503
X95.846Y5.501
X95.819Y5.498
X95.793Y5.495
X95.766Y5.492
X95.739Y5.489
X95.713Y5.486
X95.686Y5.482
X95.659Y5.479
X95.633Y5.475
X95.607Y5.471
X95.554Y5.463
X95.501Y5.454
X95.449Y5.444
X95.397Y5.434
X95.345Y5.423
X95.294Y5.411
X95.243Y5.399
X95.191Y5.386
X95.141Y5.373
X95.090Y5.359
X95.040Y5.344
X94.990Y5.329
X94.940Y5.313
X94.890Y5.297
X94.841Y5.280
X94.792Y5.262
X94.743Y5.244
X94.695Y5.225
X94.647Y5.206
X94.599Y5.186
X94.552Y5.165
X94.504Y5.144
X94.457Y5.123
X94.411Y5.101
X94.364Y5.078
X94.318Y5.055
X94.273Y5.031
X94.227Y5.007
X94.182Y4.982
X94.138Y4.957
X94.093Y4.931
X94.049Y4.904
X94.006Y4.878
X93.962Y4.850
X93.919Y4.822
X93.877Y4.794
X93.835Y4.765
X93.793Y4.735
X93.751Y4.706
X93.710Y4.675
X93.669Y4.644
X93.629Y4.613
X93.589Y4.581
X93.549Y4.549
X93.510Y4.516
X93.472Y4.483
X93.433Y4.449
X93.395Y4.415
X93.358Y4.381
X93.320Y4.346
X93.284Y4.310
X93.247Y4.275
X93.212Y4.238
X93.176Y4.202
X93.141Y4.164
X93.107Y4.127
X93.073Y4.089
X93.039Y4.051
X93.006Y4.012
X92.973Y3.973
X92.941Y3.933
X92.909Y3.893
X92.878Y3.853
X92.847Y3.812
X92.816Y3.771
X92.787Y3.729
X92.757Y3.687
X92.728Y3.645
X92.700Y3.603
X92.672Y3.560
X92.645Y3.516
X92.618Y3.473
X92.591Y3.429
X92.565Y3.384
X92.540Y3.340
X92.515Y3.295
X92.491Y3.249
X92.467Y3.204
X92.444Y3.158
X92.421Y3.111
X92.399Y3.065
X92.378Y3.018
X92.357Y2.971
X92.336Y2.923
X92.316Y2.875
X92.297Y2.827
X92.278Y2.779
X92.260Y2.730
X92.242Y2.681
X92.225Y2.632
X92.209Y2.582
X92.193Y2.532
X92.178Y2.482
X92.163Y2.432
X92.149Y2.381
X92.136Y2.331
X92.123Y2.280
X92.111Y2.228
X92.099Y2.177
X92.088Y2.125
X92.078Y2.073
X92.068Y2.021
X92.059Y1.968
X92.051Y1.916
X92.047Y1.889
X92.043Y1.863
X92.040Y1.836
X92.036Y1.810
X92.033Y1.783
X92.030Y1.756
X92.027Y1.730
X92.024Y1.703
X92.021Y1.676
X92.019Y1.649
X92.017Y1.622
X92.014Y1.595
X92.012Y1.568
X92.011Y1.541
X92.009Y1.514
X92.008Y1.487
X92.006Y1.460
X92.005Y1.432
X92.004Y1.405
X92.003Y1.378
X92.003Y1.350
X92.002Y1.323
X92.002Y1.296
X92.002Y1.268
X92.002Y1.241
X92.002Y1.213
G1Z-3.000F304.8
G1X92.003Y1.186F1016.0
X92.003Y1.158
X92.004Y1.131
X92.005Y1.104
X92.006Y1.076
X92.008Y1.049
X92.009Y1.022
X92.011Y0.995
X92.012Y0.968
X92.014Y0.941
X92.017Y0.914
X92.019Y0.887
X92.021Y0.860
X92.024Y0.833
X92.027Y0.807
X92.030Y0.780
X92.033Y0.753
X92.036Y0.727
X92.040Y0.700
X92.043Y0.673
X92.047Y0.647
X92.051Y0.621
X92.059Y0.568
X92.068Y0.515
X92.078Y0.463
X92.088Y0.411
X92.099Y0.359
X92.111Y0.308
X92.123Y0.257
X92.136Y0.206
X92.149Y0.155
X92.163Y0.104
X92.178Y0.054
X92.193Y0.004
X92.209Y-0.046
X92.225Y-0.096
X92.242Y-0.145
X92.260Y-0.194
X92.278Y-0.243
X92.297Y-0.291
X92.316Y-0.339
X92.336Y-0.387
X92.357Y-0.434
X92.378Y-0.482
X92.399Y-0.529
X92.421Y-0.575
X92.444Y-0.622
X92.467Y-0.668
X92.491Y-0.713
X92.515Y-0.759
X92.540Y-0.804
X92.565Y-0.848
X92.591Y-0.893
X92.618Y-0.937
X92.645Y-0.980
X92.672Y-1.024
X92.700Y-1.067
X92.728Y-1.109
X92.757Y-1.151
X92.787Y-1.193
X92.816Y-1.235
X92.847Y-1.276
X92.878Y-1.317
X92.909Y-1.357
X92.941Y-1.397
X92.973Y-1.436
X93.006Y-1.476
X93.039Y-1.514
X93.073Y-1.553
X93.107Y-1.591
X93.141Y-1.628
X93.176Y-1.665
X93.212Y-1.702
X93.247Y-1.738
X93.284Y-1.774
X93.320Y-1.810
X93.358Y-1.845
X93.395Y-1.879
X93.433Y-1.913
X93.472Y-1.947
X93.510Y-1.980
X93.549Y-2.013
X93.589Y-2.045
X93.629Y-2.077
X93.669Y-2.108
X93.710Y-2.139
X93.751Y-2.170
X93.793Y-2.199
X93.835Y-2.229
X93.877Y-2.258
X93.919Y-2.286
X93.962Y-2.314
X94.006Y-2.341
X94.049Y-2.368
X94.093Y-2.395
X94.138Y-2.421
X94.182Y-2.446
X94.227Y-2.471
X94.273Y-2.495
X94.318Y-2.519
X94.364Y-2.542
X94.411Y-2.565
X94.457Y-2.587
X94.504Y-2.608
X94.552Y-2.629
X94.599Y-2.650
X94.647Y-2.670
X94.695Y-2.689
X94.743Y-2.708
X94.792Y-2.726
X94.841Y-2.743
X94.890Y-2.761
X94.940Y-2.777
X94.990Y-2.793
X95.040Y-2.808
X95.090Y-2.823
X95.141Y-2.837
X95.191Y-2.850
X95.243Y-2.863
X95.294Y-2.875
X95.345Y-2.887
X95.397Y-2.898
X95.449Y-2.908
X95.501Y-2.918
X95.554Y-2.927
X95.607Y-2.935
X95.633Y-2.939
X95.659Y-2.943
X95.686Y-2.946
X95.713Y-2.950
X95.739Y-2.953
X95.766Y-2.956
X95.793Y-2.959
X95.819Y-2.962
X95.846Y-2.965
X95.873Y-2.967
X95.900Y-2.969
X95.927Y-2.972
X95.954Y-2.974
X95.981Y-2.975
X96.008Y-2.977
X96.035Y-2.978
X96.062Y-2.980
X96.090Y-2.981
X96.117Y-2.982
X96.144Y-2.983
X96.172Y-2.983
X96.199Y-2.984
X96.227Y-2.984
X96.254Y-2.984
X96.281Y-2.984
X96.309Y-2.984
X96.336Y-2.983
X96.364Y-2.983
X96.391Y-2.982
X96.418Y-2.981
X96.446Y-2.980
X96.473Y-2.978
X96.500Y-2.977
X96.527Y-2.975
X96.554Y-2.974
X96.581Y-2.972
X96.608Y-2.969
X96.635Y-2.967
X96.662Y-2.965
X96.689Y-2.962
X96.715Y-2.959
X96.742Y-2.956
X96.769Y-2.953
X96.795Y-2.950
X96.822Y-2.946
X96.849Y-2.943
X96.875Y-2.939
X96.901Y-2.935
X96.954Y-2.927
X97.007Y-2.918
X97.059Y-2.908
X97.111Y-2.898
X97.163Y-2.887
X97.214Y-2.875
X97.265Y-2.863
X97.317Y-2.850
X97.367Y-2.837
X97.418Y-2.823
X97.468Y-2.808
X97.518Y-2.793
X97.568Y-2.777
X97.618Y-2.761
X97.667Y-2.743
X97.716Y-2.726
X97.765Y-2.708
X97.813Y-2.689
X97.861Y-2.670
X97.909Y-2.650
X97.956Y-2.629
X98.004Y-2.608
X98.051Y-2.587
X98.097Y-2.565
X98.144Y-2.542
X98.190Y-2.519
X98.235Y-2.495
X98.281Y-2.471
X98.326Y-2.446
X98.370Y-2.421
X98.415Y-2.395
X98.459Y-2.368
X98.502Y-2.341
X98.546Y-2.314
X98.589Y-2.286
X98.631Y-2.258
X98.673Y-2.229
X98.715Y-2.199
X98.757Y-2.170
X98.798Y-2.139
X98.839Y-2.108
X98.879Y-2.077
X98.919Y-2.045
X98.959Y-2.013
X98.998Y-1.980
X99.036Y-1.947
X99.075Y-1.913
X99.113Y-1.879
X99.150Y-1.845
X99.188Y-1.810
X99.224Y-1.774
X99.260Y-1.738
X99.296Y-1.702
X99.332Y-1.665
X99.367Y-1.628
X99.401Y-1.591
X99.435Y-1.553
X99.469Y-1.514
X99.502Y-1.476
X99.535Y-1.436
X99.567Y-1.397
X99.599Y-1.357
X99.630Y-1.317
X99.661Y-1.276
X99.692Y-1.235
X99.721Y-1.193
X99.751Y-1.151
X99.780Y-1.109
X99.808Y-1.067
X99.836Y-1.024
X99.863Y-0.980
X99.890Y-0.937
X99.917Y-0.893
X99.943Y-0.848
X99.968Y-0.804
X99.993Y-0.759
X100.017Y-0.713
X100.041Y-0.668
X100.064Y-0.622
X100.087Y-0.575
X100.109Y-0.529
X100.130Y-0.482
X100.151Y-0.434
X100.172Y-0.387
X100.192Y-0.339
X100.211Y-0.291
X100.230Y-0.243
X100.248Y-0.194
X100.266Y-0.145
X100.283Y-0.096
X100.299Y-0.046
X100.315Y0.004
X100.330Y0.054
X100.345Y0.104
X100.359Y0.155
X100.372Y0.206
X100.385Y0.257
X100.397Y0.308
X100.409Y0.359
X100.420Y0.411
X100.430Y0.463
X100.440Y0.515
X100.449Y0.568
X100.457Y0.621
X100.461Y0.647
X100.465Y0.673
X100.468Y0.700
X100.472Y0.727
X100.475Y0.753
X100.478Y0.780
X100.481Y0.807
X100.484Y0.833
X100.487Y0.860
X100.489Y0.887
X100.491Y0.914
X100.494Y0.941
X100.496Y0.968
X100.497Y0.995
X100.499Y1.022
X100.500Y1.049
X100.502Y1.076
X100.503Y1.104
X100.504Y1.131
X100.505Y1.158
X100.505Y1.186
X100.506Y1.213
X100.506Y1.241
X100.506Y1.268
X100.506Y1.296
X100.506Y1.323
X100.505Y1.350
X100.505Y1.378
X100.504Y1.405
X100.503Y1.432
X100.502Y1.460
X100.500Y1.487
X100.499Y1.514
X100.497Y1.541
X100.496Y1.568
X100.494Y1.595
X100.491Y1.622
X100.489Y1.649
X100.487Y1.676
X100.484Y1.703
X100.481Y1.730
X100.478Y1.756
X100.475Y1.783
X100.472Y1.810
X100.468Y1.836
X100.465Y1.863
X100.461Y1.889
X100.457Y1.916
X100.449Y1.968
X100.440Y2.021
X100.430Y2.073
X100.420Y2.125
X100.409Y2.177
X100.397Y2.228
X100.385Y2.280
X100.372Y2.331
X100.359Y2.381
X100.345Y2.432
X100.330Y2.482
X100.315Y2.532
X100.299Y2.582
X100.283Y2.632
X100.266Y2.681
X100.248Y2.730
X100.230Y2.779
X100.211Y2.827
X100.192Y2.875
X100.172Y2.923
X100.151Y2.971
X100.130Y3.018
X100.109Y3.065
X100.087Y3.111
X100.064Y3.158
X100.041Y3.204
X100.017Y3.249
X99.993Y3.295
X99.968Y3.340
X99.943Y3.384
X99.917Y3.429
X99.890Y3.473
X99.863Y3.516
X99.836Y3.560
X99.808Y3.603
X99.780Y3.645
X99.751Y3.687
X99.721Y3.729
X99.692Y3.771
X99.661Y3.812
X99.630Y3.853
X99.599Y3.893
X99.567Y3.933
X99.535Y3.973
X99.502Y4.012
X99.469Y4.051
X99.435Y4.089
X99.401Y4.127
X99.367Y4.164
X99.332Y4.202
X99.296Y4.238
X99.260Y4.275
X99.224Y4.310
X99.188Y4.346
X99.150Y4.381
X99.113Y4.415
X99.075Y4.449
X99.036Y4.483
X98.998Y4.516
X98.959Y4.549
X98.919Y4.581
X98.879Y4.613
X98.839Y4.644
X98.798Y4.675
X98.757Y4.706
X98.715Y4.735
X98.673Y4.765
X98.631Y4.794
X98.589Y4.822
X98.546Y4.850
X98.502Y4.878
X98.459Y4.904
X98.415Y4.931
X98.370Y4.957
X98.326Y4.982
X98.281Y5.007
X98.235Y5.031
X98.190Y5.055
X98.144Y5.078
X98.097Y5.101
X98.051Y5.123
X98.004Y5.144
X97.956Y5.165
X97.909Y5.186
X97.861Y5.206
X97.813Y5.225
X97.765Y5.244
X97.716Y5.262
X97.667Y5.280
X97.618Y5.297
X97.568Y5.313
X97.518Y5.329
X97.468Y5.344
X97.418Y5.359
X97.367Y5.373
X97.317Y5.386
X97.265Y5.399
X97.214Y5.411
X97.163Y5.423
X97.111Y5.434
X97.059Y5.444
X97.007Y5.454
X96.954Y5.463
X96.901Y5.471
X96.875Y5.475
X96.849Y5.479
X96.822Y5.482
X96.795Y5.486
X96.769Y5.489
X96.742Y5.492
X96.715Y5.495
X96.689Y5.498
X96.662Y5.501
X96.635Y5.503
X96.608Y5.506
X96.581Y5.508
X96.554Y5.510
X96.527Y5.511
X96.500Y5.513
X96.473Y5.515
X96.446Y5.516
X96.418Y5.517
X96.391Y5.518
X96.364Y5.519
X96.336Y5.519
X96.309Y5.520
X96.281Y5.520
X96.254Y5.520
X96.227Y5.520
X96.199Y5.520
X96.172Y5.519
X96.144Y5.519
X96.117Y5.518
X96.090Y5.517
X96.062Y5.516
X96.035Y5.515
X96.008Y5.513
X95.981Y5.511
X95.954Y5.510
X95.927Y5.508
X95.900Y5.506
X95.873Y5.503
X95.846Y5.501
X95.819Y5.498
X95.793Y5.495
X95.766Y5.492
X95.739Y5.489
X95.713Y5.486
X95.686Y5.482
X95.659Y5.479
X95.633Y5.475
X95.607Y5.471
X95.554Y5.463
X95.501Y5.454
X95.449Y5.444
X95.397Y5.434
X95.345Y5.423
X95.294Y5.411
X95.243Y5.399
X95.191Y5.386
X95.141Y5.373
X95.090Y5.359
X95.040Y5.344
X94.990Y5.329
X94.940Y5.313
X94.890Y5.297
X94.841Y5.280
X94.792Y5.262
X94.743Y5.244
X94.695Y5.225
X94.647Y5.206
X94.599Y5.186
X94.552Y5.165
X94.504Y5.144
X94.457Y5.123
X94.411Y5.101
X94.364Y5.078
X94.318Y5.055
X94.273Y5.031
X94.227Y5.007
X94.182Y4.982
X94.138Y4.957
X94.093Y4.931
X94.049Y4.904
X94.006Y4.878
X93.962Y4.850
X93.919Y4.822
X93.877Y4.794
X93.835Y4.765
X93.793Y4.735
X93.751Y4.706
X93.710Y4.675
X93.669Y4.644
X93.629Y4.613
X93.589Y4.581
X93.549Y4.549
X93.510Y4.516
X93.472Y4.483
X93.433Y4.449
X93.395Y4.415
X93.358Y4.381
X93.320Y4.346
X93.284Y4.310
X93.247Y4.275
X93.212Y4.238
X93.176Y4.202
X93.141Y4.164
X93.107Y4.127
X93.073Y4.089
X93.039Y4.051
X93.006Y4.012
X92.973Y3.973
X92.941Y3.933
X92.909Y3.893
X92.878Y3.853
X92.847Y3.812
X92.816Y3.771
X92.787Y3.729
X92.757Y3.687
X92.728Y3.645
X92.700Y3.603
X92.672Y3.560
X92.645Y3.516
X92.618Y3.473
X92.591Y3.429
X92.565Y3.384
X92.540Y3.340
X92.515Y3.295
X92.491Y3.249
X92.467Y3.204
X92.444Y3.158
X92.421Y3.111
X92.399Y3.065
X92.378Y3.018
X92.357Y2.971
X92.336Y2.923
X92.316Y2.875
X92.297Y2.827
X92.278Y2.779
X92.260Y2.730
X92.242Y2.681
X92.225Y2.632
X92.209Y2.582
X92.193Y2.532
X92.178Y2.482
X92.163Y2.432
X92.149Y2.381
X92.136Y2.331
X92.123Y2.280
X92.111Y2.228
X92.099Y2.177
X92.088Y2.125
X92.078Y2.073
X92.068Y2.021
X92.059Y1.968
X92.051Y1.916
X92.047Y1.889
X92.043Y1.863
X92.040Y1.836
X92.036Y1.810
X92.033Y1.783
X92.030Y1.756
X92.027Y1.730
X92.024Y1.703
X92.021Y1.676
X92.019Y1.649
X92.017Y1.622
X92.014Y1.595
X92.012Y1.568
X92.011Y1.541
X92.009Y1.514
X92.008Y1.487
X92.006Y1.460
X92.005Y1.432
X92.004Y1.405
X92.003Y1.378
X92.003Y1.350
X92.002Y1.323
X92.002Y1.296
X92.002Y1.268
X92.002Y1.241
X92.002Y1.213
G1Z-3.750F304.8
G1X92.003Y1.186F1016.0
X92.003Y1.158
X92.004Y1.131
X92.005Y1.104
X92.006Y1.076
X92.008Y1.049
X92.009Y1.022
X92.011Y0.995
X92.012Y0.968
X92.014Y0.941
X92.017Y0.914
X92.019Y0.887
X92.021Y0.860
X92.024Y0.833
X92.027Y0.807
X92.030Y0.780
X92.033Y0.753
X92.036Y0.727
X92.040Y0.700
X92.043Y0.673
X92.047Y0.647
X92.051Y0.621
X92.059Y0.568
X92.068Y0.515
X92.078Y0.463
X92.088Y0.411
X92.099Y0.359
X92.111Y0.308
X92.123Y0.257
X92.136Y0.206
X92.149Y0.155
X92.163Y0.104
X92.178Y0.054
X92.193Y0.004
X92.209Y-0.046
X92.225Y-0.096
X92.242Y-0.145
X92.260Y-0.194
X92.278Y-0.243
X92.297Y-0.291
X92.316Y-0.339
X92.336Y-0.387
X92.357Y-0.434
X92.378Y-0.482
X92.399Y-0.529
X92.421Y-0.575
X92.444Y-0.622
X92.467Y-0.668
X92.491Y-0.713
X92.515Y-0.759
X92.540Y-0.804
X92.565Y-0.848
X92.591Y-0.893
X92.618Y-0.937
X92.645Y-0.980
X92.672Y-1.024
X92.700Y-1.067
X92.728Y-1.109
X92.757Y-1.151
X92.787Y-1.193
X92.816Y-1.235
X92.847Y-1.276
X92.878Y-1.317
X92.909Y-1.357
X92.941Y-1.397
X92.973Y-1.436
X93.006Y-1.476
X93.039Y-1.514
X93.073Y-1.553
X93.107Y-1.591
X93.141Y-1.628
X93.176Y-1.665
X93.212Y-1.702
X93.247Y-1.738
X93.284Y-1.774
X93.320Y-1.810
X93.358Y-1.845
X93.395Y-1.879
X93.433Y-1.913
X93.472Y-1.947
X93.510Y-1.980
X93.549Y-2.013
X93.589Y-2.045
X93.629Y-2.077
X93.669Y-2.108
X93.710Y-2.139
X93.751Y-2.170
X93.793Y-2.199
X93.835Y-2.229
X93.877Y-2.258
X93.919Y-2.286
X93.962Y-2.314
X94.006Y-2.341
X94.049Y-2.368
X94.093Y-2.395
X94.138Y-2.421
X94.182Y-2.446
X94.227Y-2.471
X94.273Y-2.495
X94.318Y-2.519
X94.364Y-2.542
X94.411Y-2.565
X94.457Y-2.587
X94.504Y-2.608
X94.552Y-2.629
X94.599Y-2.650
X94.647Y-2.670
X94.695Y-2.689
X94.743Y-2.708
X94.792Y-2.726
X94.841Y-2.743
X94.890Y-2.761
X94.940Y-2.777
X94.990Y-2.793
X95.040Y-2.808
X95.090Y-2.823
X95.141Y-2.837
X95.191Y-2.850
X95.243Y-2.863
X95.294Y-2.875
X95.345Y-2.887
X95.397Y-2.898
X95.449Y-2.908
X95.501Y-2.918
X95.554Y-2.927
X95.607Y-2.935
X95.633Y-2.939
X95.659Y-2.943
X95.686Y-2.946
X95.713Y-2.950
X95.739Y-2.953
X95.766Y-2.956
X95.793Y-2.959
X95.819Y-2.962
X95.846Y-2.965
X95.873Y-2.967
X95.900Y-2.969
X95.927Y-2.972
X95.954Y-2.974
X95.981Y-2.975
X96.008Y-2.977
X96.035Y-2.978
X96.062Y-2.980
X96.090Y-2.981
X96.117Y-2.982
X96.144Y-2.983
X96.172Y-2.983
X96.199Y-2.984
X96.227Y-2.984
X96.254Y-2.984
X96.281Y-2.984
X96.309Y-2.984
X96.336Y-2.983
X96.364Y-2.983
X96.391Y-2.982
X96.418Y-2.981
X96.446Y-2.980
X96.473Y-2.978
X96.500Y-2.977
X96.527Y-2.975
X96.554Y-2.974
X96.581Y-2.972
X96.608Y-2.969
X96.635Y-2.967
X96.662Y-2.965
X96.689Y-2.962
X96.715Y-2.959
X96.742Y-2.956
X96.769Y-2.953
X96.795Y-2.950
X96.822Y-2.946
X96.849Y-2.943
X96.875Y-2.939
X96.901Y-2.935
X96.954Y-2.927
X97.007Y-2.918
X97.059Y-2.908
X97.111Y-2.898
X97.163Y-2.887
X97.214Y-2.875
X97.265Y-2.863
X97.317Y-2.850
X97.367Y-2.837
X97.418Y-2.823
X97.468Y-2.808
X97.518Y-2.793
X97.568Y-2.777
X97.618Y-2.761
X97.667Y-2.743
X97.716Y-2.726
X97.765Y-2.708
X97.813Y-2.689
X97.861Y-2.670
X97.909Y-2.650
X97.956Y-2.629
X98.004Y-2.608
X98.051Y-2.587
X98.097Y-2.565
X98.144Y-2.542
X98.190Y-2.519
X98.235Y-2.495
X98.281Y-2.471
X98.326Y-2.446
X98.370Y-2.421
X98.415Y-2.395
X98.459Y-2.368
X98.502Y-2.341
X98.546Y-2.314
X98.589Y-2.286
X98.631Y-2.258
X98.673Y-2.229
X98.715Y-2.199
X98.757Y-2.170
X98.798Y-2.139
X98.839Y-2.108
X98.879Y-2.077
X98.919Y-2.045
X98.959Y-2.013
X98.998Y-1.980
X99.036Y-1.947
X99.075Y-1.913
X99.113Y-1.879
X99.150Y-1.845
X99.188Y-1.810
X99.224Y-1.774
X99.260Y-1.738
X99.296Y-1.702
X99.332Y-1.665
X99.367Y-1.628
X99.401Y-1.591
X99.435Y-1.553
X99.469Y-1.514
X99.502Y-1.476
X99.535Y-1.436
X99.567Y-1.397
X99.599Y-1.357
X99.630Y-1.317
X99.661Y-1.276
X99.692Y-1.235
X99.721Y-1.193
X99.751Y-1.151
X99.780Y-1.109
X99.808Y-1.067
X99.836Y-1.024
X99.863Y-0.980
X99.890Y-0.937
X99.917Y-0.893
X99.943Y-0.848
X99.968Y-0.804
X99.993Y-0.759
X100.017Y-0.713
X100.041Y-0.668
X100.064Y-0.622
X100.087Y-0.575
X100.109Y-0.529
X100.130Y-0.482
X100.151Y-0.434
X100.172Y-0.387
X100.192Y-0.339
X100.211Y-0.291
X100.230Y-0.243
X100.248Y-0.194
X100.266Y-0.145
X100.283Y-0.096
X100.299Y-0.046
X100.315Y0.004
X100.330Y0.054
X100.345Y0.104
X100.359Y0.155
X100.372Y0.206
X100.385Y0.257
X100.397Y0.308
X100.409Y0.359
X100.420Y0.411
X100.430Y0.463
X100.440Y0.515
X100.449Y0.568
X100.457Y0.621
X100.461Y0.647
X100.465Y0.673
X100.468Y0.700
X100.472Y0.727
X100.475Y0.753
X100.478Y0.780
X100.481Y0.807
X100.484Y0.833
X100.487Y0.860
X100.489Y0.887
X100.491Y0.914
X100.494Y0.941
X100.496Y0.968
X100.497Y0.995
X100.499Y1.022
X100.500Y1.049
X100.502Y1.076
X100.503Y1.104
X100.504Y1.131
X100.505Y1.158
X100.505Y1.186
X100.506Y1.213
X100.506Y1.241
X100.506Y1.268
X100.506Y1.296
X100.506Y1.323
X100.505Y1.350
X100.505Y1.378
X100.504Y1.405
X100.503Y1.432
X100.502Y1.460
X100.500Y1.487
X100.499Y1.514
X100.497Y1.541
X100.496Y1.568
X100.494Y1.595
X100.491Y1.622
X100.489Y1.649
X100.487Y1.676
X100.484Y1.703
X100.481Y1.730
X100.478Y1.756
X100.475Y1.783
X100.472Y1.810
X100.468Y1.836
X100.465Y1.863
X100.461Y1.889
X100.457Y1.916
X100.449Y1.968
X100.440Y2.021
X100.430Y2.073
X100.420Y2.125
X100.409Y2.177
X100.397Y2.228
X100.385Y2.280
X100.372Y2.331
X100.359Y2.381
X100.345Y2.432
X100.330Y2.482
X100.315Y2.532
X100.299Y2.582
X100.283Y2.632
X100.266Y2.681
X100.248Y2.730
X100.230Y2.779
X100.211Y2.827
X100.192Y2.875
X100.172Y2.923
X100.151Y2.971
X100.130Y3.018
X100.109Y3.065
X100.087Y3.111
X100.064Y3.158
X100.041Y3.204
X100.017Y3.249
X99.993Y3.295
X99.968Y3.340
X99.943Y3.384
X99.917Y3.429
X99.890Y3.473
X99.863Y3.516
X99.836Y3.560
X99.808Y3.603
X99.780Y3.645
X99.751Y3.687
X99.721Y3.729
X99.692Y3.771
X99.661Y3.812
X99.630Y3.853
X99.599Y3.893
X99.567Y3.933
X99.535Y3.973
X99.502Y4.012
X99.469Y4.051
X99.435Y4.089
X99.401Y4.127
X99.367Y4.164
X99.332Y4.202
X99.296Y4.238
X99.260Y4.275
X99.224Y4.310
X99.188Y4.346
X99.150Y4.381
X99.113Y4.415
X99.075Y4.449
X99.036Y4.483
X98.998Y4.516
X98.959Y4.549
X98.919Y4.581
X98.879Y4.613
X98.839Y4.644
X98.798Y4.675
X98.757Y4.706
X98.715Y4.735
X98.673Y4.765
X98.631Y4.794
X98.589Y4.822
X98.546Y4.850
X98.502Y4.878
X98.459Y4.904
X98.415Y4.931
X98.370Y4.957
X98.326Y4.982
X98.281Y5.007
X98.235Y5.031
X98.190Y5.055
X98.144Y5.078
X98.097Y5.101
X98.051Y5.123
X98.004Y5.144
X97.956Y5.165
X97.909Y5.186
X97.861Y5.206
X97.813Y5.225
X97.765Y5.244
X97.716Y5.262
X97.667Y5.280
X97.618Y5.297
X97.568Y5.313
X97.518Y5.329
X97.468Y5.344
X97.418Y5.359
X97.367Y5.373
X97.317Y5.386
X97.265Y5.399
X97.214Y5.411
X97.163Y5.423
X97.111Y5.434
X97.059Y5.444
X97.007Y5.454
X96.954Y5.463
X96.901Y5.471
X96.875Y5.475
X96.849Y5.479
X96.822Y5.482
X96.795Y5.486
X96.769Y5.489
X96.742Y5.492
X96.715Y5.495
X96.689Y5.498
X96.662Y5.501
X96.635Y5.503
X96.608Y5.506
X96.581Y5.508
X96.554Y5.510
X96.527Y5.511
X96.500Y5.513
X96.473Y5.515
X96.446Y5.516
X96.418Y5.517
X96.391Y5.518
X96.364Y5.519
X96.336Y5.519
X96.309Y5.520
X96.281Y5.520
X96.254Y5.520
X96.227Y5.520
X96.199Y5.520
X96.172Y5.519
X96.144Y5.519
X96.117Y5.518
X96.090Y5.517
X96.062Y5.516
X96.035Y5.515
X96.008Y5.513
X95.981Y5.511
X95.954Y5.510
X95.927Y5.508
X95.900Y5.506
X95.873Y5.503
X95.846Y5.501
X95.819Y5.498
X95.793Y5.495
X95.766Y5.492
X95.739Y5.489
X95.713Y5.486
X95.686Y5.482
X95.659Y5.479
X95.633Y5.475
X95.607Y5.471
X95.554Y5.463
X95.501Y5.454
X95.449Y5.444
X95.397Y5.434
X95.345Y5.423
X95.294Y5.411
X95.243Y5.399
X95.191Y5.386
X95.141Y5.373
X95.090Y5.359
X95.040Y5.344
X94.990Y5.329
X94.940Y5.313
X94.890Y5.297
X94.841Y5.280
X94.792Y5.262
X94.743Y5.244
X94.695Y5.225
X94.647Y5.206
X94.599Y5.186
X94.552Y5.165
X94.504Y5.144
X94.457Y5.123
X94.411Y5.101
X94.364Y5.078
X94.318Y5.055
X94.273Y5.031
X94.227Y5.007
X94.182Y4.982
X94.138Y4.957
X94.093Y4.931
X94.049Y4.904
X94.006Y4.878
X93.962Y4.850
X93.919Y4.822
X93.877Y4.794
X93.835Y4.765
X93.793Y4.735
X93.751Y4.706
X93.710Y4.675
X93.669Y4.644
X93.629Y4.613
X93.589Y4.581
X93.549Y4.549
X93.510Y4.516
X93.472Y4.483
X93.433Y4.449
X93.395Y4.415
X93.358Y4.381
X93.320Y4.346
X93.284Y4.310
X93.247Y4.275
X93.212Y4.238
X93.176Y4.202
X93.141Y4.164
X93.107Y4.127
X93.073Y4.089
X93.039Y4.051
X93.006Y4.012
X92.973Y3.973
X92.941Y3.933
X92.909Y3.893
X92.878Y3.853
X92.847Y3.812
X92.816Y3.771
X92.787Y3.729
X92.757Y3.687
X92.728Y3.645
X92.700Y3.603
X92.672Y3.560
X92.645Y3.516
X92.618Y3.473
X92.591Y3.429
X92.565Y3.384
X92.540Y3.340
X92.515Y3.295
X92.491Y3.249
X92.467Y3.204
X92.444Y3.158
X92.421Y3.111
X92.399Y3.065
X92.378Y3.018
X92.357Y2.971
X92.336Y2.923
X92.316Y2.875
X92.297Y2.827
X92.278Y2.779
X92.260Y2.730
X92.242Y2.681
X92.225Y2.632
X92.209Y2.582
X92.193Y2.532
X92.178Y2.482
X92.163Y2.432
X92.149Y2.381
X92.136Y2.331
X92.123Y2.280
X92.111Y2.228
X92.099Y2.177
X92.088Y2.125
X92.078Y2.073
X92.068Y2.021
X92.059Y1.968
X92.051Y1.916
X92.047Y1.889
X92.043Y1.863
X92.040Y1.836
X92.036Y1.810
X92.033Y1.783
X92.030Y1.756
X92.027Y1.730
X92.024Y1.703
X92.021Y1.676
X92.019Y1.649
X92.017Y1.622
X92.014Y1.595
X92.012Y1.568
X92.011Y1.541
X92.009Y1.514
X92.008Y1.487
X92.006Y1.460
X92.005Y1.432
X92.004Y1.405
X92.003Y1.378
X92.003Y1.350
X92.002Y1.323
X92.002Y1.296
X92.002Y1.268
X92.002Y1.241
X92.002Y1.213
G0Z5.080
G0X84.017Y1.478
G1Z-0.750F304.8
G1X84.029Y1.775F1016.0
X84.048Y2.071
X84.074Y2.367
X84.106Y2.662
X84.146Y2.956
X84.193Y3.249
X84.246Y3.541
X84.306Y3.832
X84.372Y4.121
X84.446Y4.408
X84.525Y4.694
X84.612Y4.978
X84.705Y5.259
X84.804Y5.539
X84.910Y5.816
X85.022Y6.091
X85.140Y6.363
X85.265Y6.632
X85.396Y6.899
X85.533Y7.162
X85.676Y7.422
X85.826Y7.679
X85.981Y7.932
X86.142Y8.182
X86.310Y8.428
X86.483Y8.670
X86.663Y8.907
X86.848Y9.141
X87.039Y9.370
X87.236Y9.595
X87.438Y9.815
X87.646Y10.030
X87.860Y10.240
X88.080Y10.445
X88.305Y10.645
X88.535Y10.839
X88.771Y11.028
X89.013Y11.211
X89.259Y11.388
X89.512Y11.560
X89.769Y11.725
X90.032Y11.884
X90.300Y12.036
X90.573Y12.182
X90.851Y12.322
X91.134Y12.454
X91.423Y12.579
X91.716Y12.698
X92.015Y12.808
X92.318Y12.912
X92.626Y13.008
X92.782Y13.053
X92.939Y13.096
X93.097Y13.137
X93.257Y13.176
X93.418Y13.213
X93.580Y13.248
X93.743Y13.281
X93.907Y13.312
X94.072Y13.341
X94.239Y13.368
X94.407Y13.393
X94.575Y13.416
X94.745Y13.436
X94.917Y13.454
X95.089Y13.470
X95.262Y13.484
X95.437Y13.496
X95.612Y13.505
X95.789Y13.512
X95.967Y13.517
X96.146Y13.520
X96.325Y13.520
X96.502Y13.518
X96.679Y13.514
X96.854Y13.507
X97.028Y13.498
X97.201Y13.487
X97.372Y13.474
X97.543Y13.459
X97.713Y13.441
X97.881Y13.422
X98.049Y13.400
X98.215Y13.376
X98.380Y13.350
X98.544Y13.322
X98.707Y13.293
X98.869Y13.260
X99.029Y13.226
X99.189Y13.190
X99.347Y13.153
X99.660Y13.071
X99.968Y12.981
X100.272Y12.884
X100.571Y12.780
X100.865Y12.668
X101.154Y12.549
X101.438Y12.424
X101.718Y12.291
X101.992Y12.152
X102.261Y12.006
X102.526Y11.854
X102.785Y11.695
X103.039Y11.531
X103.288Y11.360
X103.531Y11.184
X103.769Y11.001
X104.002Y10.814
X104.230Y10.621
X104.452Y10.422
X104.669Y10.219
X104.880Y10.010
X105.086Y9.797
X105.286Y9.578
X105.481Y9.356
X105.669Y9.129
X105.853Y8.897
X106.030Y8.662
X106.202Y8.422
X106.368Y8.179
X106.527Y7.931
X106.681Y7.681
X106.830Y7.426
X106.972Y7.169
X107.108Y6.908
X107.238Y6.645
X107.361Y6.378
X107.479Y6.109
X107.590Y5.837
X107.696Y5.562
X107.795Y5.286
X107.887Y5.007
X107.973Y4.726
X108.053Y4.443
X108.126Y4.159
X108.193Y3.872
X108.254Y3.585
X108.307Y3.296
X108.354Y3.006
X108.395Y2.715
X108.428Y2.422
X108.455Y2.130
X108.475Y1.836
X108.489Y1.542
X108.495Y1.248
X108.494Y0.953
X108.487Y0.659
X108.472Y0.364
X108.451Y0.070
X108.422Y-0.224
X108.386Y-0.517
X108.343Y-0.810
X108.293Y-1.102
X108.236Y-1.393
X108.171Y-1.683
X108.099Y-1.972
X108.019Y-2.259
X107.932Y-2.545
X107.838Y-2.829
X107.736Y-3.112
X107.626Y-3.392
X107.509Y-3.671
X107.385Y-3.947
X107.252Y-4.221
X107.112Y-4.493
X106.964Y-4.762
X106.808Y-5.028
X106.645Y-5.291
X106.473Y-5.551
X106.294Y-5.808
X106.107Y-6.062
X105.911Y-6.312
X105.708Y-6.558
X105.496Y-6.801
X105.276Y-7.040
X105.163Y-7.158
X105.048Y-7.275
X104.931Y-7.391
X104.812Y-7.506
X104.691Y-7.620
X104.568Y-7.732
X104.442Y-7.844
X104.315Y-7.954
X104.186Y-8.063
X104.054Y-8.171
X103.920Y-8.278
X103.784Y-8.384
X103.646Y-8.489
X103.506Y-8.592
X103.364Y-8.694
X103.220Y-8.795
X103.074Y-8.894
X102.925Y-8.992
X102.888Y-9.016
X102.869Y-9.029
X102.866Y-9.030
X102.866Y-9.031
X102.872Y-9.032
X102.883Y-9.033
X102.974Y-9.045
X103.155Y-9.069
X103.518Y-9.119
X103.880Y-9.171
X104.240Y-9.227
X104.601Y-9.285
X104.960Y-9.346
X105.319Y-9.410
X105.676Y-9.477
X106.033Y-9.546
X106.389Y-9.619
X106.745Y-9.694
X107.099Y-9.771
X107.452Y-9.852
X107.805Y-9.935
X108.157Y-10.021
X108.508Y-10.110
X108.857Y-10.201
X109.206Y-10.295
X109.554Y-10.392
X109.901Y-10.492
X110.247Y-10.594
X110.592Y-10.699
X110.936Y-10.807
X111.279Y-10.917
X111.621Y-11.030
X111.962Y-11.146
X112.302Y-11.264
X112.641Y-11.385
X112.978Y-11.509
X113.315Y-11.635
X113.650Y-11.764
X113.985Y-11.895
X114.318Y-12.029
X114.650Y-12.166
X114.981Y-12.305
X115.310Y-12.447
X115.639Y-12.592
X115.966Y-12.739
X116.292Y-12.888
X116.617Y-13.040
X116.940Y-13.195
X117.263Y-13.352
X117.584Y-13.512
X117.903Y-13.675
X118.222Y-13.840
X118.539Y-14.007
X118.854Y-14.177
X119.169Y-14.349
X119.482Y-14.524
X119.794Y-14.702
X120.104Y-14.882
X120.413Y-15.064
X120.720Y-15.249
X121.026Y-15.437
X121.331Y-15.627
X121.634Y-15.819
X121.936Y-16.014
X122.236Y-16.211
X122.535Y-16.410
X122.832Y-16.613
X123.128Y-16.817
X123.422Y-17.024
X123.715Y-17.233
X124.006Y-17.445
X124.295Y-17.659
X124.583Y-17.876
X124.869Y-18.095
X125.154Y-18.316
X125.437Y-18.539
X125.719Y-18.765
X125.998Y-18.994
X126.277Y-19.225
X126.553Y-19.458
X126.828Y-19.693
X127.101Y-19.931
X127.372Y-20.171
X127.642Y-20.413
X127.910Y-20.658
X128.176Y-20.905
X128.440Y-21.154
X128.703Y-21.405
X128.964Y-21.659
X129.222Y-21.915
X129.480Y-22.174
X129.735Y-22.434
X129.988Y-22.697
X130.240Y-22.962
X130.490Y-23.229
X130.737Y-23.499
X130.983Y-23.771
X131.227Y-24.045
X131.469Y-24.321
X131.709Y-24.599
X131.948Y-24.880
X132.184Y-25.163
X132.418Y-25.448
X132.650Y-25.735
X132.880Y-26.024
X133.109Y-26.316
X133.335Y-26.609
X133.559Y-26.905
X133.781Y-27.203
X133.891Y-27.353
X133.905Y-27.372
X133.912Y-27.381
X133.915Y-27.386
X133.924Y-27.398
X133.943Y-27.424
X134.015Y-27.528
X134.084Y-27.633
X134.148Y-27.738
X134.209Y-27.843
X134.266Y-27.949
X134.320Y-28.055
X134.370Y-28.161
X134.416Y-28.268
X134.459Y-28.375
X134.498Y-28.482
X134.534Y-28.589
X134.566Y-28.696
X134.596Y-28.803
X134.621Y-28.911
X134.644Y-29.018
X134.663Y-29.125
X134.679Y-29.232
X134.691Y-29.338
X134.701Y-29.445
X134.708Y-29.551
X134.711Y-29.657
X134.711Y-29.763
X134.709Y-29.868
X134.703Y-29.972
X134.695Y-30.076
X134.684Y-30.180
X134.670Y-30.283
X134.653Y-30.386
X134.634Y-30.487
X134.611Y-30.588
X134.587Y-30.689
X134.559Y-30.788
X134.529Y-30.887
X134.497Y-30.984
X134.461Y-31.081
X134.424Y-31.177
X134.384Y-31.272
X134.342Y-31.366
X134.297Y-31.458
X134.250Y-31.550
X134.201Y-31.640
X134.150Y-31.729
X134.097Y-31.817
X134.041Y-31.903
X133.983Y-31.988
X133.924Y-32.072
X133.862Y-32.154
X133.798Y-32.235
X133.733Y-32.314
X133.665Y-32.391
X133.596Y-32.467
X133.525Y-32.541
X133.452Y-32.614
X133.378Y-32.685
X133.301Y-32.754
X133.223Y-32.821
X133.144Y-32.886
X133.063Y-32.949
X132.980Y-33.010
X132.897Y-33.070
X132.811Y-33.127
X132.724Y-33.182
X132.636Y-33.235
X132.547Y-33.285
X132.456Y-33.334
X132.364Y-33.380
X132.271Y-33.424
X132.177Y-33.465
X132.081Y-33.504
X131.985Y-33.541
X131.887Y-33.575
X131.789Y-33.606
X131.689Y-33.635
X131.589Y-33.661
X131.488Y-33.685
X131.386Y-33.706
X131.283Y-33.724
X131.180Y-33.739
X131.075Y-33.751
X130.971Y-33.761
X130.865Y-33.767
X130.759Y-33.771
X130.652Y-33.771
X130.545Y-33.769
X130.438Y-33.763
X130.330Y-33.754
X130.221Y-33.742
X130.113Y-33.727
X130.004Y-33.708
X129.895Y-33.686
X129.785Y-33.661
X129.676Y-33.632
X129.566Y-33.600
X129.456Y-33.564
X129.346Y-33.525
X129.236Y-33.482
X129.126Y-33.435
X129.017Y-33.385
X128.907Y-33.331
X128.797Y-33.273
X128.688Y-33.211
X128.579Y-33.146
X128.335Y-32.997
X128.091Y-32.851
X127.845Y-32.708
X127.600Y-32.568
X127.353Y-32.431
X127.106Y-32.297
X126.858Y-32.166
X126.609Y-32.039
X126.360Y-31.914
X126.111Y-31.792
X125.860Y-31.674
X125.610Y-31.558
X125.358Y-31.446
X125.107Y-31.336
X124.854Y-31.230
X124.602Y-31.126
X124.349Y-31.025
X124.095Y-30.928
X123.841Y-30.833
X123.587Y-30.741
X123.332Y-30.652
X123.077Y-30.566
X122.822Y-30.483
X122.566Y-30.403
X122.310Y-30.326
X122.053Y-30.252
X121.797Y-30.180
X121.540Y-30.112
X121.283Y-30.046
X121.026Y-29.983
X120.768Y-29.923
X120.511Y-29.866
X120.253Y-29.811
X119.995Y-29.760
X119.737Y-29.711
X119.479Y-29.665
X119.221Y-29.621
X118.962Y-29.581
X118.704Y-29.543
X118.446Y-29.508
X118.188Y-29.476
X117.929Y-29.446
X117.671Y-29.419
X117.413Y-29.395
X117.155Y-29.374
X116.897Y-29.355
X116.639Y-29.339
X116.381Y-29.326
X116.123Y-29.315
X115.866Y-29.307
X115.608Y-29.302
X115.351Y-29.299
X115.094Y-29.299
X114.837Y-29.301
X114.581Y-29.307
X114.325Y-29.314
X114.069Y-29.325
X113.813Y-29.337
X113.558Y-29.353
X113.303Y-29.371
X113.049Y-29.391
X112.795Y-29.414
X112.541Y-29.440
X112.288Y-29.468
X112.035Y-29.499
X111.782Y-29.532
X111.530Y-29.568
X111.279Y-29.606
X111.028Y-29.646
X110.777Y-29.689
X110.528Y-29.735
X110.278Y-29.783
X110.030Y-29.833
X109.781Y-29.886
X109.534Y-29.941
X109.287Y-29.999
X109.041Y-30.059
X108.795Y-30.122
X108.551Y-30.186
X108.306Y-30.254
X108.063Y-30.323
X107.820Y-30.395
X107.579Y-30.469
X107.337Y-30.546
X107.097Y-30.625
X106.858Y-30.706
X106.619Y-30.790
X106.381Y-30.875
X106.145Y-30.963
X105.909Y-31.054
X105.673Y-31.147
X105.439Y-31.241
X105.206Y-31.339
X104.974Y-31.438
X104.743Y-31.540
X104.513Y-31.643
X104.283Y-31.749
X104.055Y-31.858
X103.828Y-31.968
X103.602Y-32.081
X103.377Y-32.195
X103.154Y-32.312
X102.931Y-32.432
X102.709Y-32.553
X102.489Y-32.676
X102.270Y-32.802
X102.052Y-32.929
X101.835Y-33.059
X101.620Y-33.191
X101.406Y-33.325
X101.193Y-33.461
X100.981Y-33.599
X100.771Y-33.739
X100.562Y-33.881
X100.355Y-34.025
X100.148Y-34.171
X99.944Y-34.320
X99.740Y-34.470
X99.538Y-34.622
X99.338Y-34.776
X99.139Y-34.933
X98.941Y-35.091
X98.745Y-35.251
X98.551Y-35.413
X98.358Y-35.577
X98.166Y-35.743
X97.976Y-35.911
X97.788Y-36.081
X97.602Y-36.253
X97.417Y-36.426
X97.233Y-36.602
X97.052Y-36.779
X96.872Y-36.958
X96.693Y-37.139
X96.517Y-37.322
X96.342Y-37.507
X96.169Y-37.694
X95.998Y-37.882
X95.828Y-38.073
X95.661Y-38.265
X95.495Y-38.459
X95.331Y-38.654
X95.169Y-38.852
X95.008Y-39.051
X94.850Y-39.252
X94.694Y-39.454
X94.539Y-39.659
X94.387Y-39.865
X94.236Y-40.073
X94.088Y-40.282
X93.941Y-40.494
X93.797Y-40.707
X93.655Y-40.921
X93.514Y-41.138
X93.376Y-41.356
X93.240Y-41.575
X93.106Y-41.796
X92.974Y-42.019
X92.845Y-42.244
X92.717Y-42.470
X92.592Y-42.698
X92.469Y-42.927
X92.348Y-43.158
X92.230Y-43.390
X92.113Y-43.624
X91.999Y-43.860
X91.888Y-44.097
X91.778Y-44.336
X91.672Y-44.576
X91.567Y-44.818
X91.465Y-45.061
X91.365Y-45.306
X91.268Y-45.552
X91.173Y-45.800
X91.080Y-46.049
X90.990Y-46.300
X90.903Y-46.552
X90.818Y-46.805
X90.735Y-47.060
X90.655Y-47.316
X90.578Y-47.574
X90.503Y-47.833
X90.431Y-48.094
X90.362Y-48.356
X90.295Y-48.619
X90.231Y-48.884
X90.169Y-49.150
X90.110Y-49.418
X90.054Y-49.686
X90.001Y-49.956
X89.950Y-50.228
X89.902Y-50.501
X89.857Y-50.775
X89.815Y-51.050
X89.776Y-51.327
X89.739Y-51.604
X89.705Y-51.884
X89.675Y-52.164
X89.647Y-52.446
X89.622Y-52.728
X89.600Y-53.012
X89.581Y-53.298
X89.564Y-53.584
X89.551Y-53.872
X89.541Y-54.161
X89.534Y-54.450
X89.530Y-54.737
X89.529Y-55.024
X89.532Y-55.310
X89.537Y-55.594
X89.545Y-55.878
X89.556Y-56.160
X89.570Y-56.442
X89.587Y-56.722
X89.607Y-57.002
X89.630Y-57.280
X89.656Y-57.557
X89.685Y-57.833
X89.716Y-58.108
X89.751Y-58.382
X89.788Y-58.654
X89.828Y-58.926
X89.871Y-59.196
X89.917Y-59.465
X89.965Y-59.733
X90.016Y-60.000
X90.070Y-60.265
X90.127Y-60.529
X90.186Y-60.792
X90.248Y-61.054
X90.312Y-61.315
X90.379Y-61.574
X90.449Y-61.832
X90.522Y-62.089
X90.597Y-62.344
X90.674Y-62.598
X90.754Y-62.851
X90.837Y-63.102
X90.922Y-63.352
X91.010Y-63.601
X91.100Y-63.849
X91.192Y-64.095
X91.287Y-64.339
X91.384Y-64.582
X91.484Y-64.824
X91.586Y-65.065
X91.691Y-65.304
X91.798Y-65.541
X91.907Y-65.777
X92.019Y-66.012
X92.132Y-66.245
X92.248Y-66.477
X92.367Y-66.707
X92.487Y-66.936
X92.610Y-67.163
X92.735Y-67.389
X92.862Y-67.613
X92.992Y-67.836
X93.123Y-68.057
X93.257Y-68.276
X93.393Y-68.494
X93.531Y-68.711
X93.671Y-68.925
X93.813Y-69.139
X93.957Y-69.350
X94.103Y-69.560
X94.251Y-69.768
X94.401Y-69.975
X94.553Y-70.180
X94.707Y-70.383
X94.863Y-70.585
X95.021Y-70.785
X95.181Y-70.983
X95.342Y-71.180
X95.506Y-71.375
X95.671Y-71.568
X95.838Y-71.759
X96.007Y-71.949
X96.178Y-72.136
X96.351Y-72.323
X96.525Y-72.507
X96.701Y-72.689
X96.879Y-72.870
X97.059Y-73.049
X97.240Y-73.226
X97.423Y-73.401
X97.607Y-73.574
X97.793Y-73.746
X97.981Y-73.915
X98.171Y-74.083
X98.362Y-74.249
X98.554Y-74.413
X98.748Y-74.575
X98.944Y-74.735
X99.141Y-74.893
X99.340Y-75.050
X99.540Y-75.204
X99.741Y-75.356
X99.944Y-75.507
X100.149Y-75.655
X100.355Y-75.801
X100.562Y-75.946
X100.771Y-76.088
X100.981Y-76.228
X101.192Y-76.367
X101.404Y-76.503
X101.618Y-76.637
X101.833Y-76.769
X102.050Y-76.899
X102.268Y-77.027
X102.487Y-77.153
X102.707Y-77.277
X102.928Y-77.398
X103.150Y-77.518
X103.374Y-77.635
X103.599Y-77.750
X103.825Y-77.863
X104.052Y-77.974
X104.280Y-78.082
X104.509Y-78.189
X104.739Y-78.293
X104.971Y-78.395
X105.203Y-78.495
X105.436Y-78.592
X105.670Y-78.688
X105.905Y-78.781
X106.142Y-78.871
X106.379Y-78.960
X106.617Y-79.046
X106.855Y-79.130
X107.095Y-79.212
X107.336Y-79.291
X107.577Y-79.368
X107.819Y-79.442
X108.062Y-79.514
X108.306Y-79.584
X108.551Y-79.652
X108.796Y-79.717
X109.042Y-79.779
X109.289Y-79.840
X109.536Y-79.897
X109.785Y-79.953
X110.033Y-80.006
X110.283Y-80.056
X110.533Y-80.104
X110.784Y-80.150
X111.035Y-80.193
X111.287Y-80.234
X111.539Y-80.272
X111.792Y-80.307
X112.045Y-80.340
X112.299Y-80.371
X112.554Y-80.399
X112.809Y-80.424
X113.064Y-80.447
X113.320Y-80.467
X113.576Y-80.485
X113.832Y-80.500
X114.089Y-80.513
X114.346Y-80.522
X114.604Y-80.530
X114.862Y-80.534
X115.120Y-80.536
X115.379Y-80.535
X115.637Y-80.532
X115.897Y-80.526
X116.156Y-80.517
X116.415Y-80.506
X116.675Y-80.491
X116.935Y-80.474
X117.195Y-80.455
X117.455Y-80.432
X117.715Y-80.407
X117.976Y-80.379
X118.236Y-80.348
X118.497Y-80.315
X118.757Y-80.278
X119.018Y-80.239
X119.279Y-80.197
X119.539Y-80.153
X119.800Y-80.105
X120.060Y-80.054
X120.321Y-80.001
X120.581Y-79.945
X120.842Y-79.886
X121.102Y-79.824
X121.362Y-79.759
X121.622Y-79.691
X121.882Y-79.620
X122.142Y-79.546
X122.401Y-79.470
X122.661Y-79.390
X122.920Y-79.308
X123.178Y-79.222
X123.437Y-79.133
X123.695Y-79.042
X123.953Y-78.947
X124.211Y-78.850
X124.468Y-78.749
X124.725Y-78.645
X124.982Y-78.539
X125.238Y-78.429
X125.494Y-78.316
X125.749Y-78.200
X126.004Y-78.081
X126.258Y-77.959
X126.512Y-77.833
X126.766Y-77.705
X127.018Y-77.573
X127.145Y-77.506
X127.161Y-77.498
X127.168Y-77.494
X127.171Y-77.492
X127.178Y-77.488
X127.193Y-77.481
X127.306Y-77.423
X127.419Y-77.369
X127.532Y-77.319
X127.645Y-77.273
X127.757Y-77.230
X127.870Y-77.191
X127.982Y-77.156
X128.094Y-77.124
X128.206Y-77.096
X128.318Y-77.071
X128.429Y-77.050
X128.540Y-77.032
X128.650Y-77.018
X128.760Y-77.007
X128.869Y-76.999
X128.978Y-76.994
X129.086Y-76.993
X129.194Y-76.995
X129.301Y-76.999
X129.407Y-77.007
X129.512Y-77.018
X129.617Y-77.032
X129.721Y-77.048
X129.824Y-77.068
X129.926Y-77.090
X130.027Y-77.115
X130.127Y-77.143
X130.227Y-77.174
X130.325Y-77.207
X130.422Y-77.242
X130.518Y-77.280
X130.613Y-77.321
X130.707Y-77.364
X130.799Y-77.410
X130.890Y-77.457
X130.980Y-77.508
X131.069Y-77.560
X131.156Y-77.614
X131.242Y-77.671
X131.326Y-77.730
X131.409Y-77.791
X131.490Y-77.854
X131.570Y-77.919
X131.648Y-77.985
X131.724Y-78.054
X131.799Y-78.125
X131.872Y-78.197
X131.944Y-78.271
X132.013Y-78.347
X132.081Y-78.424
X132.147Y-78.503
X132.211Y-78.583
X132.273Y-78.665
X132.333Y-78.749
X132.391Y-78.834
X132.446Y-78.920
X132.500Y-79.008
X132.552Y-79.096
X132.602Y-79.186
X132.649Y-79.278
X132.694Y-79.370
X132.737Y-79.464
X132.777Y-79.558
X132.815Y-79.654
X132.851Y-79.750
X132.884Y-79.847
X132.915Y-79.946
X132.944Y-80.045
X132.969Y-80.145
X132.993Y-80.245
X133.013Y-80.346
X133.031Y-80.448
X133.046Y-80.550
X133.059Y-80.653
X133.068Y-80.757
X133.075Y-80.861
X133.079Y-80.965
X133.081Y-81.070
X133.079Y-81.174
X133.074Y-81.280
X133.066Y-81.385
X133.056Y-81.490
X133.042Y-81.596
X133.025Y-81.702
X133.005Y-81.808
X132.982Y-81.913
X132.955Y-82.019
X132.925Y-82.124
X132.892Y-82.230
X132.856Y-82.335
X132.816Y-82.440
X132.773Y-82.544
X132.726Y-82.649
X132.676Y-82.752
X132.623Y-82.856
X132.565Y-82.959
X132.505Y-83.061
X132.440Y-83.163
X132.372Y-83.264
X132.300Y-83.364
X132.225Y-83.464
X132.145Y-83.563
X132.135Y-83.576
X132.130Y-83.582
X132.128Y-83.584
X132.124Y-83.589
X132.116Y-83.598
X132.052Y-83.675
X131.923Y-83.828
X131.663Y-84.133
X131.401Y-84.435
X131.137Y-84.734
X130.871Y-85.031
X130.602Y-85.325
X130.331Y-85.616
X130.058Y-85.905
X129.783Y-86.191
X129.506Y-86.474
X129.227Y-86.754
X128.946Y-87.032
X128.663Y-87.308
X128.377Y-87.580
X128.090Y-87.850
X127.801Y-88.117
X127.509Y-88.381
X127.216Y-88.643
X126.921Y-88.902
X126.623Y-89.158
X126.324Y-89.411
X126.023Y-89.661
X125.720Y-89.909
X125.416Y-90.154
X125.109Y-90.396
X124.800Y-90.636
X124.490Y-90.872
X124.178Y-91.106
X123.864Y-91.337
X123.548Y-91.565
X123.231Y-91.790
X122.912Y-92.012
X122.591Y-92.232
X122.269Y-92.449
X121.944Y-92.662
X121.619Y-92.873
X121.291Y-93.081
X120.962Y-93.286
X120.631Y-93.489
X120.299Y-93.688
X119.965Y-93.884
X119.629Y-94.078
X119.292Y-94.268
X118.954Y-94.456
X118.614Y-94.640
X118.272Y-94.822
X117.929Y-95.001
X117.585Y-95.177
X117.239Y-95.349
X116.891Y-95.519
X116.543Y-95.686
X116.193Y-95.850
X115.841Y-96.010
X115.488Y-96.168
X115.134Y-96.323
X114.779Y-96.474
X114.422Y-96.623
X114.064Y-96.769
X113.704Y-96.911
X113.344Y-97.051
X112.982Y-97.187
X112.619Y-97.320
X112.255Y-97.451
X111.889Y-97.578
X111.523Y-97.702
X111.155Y-97.823
X110.786Y-97.940
X110.416Y-98.055
X110.045Y-98.166
X109.673Y-98.275
X109.299Y-98.380
X108.925Y-98.482
X108.550Y-98.581
X108.174Y-98.677
X107.796Y-98.769
X107.418Y-98.859
X107.039Y-98.945
X106.659Y-99.028
X106.278Y-99.108
X105.896Y-99.184
X105.513Y-99.257
X105.129Y-99.327
X104.744Y-99.394
X104.359Y-99.458
X103.973Y-99.518
X103.585Y-99.575
X103.198Y-99.629
X102.809Y-99.679
X102.420Y-99.727
X102.029Y-99.770
X101.639Y-99.811
X101.247Y-99.848
X100.855Y-99.882
X100.462Y-99.913
X100.068Y-99.940
X99.674Y-99.964
X99.279Y-99.985
X98.884Y-100.002
X98.488Y-100.016
X98.092Y-100.026
X97.694Y-100.034
X97.297Y-100.037
X97.098Y-100.038
X97.073Y-100.038
X97.060Y-100.038
X97.056
X97.047
X97.028Y-100.038
X96.877Y-100.038
X96.576Y-100.036
X95.977Y-100.026
X95.380Y-100.010
X94.787Y-99.986
X94.196Y-99.955
X93.609Y-99.918
X93.025Y-99.873
X92.444Y-99.822
X91.866Y-99.763
X91.291Y-99.698
X90.720Y-99.626
X90.151Y-99.547
X89.586Y-99.462
X89.024Y-99.370
X88.466Y-99.272
X87.911Y-99.167
X87.359Y-99.055
X86.810Y-98.938
X86.265Y-98.814
X85.723Y-98.683
X85.184Y-98.547
X84.649Y-98.404
X84.117Y-98.255
X83.589Y-98.100
X83.064Y-97.939
X82.543Y-97.772
X82.025Y-97.599
X81.511Y-97.420
X81.001Y-97.235
X80.494Y-97.045
X79.990Y-96.849
X79.490Y-96.647
X78.994Y-96.439
X78.502Y-96.226
X78.013Y-96.008
X77.528Y-95.783
X77.046Y-95.554
X76.569Y-95.319
X76.095Y-95.079
X75.625Y-94.833
X75.158Y-94.583
X74.696Y-94.327
X74.237Y-94.066
X73.783Y-93.800
X73.332Y-93.529
X72.885Y-93.253
X72.442Y-92.972
X72.003Y-92.686
X71.568Y-92.396
X71.137Y-92.100
X70.710Y-91.800
X70.287Y-91.495
X69.868Y-91.186
X69.453Y-90.872
X69.042Y-90.554
X68.636Y-90.231
X68.233Y-89.904
X67.835Y-89.572
X67.441Y-89.236
X67.051Y-88.896
X66.665Y-88.552
X66.284Y-88.203
X65.906Y-87.851
X65.533Y-87.494
X65.165Y-87.133
X64.801Y-86.769
X64.441Y-86.400
X64.085Y-86.028
X63.734Y-85.652
X63.387Y-85.272
X63.045Y-84.888
X62.707Y-84.501
X62.374Y-84.111
X62.045Y-83.716
X61.720Y-83.318
X61.400Y-82.917
X61.085Y-82.513
X60.774Y-82.105
X60.468Y-81.693
X60.167Y-81.279
X59.870Y-80.861
X59.578Y-80.441
X59.290Y-80.017
X59.007Y-79.590
X58.729Y-79.160
X58.456Y-78.727
X58.187Y-78.292
X57.923Y-77.853
X57.664Y-77.412
X57.410Y-76.968
X57.161Y-76.521
X56.916Y-76.072
X56.677Y-75.620
X56.442Y-75.166
X56.212Y-74.709
X55.987Y-74.250
X55.768Y-73.788
X55.553Y-73.324
X55.343Y-72.858
X55.138Y-72.390
X54.938Y-71.919
X54.744Y-71.447
X54.554Y-70.972
X54.370Y-70.495
X54.190Y-70.017
X54.016Y-69.536
X53.847Y-69.054
X53.683Y-68.569
X53.525Y-68.083
X53.372Y-67.596
X53.223Y-67.106
X53.081Y-66.615
X52.943Y-66.123
X52.811Y-65.629
X52.684Y-65.134
X52.563Y-64.637
X52.447Y-64.139
X52.336Y-63.639
X52.231Y-63.138
X52.131Y-62.636
X52.037Y-62.133
X51.948Y-61.629
X51.865Y-61.124
X51.787Y-60.618
X51.715Y-60.111
X51.648Y-59.603
X51.587Y-59.094
X51.531Y-58.584
X51.481Y-58.074
X51.437Y-57.563
X51.399Y-57.051
X51.366Y-56.539
X51.339Y-56.026
X51.318Y-55.513
X51.302Y-55.000
X51.292Y-54.485
X51.288Y-53.971
X51.290Y-53.456
X51.298Y-52.942
X51.311Y-52.427
X51.331Y-51.911
X51.356Y-51.396
X51.387Y-50.881
X51.424Y-50.366
X51.467Y-49.851
X51.516Y-49.336
X51.572Y-48.821
X51.633Y-48.306
X51.700Y-47.792
X51.773Y-47.278
X51.853Y-46.764
X51.938Y-46.251
X52.030Y-45.739
X52.127Y-45.226
X52.231Y-44.715
X52.341Y-44.204
X52.458Y-43.694
X52.580Y-43.184
X52.709Y-42.676
X52.844Y-42.168
X52.986Y-41.661
X53.133Y-41.155
X53.287Y-40.650
X53.448Y-40.146
X53.615Y-39.643
X53.788Y-39.142
X53.967Y-38.641
X54.154Y-38.142
X54.346Y-37.644
X54.545Y-37.148
X54.751Y-36.653
X54.963Y-36.159
X55.181Y-35.667
X55.406Y-35.176
X55.638Y-34.687
X55.876Y-34.200
X56.121Y-33.714
X56.373Y-33.231
X56.631Y-32.749
X56.896Y-32.268
X57.168Y-31.790
X57.446Y-31.314
X57.732Y-30.840
X58.024Y-30.367
X58.322Y-29.897
X58.628Y-29.429
X58.940Y-28.964
X59.259Y-28.500
X59.586Y-28.039
X59.919Y-27.581
X60.259Y-27.124
X60.605Y-26.671
X60.959Y-26.219
X61.320Y-25.771
X61.688Y-25.325
X62.063Y-24.881
X62.445Y-24.441
X62.834Y-24.003
X63.230Y-23.568
X63.633Y-23.136
X64.043Y-22.706
X64.461Y-22.280
X64.885Y-21.857
X65.317Y-21.437
X65.756Y-21.020
X66.156Y-20.649
X66.559Y-20.284
X66.965Y-19.924
X67.376Y-19.569
X67.789Y-19.220
X68.206Y-18.876
X68.627Y-18.538
X69.050Y-18.205
X69.477Y-17.877
X69.907Y-17.555
X70.341Y-17.238
X70.777Y-16.927
X71.217Y-16.621
X71.660Y-16.321
X72.105Y-16.026
X72.554Y-15.737
X73.006Y-15.453
X73.460Y-15.175
X73.918Y-14.902
X74.378Y-14.635
X74.841Y-14.374
X75.307Y-14.118
X75.775Y-13.868
X76.246Y-13.624
X76.720Y-13.385
X77.196Y-13.152
X77.675Y-12.924
X78.156Y-12.703
X78.640Y-12.487
X79.126Y-12.277
X79.614Y-12.072
X80.105Y-11.873
X80.598Y-11.681
X81.093Y-11.493
X81.590Y-11.312
X82.090Y-11.137
X82.591Y-10.967
X83.095Y-10.803
X83.601Y-10.645
X84.108Y-10.493
X84.618Y-10.347
X85.130Y-10.207
X85.643Y-10.073
X86.158Y-9.945
X86.675Y-9.822
X87.194Y-9.706
X87.714Y-9.596
X88.236Y-9.491
X88.760Y-9.393
X89.285Y-9.301
X89.811Y-9.214
X89.877Y-9.204
X89.910Y-9.199
X89.915Y-9.198
X89.917Y-9.198
X89.915Y-9.197
X89.905Y-9.191
X89.886Y-9.179
X89.732Y-9.084
X89.580Y-8.987
X89.431Y-8.889
X89.283Y-8.789
X89.138Y-8.688
X88.995Y-8.586
X88.854Y-8.482
X88.715Y-8.378
X88.578Y-8.272
X88.444Y-8.164
X88.311Y-8.056
X88.181Y-7.946
X88.053Y-7.835
X87.927Y-7.723
X87.803Y-7.610
X87.681Y-7.496
X87.561Y-7.381
X87.444Y-7.264
X87.328Y-7.147
X87.215Y-7.028
X87.103Y-6.908
X86.994Y-6.788
X86.887Y-6.666
X86.678Y-6.420
X86.478Y-6.170
X86.286Y-5.916
X86.102Y-5.659
X85.926Y-5.398
X85.759Y-5.135
X85.599Y-4.868
X85.447Y-4.598
X85.303Y-4.326
X85.167Y-4.051
X85.038Y-3.773
X84.918Y-3.493
X84.805Y-3.211
X84.700Y-2.927
X84.602Y-2.641
X84.513Y-2.354
X84.430Y-2.064
X84.355Y-1.774
X84.288Y-1.482
X84.228Y-1.188
X84.176Y-0.894
X84.131Y-0.599
X84.093Y-0.303
X84.062Y-0.007
X84.039Y0.290
X84.023Y0.587
X84.013Y0.884
X84.011Y1.181
X84.017Y1.478
G1Z-1.500F304.8
G1X84.029Y1.775F1016.0
X84.048Y2.071
X84.074Y2.367
X84.106Y2.662
X84.146Y2.956
X84.193Y3.249
X84.246Y3.541
X84.306Y3.832
X84.372Y4.121
X84.446Y4.408
X84.525Y4.694
X84.612Y4.978
X84.705Y5.259
X84.804Y5.539
X84.910Y5.816
X85.022Y6.091
X85.140Y6.363
X85.265Y6.632
X85.396Y6.899
X85.533Y7.162
X85.676Y7.422
X85.826Y7.679
X85.981Y7.932
X86.142Y8.182
X86.310Y8.428
X86.483Y8.670
X86.663Y8.907
X86.848Y9.141
X87.039Y9.370
X87.236Y9.595
X87.438Y9.815
X87.646Y10.030
X87.860Y10.240
X88.080Y10.445
X88.305Y10.645
X88.535Y10.839
X88.771Y11.028
X89.013Y11.211
X89.259Y11.388
X89.512Y11.560
X89.769Y11.725
X90.032Y11.884
X90.300Y12.036
X90.573Y12.182
X90.851Y12.322
X91.134Y12.454
X91.423Y12.579
X91.716Y12.698
X92.015Y12.808
X92.318Y12.912
X92.626Y13.008
X92.782Y13.053
X92.939Y13.096
X93.097Y13.137
X93.257Y13.176
X93.418Y13.213
X93.580Y13.248
X93.743Y13.281
X93.907Y13.312
X94.072Y13.341
X94.239Y13.368
X94.407Y13.393
X94.575Y13.416
X94.745Y13.436
X94.917Y13.454
X95.089Y13.470
X95.262Y13.484
X95.437Y13.496
X95.612Y13.505
X95.789Y13.512
X95.967Y13.517
X96.146Y13.520
X96.325Y13.520
X96.502Y13.518
X96.679Y13.514
X96.854Y13.507
X97.028Y13.498
X97.201Y13.487
X97.372Y13.474
X97.543Y13.459
X97.713Y13.441
X97.881Y13.422
X98.049Y13.400
X98.215Y13.376
X98.380Y13.350
X98.544Y13.322
X98.707Y13.293
X98.869Y13.260
X99.029Y13.226
X99.189Y13.190
X99.347Y13.153
X99.660Y13.071
X99.968Y12.981
X100.272Y12.884
X100.571Y12.780
X100.865Y12.668
X101.154Y12.549
X101.438Y12.424
X101.718Y12.291
X101.992Y12.152
X102.261Y12.006
X102.526Y11.854
X102.785Y11.695
X103.039Y11.531
X103.288Y11.360
X103.531Y11.184
X103.769Y11.001
X104.002Y10.814
X104.230Y10.621
X104.452Y10.422
X104.669Y10.219
X104.880Y10.010
X105.086Y9.797
X105.286Y9.578
X105.481Y9.356
X105.669Y9.129
X105.853Y8.897
X106.030Y8.662
X106.202Y8.422
X106.368Y8.179
X106.527Y7.931
X106.681Y7.681
X106.830Y7.426
X106.972Y7.169
X107.108Y6.908
X107.238Y6.645
X107.361Y6.378
X107.479Y6.109
X107.590Y5.837
X107.696Y5.562
X107.795Y5.286
X107.887Y5.007
X107.973Y4.726
X108.053Y4.443
X108.126Y4.159
X108.193Y3.872
X108.254Y3.585
X108.307Y3.296
X108.354Y3.006
X108.395Y2.715
X108.428Y2.422
X108.455Y2.130
X108.475Y1.836
X108.489Y1.542
X108.495Y1.248
X108.494Y0.953
X108.487Y0.659
X108.472Y0.364
X108.451Y0.070
X108.422Y-0.224
X108.386Y-0.517
X108.343Y-0.810
X108.293Y-1.102
X108.236Y-1.393
X108.171Y-1.683
X108.099Y-1.972
X108.019Y-2.259
X107.932Y-2.545
X107.838Y-2.829
X107.736Y-3.112
X107.626Y-3.392
X107.509Y-3.671
X107.385Y-3.947
X107.252Y-4.221
X107.112Y-4.493
X106.964Y-4.762
X106.808Y-5.028
X106.645Y-5.291
X106.473Y-5.551
X106.294Y-5.808
X106.107Y-6.062
X105.911Y-6.312
X105.708Y-6.558
X105.496Y-6.801
X105.276Y-7.040
X105.163Y-7.158
X105.048Y-7.275
X104.931Y-7.391
X104.812Y-7.506
X104.691Y-7.620
X104.568Y-7.732
X104.442Y-7.844
X104.315Y-7.954
X104.186Y-8.063
X104.054Y-8.171
X103.920Y-8.278
X103.784Y-8.384
X103.646Y-8.489
X103.506Y-8.592
X103.364Y-8.694
X103.220Y-8.795
X103.074Y-8.894
X102.925Y-8.992
X102.888Y-9.016
X102.869Y-9.029
X102.866Y-9.030
X102.866Y-9.031
X102.872Y-9.032
X102.883Y-9.033
X102.974Y-9.045
X103.155Y-9.069
X103.518Y-9.119
X103.880Y-9.171
X104.240Y-9.227
X104.601Y-9.285
X104.960Y-9.346
X105.319Y-9.410
X105.676Y-9.477
X106.033Y-9.546
X106.389Y-9.619
X106.745Y-9.694
X107.099Y-9.771
X107.452Y-9.852
X107.805Y-9.935
X108.157Y-10.021
X108.508Y-10.110
X108.857Y-10.201
X109.206Y-10.295
X109.554Y-10.392
X109.901Y-10.492
X110.247Y-10.594
X110.592Y-10.699
X110.936Y-10.807
X111.279Y-10.917
X111.621Y-11.030
X111.962Y-11.146
X112.302Y-11.264
X112.641Y-11.385
X112.978Y-11.509
X113.315Y-11.635
X113.650Y-11.764
X113.985Y-11.895
X114.318Y-12.029
X114.650Y-12.166
X114.981Y-12.305
X115.310Y-12.447
X115.639Y-12.592
X115.966Y-12.739
X116.292Y-12.888
X116.617Y-13.040
X116.940Y-13.195
X117.263Y-13.352
X117.584Y-13.512
X117.903Y-13.675
X118.222Y-13.840
X118.539Y-14.007
X118.854Y-14.177
X119.169Y-14.349
X119.482Y-14.524
X119.794Y-14.702
X120.104Y-14.882
X120.413Y-15.064
X120.720Y-15.249
X121.026Y-15.437
X121.331Y-15.627
X121.634Y-15.819
X121.936Y-16.014
X122.236Y-16.211
X122.535Y-16.410
X122.832Y-16.613
X123.128Y-16.817
X123.422Y-17.024
X123.715Y-17.233
X124.006Y-17.445
X124.295Y-17.659
X124.583Y-17.876
X124.869Y-18.095
X125.154Y-18.316
X125.437Y-18.539
X125.719Y-18.765
X125.998Y-18.994
X126.277Y-19.225
X126.553Y-19.458
X126.828Y-19.693
X127.101Y-19.931
X127.372Y-20.171
X127.642Y-20.413
X127.910Y-20.658
X128.176Y-20.905
X128.440Y-21.154
X128.703Y-21.405
X128.964Y-21.659
X129.222Y-21.915
X129.480Y-22.174
X129.735Y-22.434
X129.988Y-22.697
X130.240Y-22.962
X130.490Y-23.229
X130.737Y-23.499
X130.983Y-23.771
X131.227Y-24.045
X131.469Y-24.321
X131.709Y-24.599
X131.948Y-24.880
X132.184Y-25.163
X132.418Y-25.448
X132.650Y-25.735
X132.880Y-26.024
X133.109Y-26.316
X133.335Y-26.609
X133.559Y-26.905
X133.781Y-27.203
X133.891Y-27.353
X133.905Y-27.372
X133.912Y-27.381
X133.915Y-27.386
X133.924Y-27.398
X133.943Y-27.424
X134.015Y-27.528
X134.084Y-27.633
X134.148Y-27.738
X134.209Y-27.843
X134.266Y-27.949
X134.320Y-28.055
X134.370Y-28.161
X134.416Y-28.268
X134.459Y-28.375
X134.498Y-28.482
X134.534Y-28.589
X134.566Y-28.696
X134.596Y-28.803
X134.621Y-28.911
X134.644Y-29.018
X134.663Y-29.125
X134.679Y-29.232
X134.691Y-29.338
X134.701Y-29.445
X134.708Y-29.551
X134.711Y-29.657
X134.711Y-29.763
X134.709Y-29.868
X134.703Y-29.972
X134.695Y-30.076
X134.684Y-30.180
X134.670Y-30.283
X134.653Y-30.386
X134.634Y-30.487
X134.611Y-30.588
X134.587Y-30.689
X134.559Y-30.788
X134.529Y-30.887
X134.497Y-30.984
X134.461Y-31.081
X134.424Y-31.177
X134.384Y-31.272
X134.342Y-31.366
X134.297Y-31.458
X134.250Y-31.550
X134.201Y-31.640
X134.150Y-31.729
X134.097Y-31.817
X134.041Y-31.903
X133.983Y-31.988
X133.924Y-32.072
X133.862Y-32.154
X133.798Y-32.235
X133.733Y-32.314
X133.665Y-32.391
X133.596Y-32.467
X133.525Y-32.541
X133.452Y-32.614
X133.378Y-32.685
X133.301Y-32.754
X133.223Y-32.821
X133.144Y-32.886
X133.063Y-32.949
X132.980Y-33.010
X132.897Y-33.070
X132.811Y-33.127
X132.724Y-33.182
X132.636Y-33.235
X132.547Y-33.285
X132.456Y-33.334
X132.364Y-33.380
X132.271Y-33.424
X132.177Y-33.465
X132.081Y-33.504
X131.985Y-33.541
X131.887Y-33.575
X131.789Y-33.606
X131.689Y-33.635
X131.589Y-33.661
X131.488Y-33.685
X131.386Y-33.706
X131.283Y-33.724
X131.180Y-33.739
X131.075Y-33.751
X130.971Y-33.761
X130.865Y-33.767
X130.759Y-33.771
X130.652Y-33.771
X130.545Y-33.769
X130.438Y-33.763
X130.330Y-33.754
X130.221Y-33.742
X130.113Y-33.727
X130.004Y-33.708
X129.895Y-33.686
X129.785Y-33.661
X129.676Y-33.632
X129.566Y-33.600
X129.456Y-33.564
X129.346Y-33.525
X129.236Y-33.482
X129.126Y-33.435
X129.017Y-33.385
X128.907Y-33.331
X128.797Y-33.273
X128.688Y-33.211
X128.579Y-33.146
X128.335Y-32.997
X128.091Y-32.851
X127.845Y-32.708
X127.600Y-32.568
X127.353Y-32.431
X127.106Y-32.297
X126.858Y-32.166
X126.609Y-32.039
X126.360Y-31.914
X126.111Y-31.792
X125.860Y-31.674
X125.610Y-31.558
X125.358Y-31.446
X125.107Y-31.336
X124.854Y-31.230
X124.602Y-31.126
X124.349Y-31.025
X124.095Y-30.928
X123.841Y-30.833
X123.587Y-30.741
X123.332Y-30.652
X123.077Y-30.566
X122.822Y-30.483
X122.566Y-30.403
X122.310Y-30.326
X122.053Y-30.252
X121.797Y-30.180
X121.540Y-30.112
X121.283Y-30.046
X121.026Y-29.983
X120.768Y-29.923
X120.511Y-29.866
X120.253Y-29.811
X119.995Y-29.760
X119.737Y-29.711
X119.479Y-29.665
X119.221Y-29.621
X118.962Y-29.581
X118.704Y-29.543
X118.446Y-29.508
X118.188Y-29.476
X117.929Y-29.446
X117.671Y-29.419
X117.413Y-29.395
X117.155Y-29.374
X116.897Y-29.355
X116.639Y-29.339
X116.381Y-29.326
X116.123Y-29.315
X115.866Y-29.307
X115.608Y-29.302
X115.351Y-29.299
X115.094Y-29.299
X114.837Y-29.301
X114.581Y-29.307
X114.325Y-29.314
X114.069Y-29.325
X113.813Y-29.337
X113.558Y-29.353
X113.303Y-29.371
X113.049Y-29.391
X112.795Y-29.414
X112.541Y-29.440
X112.288Y-29.468
X112.035Y-29.499
X111.782Y-29.532
X111.530Y-29.568
X111.279Y-29.606
X111.028Y-29.646
X110.777Y-29.689
X110.528Y-29.735
X110.278Y-29.783
X110.030Y-29.833
X109.781Y-29.886
X109.534Y-29.941
X109.287Y-29.999
X109.041Y-30.059
X108.795Y-30.122
X108.551Y-30.186
X108.306Y-30.254
X108.063Y-30.323
X107.820Y-30.395
X107.579Y-30.469
X107.337Y-30.546
X107.097Y-30.625
X106.858Y-30.706
X106.619Y-30.790
X106.381Y-30.875
X106.145Y-30.963
X105.909Y-31.054
X105.673Y-31.147
X105.439Y-31.241
X105.206Y-31.339
X104.974Y-31.438
X104.743Y-31.540
X104.513Y-31.643
X104.283Y-31.749
X104.055Y-31.858
X103.828Y-31.968
X103.602Y-32.081
X103.377Y-32.195
X103.154Y-32.312
X102.931Y-32.432
X102.709Y-32.553
X102.489Y-32.676
X102.270Y-32.802
X102.052Y-32.929
X101.835Y-33.059
X101.620Y-33.191
X101.406Y-33.325
X101.193Y-33.461
X100.981Y-33.599
X100.771Y-33.739
X100.562Y-33.881
X100.355Y-34.025
X100.148Y-34.171
X99.944Y-34.320
X99.740Y-34.470
X99.538Y-34.622
X99.338Y-34.776
X99.139Y-34.933
X98.941Y-35.091
X98.745Y-35.251
X98.551Y-35.413
X98.358Y-35.577
X98.166Y-35.743
X97.976Y-35.911
X97.788Y-36.081
X97.602Y-36.253
X97.417Y-36.426
X97.233Y-36.602
X97.052Y-36.779
X96.872Y-36.958
X96.693Y-37.139
X96.517Y-37.322
X96.342Y-37.507
X96.169Y-37.694
X95.998Y-37.882
X95.828Y-38.073
X95.661Y-38.265
X95.495Y-38.459
X95.331Y-38.654
X95.169Y-38.852
X95.008Y-39.051
X94.850Y-39.252
X94.694Y-39.454
X94.539Y-39.659
X94.387Y-39.865
X94.236Y-40.073
X94.088Y-40.282
X93.941Y-40.494
X93.797Y-40.707
X93.655Y-40.921
X93.514Y-41.138
X93.376Y-41.356
X93.240Y-41.575
X93.106Y-41.796
X92.974Y-42.019
X92.845Y-42.244
X92.717Y-42.470
X92.592Y-42.698
X92.469Y-42.927
X92.348Y-43.158
X92.230Y-43.390
X92.113Y-43.624
X91.999Y-43.860
X91.888Y-44.097
X91.778Y-44.336
X91.672Y-44.576
X91.567Y-44.818
X91.465Y-45.061
X91.365Y-45.306
X91.268Y-45.552
X91.173Y-45.800
X91.080Y-46.049
X90.990Y-46.300
X90.903Y-46.552
X90.818Y-46.805
X90.735Y-47.060
X90.655Y-47.316
X90.578Y-47.574
X90.503Y-47.833
X90.431Y-48.094
X90.362Y-48.356
X90.295Y-48.619
X90.231Y-48.884
X90.169Y-49.150
X90.110Y-49.418
X90.054Y-49.686
X90.001Y-49.956
X89.950Y-50.228
X89.902Y-50.501
X89.857Y-50.775
X89.815Y-51.050
X89.776Y-51.327
X89.739Y-51.604
X89.705Y-51.884
X89.675Y-52.164
X89.647Y-52.446
X89.622Y-52.728
X89.600Y-53.012
X89.581Y-53.298
X89.564Y-53.584
X89.551Y-53.872
X89.541Y-54.161
X89.534Y-54.450
X89.530Y-54.737
X89.529Y-55.024
X89.532Y-55.310
X89.537Y-55.594
X89.545Y-55.878
X89.556Y-56.160
X89.570Y-56.442
X89.587Y-56.722
X89.607Y-57.002
X89.630Y-57.280
X89.656Y-57.557
X89.685Y-57.833
X89.716Y-58.108
X89.751Y-58.382
X89.788Y-58.654
X89.828Y-58.926
X89.871Y-59.196
X89.917Y-59.465
X89.965Y-59.733
X90.016Y-60.000
X90.070Y-60.265
X90.127Y-60.529
X90.186Y-60.792
X90.248Y-61.054
X90.312Y-61.315
X90.379Y-61.574
X90.449Y-61.832
X90.522Y-62.089
X90.597Y-62.344
X90.674Y-62.598
X90.754Y-62.851
X90.837Y-63.102
X90.922Y-63.352
X91.010Y-63.601
X91.100Y-63.849
X91.192Y-64.095
X91.287Y-64.339
X91.384Y-64.582
X91.484Y-64.824
X91.586Y-65.065
X91.691Y-65.304
X91.798Y-65.541
X91.907Y-65.777
X92.019Y-66.012
X92.132Y-66.245
X92.248Y-66.477
X92.367Y-66.707
X92.487Y-66.936
X92.610Y-67.163
X92.735Y-67.389
X92.862Y-67.613
X92.992Y-67.836
X93.123Y-68.057
X93.257Y-68.276
X93.393Y-68.494
X93.531Y-68.711
X93.671Y-68.925
X93.813Y-69.139
X93.957Y-69.350
X94.103Y-69.560
X94.251Y-69.768
X94.401Y-69.975
X94.553Y-70.180
X94.707Y-70.383
X94.863Y-70.585
X95.021Y-70.785
X95.181Y-70.983
X95.342Y-71.180
X95.506Y-71.375
X95.671Y-71.568
X95.838Y-71.759
X96.007Y-71.949
X96.178Y-72.136
X96.351Y-72.323
X96.525Y-72.507
X96.701Y-72.689
X96.879Y-72.870
X97.059Y-73.049
X97.240Y-73.226
X97.423Y-73.401
X97.607Y-73.574
X97.793Y-73.746
X97.981Y-73.915
X98.171Y-74.083
X98.362Y-74.249
X98.554Y-74.413
X98.748Y-74.575
X98.944Y-74.735
X99.141Y-74.893
X99.340Y-75.050
X99.540Y-75.204
X99.741Y-75.356
X99.944Y-75.507
X100.149Y-75.655
X100.355Y-75.801
X100.562Y-75.946
X100.771Y-76.088
X100.981Y-76.228
X101.192Y-76.367
X101.404Y-76.503
X101.618Y-76.637
X101.833Y-76.769
X102.050Y-76.899
X102.268Y-77.027
X102.487Y-77.153
X102.707Y-77.277
X102.928Y-77.398
X103.150Y-77.518
X103.374Y-77.635
X103.599Y-77.750
X103.825Y-77.863
X104.052Y-77.974
X104.280Y-78.082
X104.509Y-78.189
X104.739Y-78.293
X104.971Y-78.395
X105.203Y-78.495
X105.436Y-78.592
X105.670Y-78.688
X105.905Y-78.781
X106.142Y-78.871
X106.379Y-78.960
X106.617Y-79.046
X106.855Y-79.130
X107.095Y-79.212
X107.336Y-79.291
X107.577Y-79.368
X107.819Y-79.442
X108.062Y-79.514
X108.306Y-79.584
X108.551Y-79.652
X108.796Y-79.717
X109.042Y-79.779
X109.289Y-79.840
X109.536Y-79.897
X109.785Y-79.953
X110.033Y-80.006
X110.283Y-80.056
X110.533Y-80.104
X110.784Y-80.150
X111.035Y-80.193
X111.287Y-80.234
X111.539Y-80.272
X111.792Y-80.307
X112.045Y-80.340
X112.299Y-80.371
X112.554Y-80.399
X112.809Y-80.424
X113.064Y-80.447
X113.320Y-80.467
X113.576Y-80.485
X113.832Y-80.500
X114.089Y-80.513
X114.346Y-80.522
X114.604Y-80.530
X114.862Y-80.534
X115.120Y-80.536
X115.379Y-80.535
X115.637Y-80.532
X115.897Y-80.526
X116.156Y-80.517
X116.415Y-80.506
X116.675Y-80.491
X116.935Y-80.474
X117.195Y-80.455
X117.455Y-80.432
X117.715Y-80.407
X117.976Y-80.379
X118.236Y-80.348
X118.497Y-80.315
X118.757Y-80.278
X119.018Y-80.239
X119.279Y-80.197
X119.539Y-80.153
X119.800Y-80.105
X120.060Y-80.054
X120.321Y-80.001
X120.581Y-79.945
X120.842Y-79.886
X121.102Y-79.824
X121.362Y-79.759
X121.622Y-79.691
X121.882Y-79.620
X122.142Y-79.546
X122.401Y-79.470
X122.661Y-79.390
X122.920Y-79.308
X123.178Y-79.222
X123.437Y-79.133
X123.695Y-79.042
X123.953Y-78.947
X124.211Y-78.850
X124.468Y-78.749
X124.725Y-78.645
X124.982Y-78.539
X125.238Y-78.429
X125.494Y-78.316
X125.749Y-78.200
X126.004Y-78.081
X126.258Y-77.959
X126.512Y-77.833
X126.766Y-77.705
X127.018Y-77.573
X127.145Y-77.506
X127.161Y-77.498
X127.168Y-77.494
X127.171Y-77.492
X127.178Y-77.488
X127.193Y-77.481
X127.306Y-77.423
X127.419Y-77.369
X127.532Y-77.319
X127.645Y-77.273
X127.757Y-77.230
X127.870Y-77.191
X127.982Y-77.156
X128.094Y-77.124
X128.206Y-77.096
X128.318Y-77.071
X128.429Y-77.050
X128.540Y-77.032
X128.650Y-77.018
X128.760Y-77.007
X128.869Y-76.999
X128.978Y-76.994
X129.086Y-76.993
X129.194Y-76.995
X129.301Y-76.999
X129.407Y-77.007
X129.512Y-77.018
X129.617Y-77.032
X129.721Y-77.048
X129.824Y-77.068
X129.926Y-77.090
X130.027Y-77.115
X130.127Y-77.143
X130.227Y-77.174
X130.325Y-77.207
X130.422Y-77.242
X130.518Y-77.280
X130.613Y-77.321
X130.707Y-77.364
X130.799Y-77.410
X130.890Y-77.457
X130.980Y-77.508
X131.069Y-77.560
X131.156Y-77.614
X131.242Y-77.671
X131.326Y-77.730
X131.409Y-77.791
X131.490Y-77.854
X131.570Y-77.919
X131.648Y-77.985
X131.724Y-78.054
X131.799Y-78.125
X131.872Y-78.197
X131.944Y-78.271
X132.013Y-78.347
X132.081Y-78.424
X132.147Y-78.503
X132.211Y-78.583
X132.273Y-78.665
X132.333Y-78.749
X132.391Y-78.834
X132.446Y-78.920
X132.500Y-79.008
X132.552Y-79.096
X132.602Y-79.186
X132.649Y-79.278
X132.694Y-79.370
X132.737Y-79.464
X132.777Y-79.558
X132.815Y-79.654
X132.851Y-79.750
X132.884Y-79.847
X132.915Y-79.946
X132.944Y-80.045
X132.969Y-80.145
X132.993Y-80.245
X133.013Y-80.346
X133.031Y-80.448
X133.046Y-80.550
X133.059Y-80.653
X133.068Y-80.757
X133.075Y-80.861
X133.079Y-80.965
X133.081Y-81.070
X133.079Y-81.174
X133.074Y-81.280
X133.066Y-81.385
X133.056Y-81.490
X133.042Y-81.596
X133.025Y-81.702
X133.005Y-81.808
X132.982Y-81.913
X132.955Y-82.019
X132.925Y-82.124
X132.892Y-82.230
X132.856Y-82.335
X132.816Y-82.440
X132.773Y-82.544
X132.726Y-82.649
X132.676Y-82.752
X132.623Y-82.856
X132.565Y-82.959
X132.505Y-83.061
X132.440Y-83.163
X132.372Y-83.264
X132.300Y-83.364
X132.225Y-83.464
X132.145Y-83.563
X132.135Y-83.576
X132.130Y-83.582
X132.128Y-83.584
X132.124Y-83.589
X132.116Y-83.598
X132.052Y-83.675
X131.923Y-83.828
X131.663Y-84.133
X131.401Y-84.435
X131.137Y-84.734
X130.871Y-85.031
X130.602Y-85.325
X130.331Y-85.616
X130.058Y-85.905
X129.783Y-86.191
X129.506Y-86.474
X129.227Y-86.754
X128.946Y-87.032
X128.663Y-87.308
X128.377Y-87.580
X128.090Y-87.850
X127.801Y-88.117
X127.509Y-88.381
X127.216Y-88.643
X126.921Y-88.902
X126.623Y-89.158
X126.324Y-89.411
X126.023Y-89.661
X125.720Y-89.909
X125.416Y-90.154
X125.109Y-90.396
X124.800Y-90.636
X124.490Y-90.872
X124.178Y-91.106
X123.864Y-91.337
X123.548Y-91.565
X123.231Y-91.790
X122.912Y-92.012
X122.591Y-92.232
X122.269Y-92.449
X121.944Y-92.662
X121.619Y-92.873
X121.291Y-93.081
X120.962Y-93.286
X120.631Y-93.489
X120.299Y-93.688
X119.965Y-93.884
X119.629Y-94.078
X119.292Y-94.268
X118.954Y-94.456
X118.614Y-94.640
X118.272Y-94.822
X117.929Y-95.001
X117.585Y-95.177
X117.239Y-95.349
X116.891Y-95.519
X116.543Y-95.686
X116.193Y-95.850
X115.841Y-96.010
X115.488Y-96.168
X115.134Y-96.323
X114.779Y-96.474
X114.422Y-96.623
X114.064Y-96.769
X113.704Y-96.911
X113.344Y-97.051
X112.982Y-97.187
X112.619Y-97.320
X112.255Y-97.451
X111.889Y-97.578
X111.523Y-97.702
X111.155Y-97.823
X110.786Y-97.940
X110.416Y-98.055
X110.045Y-98.166
X109.673Y-98.275
X109.299Y-98.380
X108.925Y-98.482
X108.550Y-98.581
X108.174Y-98.677
X107.796Y-98.769
X107.418Y-98.859
X107.039Y-98.945
X106.659Y-99.028
X106.278Y-99.108
X105.896Y-99.184
X105.513Y-99.257
X105.129Y-99.327
X104.744Y-99.394
X104.359Y-99.458
X103.973Y-99.518
X103.585Y-99.575
X103.198Y-99.629
X102.809Y-99.679
X102.420Y-99.727
X102.029Y-99.770
X101.639Y-99.811
X101.247Y-99.848
X100.855Y-99.882
X100.462Y-99.913
X100.068Y-99.940
X99.674Y-99.964
X99.279Y-99.985
X98.884Y-100.002
X98.488Y-100.016
X98.092Y-100.026
X97.694Y-100.034
X97.297Y-100.037
X97.098Y-100.038
X97.073Y-100.038
X97.060Y-100.038
X97.056
X97.047
X97.028Y-100.038
X96.877Y-100.038
X96.576Y-100.036
X95.977Y-100.026
X95.380Y-100.010
X94.787Y-99.986
X94.196Y-99.955
X93.609Y-99.918
X93.025Y-99.873
X92.444Y-99.822
X91.866Y-99.763
X91.291Y-99.698
X90.720Y-99.626
X90.151Y-99.547
X89.586Y-99.462
X89.024Y-99.370
X88.466Y-99.272
X87.911Y-99.167
X87.359Y-99.055
X86.810Y-98.938
X86.265Y-98.814
X85.723Y-98.683
X85.184Y-98.547
X84.649Y-98.404
X84.117Y-98.255
X83.589Y-98.100
X83.064Y-97.939
X82.543Y-97.772
X82.025Y-97.599
X81.511Y-97.420
X81.001Y-97.235
X80.494Y-97.045
X79.990Y-96.849
X79.490Y-96.647
X78.994Y-96.439
X78.502Y-96.226
X78.013Y-96.008
X77.528Y-95.783
X77.046Y-95.554
X76.569Y-95.319
X76.095Y-95.079
X75.625Y-94.833
X75.158Y-94.583
X74.696Y-94.327
X74.237Y-94.066
X73.783Y-93.800
X73.332Y-93.529
X72.885Y-93.253
X72.442Y-92.972
X72.003Y-92.686
X71.568Y-92.396
X71.137Y-92.100
X70.710Y-91.800
X70.287Y-91.495
X69.868Y-91.186
X69.453Y-90.872
X69.042Y-90.554
X68.636Y-90.231
X68.233Y-89.904
X67.835Y-89.572
X67.441Y-89.236
X67.051Y-88.896
X66.665Y-88.552
X66.284Y-88.203
X65.906Y-87.851
X65.533Y-87.494
X65.165Y-87.133
X64.801Y-86.769
X64.441Y-86.400
X64.085Y-86.028
X63.734Y-85.652
X63.387Y-85.272
X63.045Y-84.888
X62.707Y-84.501
X62.374Y-84.111
X62.045Y-83.716
X61.720Y-83.318
X61.400Y-82.917
X61.085Y-82.513
X60.774Y-82.105
X60.468Y-81.693
X60.167Y-81.279
X59.870Y-80.861
X59.578Y-80.441
X59.290Y-80.017
X59.007Y-79.590
X58.729Y-79.160
X58.456Y-78.727
X58.187Y-78.292
X57.923Y-77.853
X57.664Y-77.412
X57.410Y-76.968
X57.161Y-76.521
X56.916Y-76.072
X56.677Y-75.620
X56.442Y-75.166
X56.212Y-74.709
X55.987Y-74.250
X55.768Y-73.788
X55.553Y-73.324
X55.343Y-72.858
X55.138Y-72.390
X54.938Y-71.919
X54.744Y-71.447
X54.554Y-70.972
X54.370Y-70.495
X54.190Y-70.017
X54.016Y-69.536
X53.847Y-69.054
X53.683Y-68.569
X53.525Y-68.083
X53.372Y-67.596
X53.223Y-67.106
X53.081Y-66.615
X52.943Y-66.123
X52.811Y-65.629
X52.684Y-65.134
X52.563Y-64.637
X52.447Y-64.139
X52.336Y-63.639
X52.231Y-63.138
X52.131Y-62.636
X52.037Y-62.133
X51.948Y-61.629
X51.865Y-61.124
X51.787Y-60.618
X51.715Y-60.111
X51.648Y-59.603
X51.587Y-59.094
X51.531Y-58.584
X51.481Y-58.074
X51.437Y-57.563
X51.399Y-57.051
X51.366Y-56.539
X51.339Y-56.026
X51.318Y-55.513
X51.302Y-55.000
X51.292Y-54.485
X51.288Y-53.971
X51.290Y-53.456
X51.298Y-52.942
X51.311Y-52.427
X51.331Y-51.911
X51.356Y-51.396
X51.387Y-50.881
X51.424Y-50.366
X51.467Y-49.851
X51.516Y-49.336
X51.572Y-48.821
X51.633Y-48.306
X51.700Y-47.792
X51.773Y-47.278
X51.853Y-46.764
X51.938Y-46.251
X52.030Y-45.739
X52.127Y-45.226
X52.231Y-44.715
X52.341Y-44.204
X52.458Y-43.694
X52.580Y-43.184
X52.709Y-42.676
X52.844Y-42.168
X52.986Y-41.661
X53.133Y-41.155
X53.287Y-40.650
X53.448Y-40.146
X53.615Y-39.643
X53.788Y-39.142
X53.967Y-38.641
X54.154Y-38.142
X54.346Y-37.644
X54.545Y-37.148
X54.751Y-36.653
X54.963Y-36.159
X55.181Y-35.667
X55.406Y-35.176
X55.638Y-34.687
X55.876Y-34.200
X56.121Y-33.714
X56.373Y-33.231
X56.631Y-32.749
X56.896Y-32.268
X57.168Y-31.790
X57.446Y-31.314
X57.732Y-30.840
X58.024Y-30.367
X58.322Y-29.897
X58.628Y-29.429
X58.940Y-28.964
X59.259Y-28.500
X59.586Y-28.039
X59.919Y-27.581
X60.259Y-27.124
X60.605Y-26.671
X60.959Y-26.219
X61.320Y-25.771
X61.688Y-25.325
X62.063Y-24.881
X62.445Y-24.441
X62.834Y-24.003
X63.230Y-23.568
X63.633Y-23.136
X64.043Y-22.706
X64.461Y-22.280
X64.885Y-21.857
X65.317Y-21.437
X65.756Y-21.020
X66.156Y-20.649
X66.559Y-20.284
X66.965Y-19.924
X67.376Y-19.569
X67.789Y-19.220
X68.206Y-18.876
X68.627Y-18.538
X69.050Y-18.205
X69.477Y-17.877
X69.907Y-17.555
X70.341Y-17.238
X70.777Y-16.927
X71.217Y-16.621
X71.660Y-16.321
X72.105Y-16.026
X72.554Y-15.737
X73.006Y-15.453
X73.460Y-15.175
X73.918Y-14.902
X74.378Y-14.635
X74.841Y-14.374
X75.307Y-14.118
X75.775Y-13.868
X76.246Y-13.624
X76.720Y-13.385
X77.196Y-13.152
X77.675Y-12.924
X78.156Y-12.703
X78.640Y-12.487
X79.126Y-12.277
X79.614Y-12.072
X80.105Y-11.873
X80.598Y-11.681
X81.093Y-11.493
X81.590Y-11.312
X82.090Y-11.137
X82.591Y-10.967
X83.095Y-10.803
X83.601Y-10.645
X84.108Y-10.493
X84.618Y-10.347
X85.130Y-10.207
X85.643Y-10.073
X86.158Y-9.945
X86.675Y-9.822
X87.194Y-9.706
X87.714Y-9.596
X88.236Y-9.491
X88.760Y-9.393
X89.285Y-9.301
X89.811Y-9.214
X89.877Y-9.204
X89.910Y-9.199
X89.915Y-9.198
X89.917Y-9.198
X89.915Y-9.197
X89.905Y-9.191
X89.886Y-9.179
X89.732Y-9.084
X89.580Y-8.987
X89.431Y-8.889
X89.283Y-8.789
X89.138Y-8.688
X88.995Y-8.586
X88.854Y-8.482
X88.715Y-8.378
X88.578Y-8.272
X88.444Y-8.164
X88.311Y-8.056
X88.181Y-7.946
X88.053Y-7.835
X87.927Y-7.723
X87.803Y-7.610
X87.681Y-7.496
X87.561Y-7.381
X87.444Y-7.264
X87.328Y-7.147
X87.215Y-7.028
X87.103Y-6.908
X86.994Y-6.788
X86.887Y-6.666
X86.678Y-6.420
X86.478Y-6.170
X86.286Y-5.916
X86.102Y-5.659
X85.926Y-5.398
X85.759Y-5.135
X85.599Y-4.868
X85.447Y-4.598
X85.303Y-4.326
X85.167Y-4.051
X85.038Y-3.773
X84.918Y-3.493
X84.805Y-3.211
X84.700Y-2.927
X84.602Y-2.641
X84.513Y-2.354
X84.430Y-2.064
X84.355Y-1.774
X84.288Y-1.482
X84.228Y-1.188
X84.176Y-0.894
X84.131Y-0.599
X84.093Y-0.303
X84.062Y-0.007
X84.039Y0.290
X84.023Y0.587
X84.013Y0.884
X84.011Y1.181
X84.017Y1.478
G1Z-2.250F304.8
G1X84.029Y1.775F1016.0
X84.048Y2.071
X84.074Y2.367
X84.106Y2.662
X84.146Y2.956
X84.193Y3.249
X84.246Y3.541
X84.306Y3.832
X84.372Y4.121
X84.446Y4.408
X84.525Y4.694
X84.612Y4.978
X84.705Y5.259
X84.804Y5.539
X84.910Y5.816
X85.022Y6.091
X85.140Y6.363
X85.265Y6.632
X85.396Y6.899
X85.533Y7.162
X85.676Y7.422
X85.826Y7.679
X85.981Y7.932
X86.142Y8.182
X86.310Y8.428
X86.483Y8.670
X86.663Y8.907
X86.848Y9.141
X87.039Y9.370
X87.236Y9.595
X87.438Y9.815
X87.646Y10.030
X87.860Y10.240
X88.080Y10.445
X88.305Y10.645
X88.535Y10.839
X88.771Y11.028
X89.013Y11.211
X89.259Y11.388
X89.512Y11.560
X89.769Y11.725
X90.032Y11.884
X90.300Y12.036
X90.573Y12.182
X90.851Y12.322
X91.134Y12.454
X91.423Y12.579
X91.716Y12.698
X92.015Y12.808
X92.318Y12.912
X92.626Y13.008
X92.782Y13.053
X92.939Y13.096
X93.097Y13.137
X93.257Y13.176
X93.418Y13.213
X93.580Y13.248
X93.743Y13.281
X93.907Y13.312
X94.072Y13.341
X94.239Y13.368
X94.407Y13.393
X94.575Y13.416
X94.745Y13.436
X94.917Y13.454
X95.089Y13.470
X95.262Y13.484
X95.437Y13.496
X95.612Y13.505
X95.789Y13.512
X95.967Y13.517
X96.146Y13.520
X96.325Y13.520
X96.502Y13.518
X96.679Y13.514
X96.854Y13.507
X97.028Y13.498
X97.201Y13.487
X97.372Y13.474
X97.543Y13.459
X97.713Y13.441
X97.881Y13.422
X98.049Y13.400
X98.215Y13.376
X98.380Y13.350
X98.544Y13.322
X98.707Y13.293
X98.869Y13.260
X99.029Y13.226
X99.189Y13.190
X99.347Y13.153
X99.660Y13.071
X99.968Y12.981
X100.272Y12.884
X100.571Y12.780
X100.865Y12.668
X101.154Y12.549
X101.438Y12.424
X101.718Y12.291
X101.992Y12.152
X102.261Y12.006
X102.526Y11.854
X102.785Y11.695
X103.039Y11.531
X103.288Y11.360
X103.531Y11.184
X103.769Y11.001
X104.002Y10.814
X104.230Y10.621
X104.452Y10.422
X104.669Y10.219
X104.880Y10.010
X105.086Y9.797
X105.286Y9.578
X105.481Y9.356
X105.669Y9.129
X105.853Y8.897
X106.030Y8.662
X106.202Y8.422
X106.368Y8.179
X106.527Y7.931
X106.681Y7.681
X106.830Y7.426
X106.972Y7.169
X107.108Y6.908
X107.238Y6.645
X107.361Y6.378
X107.479Y6.109
X107.590Y5.837
X107.696Y5.562
X107.795Y5.286
X107.887Y5.007
X107.973Y4.726
X108.053Y4.443
X108.126Y4.159
X108.193Y3.872
X108.254Y3.585
X108.307Y3.296
X108.354Y3.006
X108.395Y2.715
X108.428Y2.422
X108.455Y2.130
X108.475Y1.836
X108.489Y1.542
X108.495Y1.248
X108.494Y0.953
X108.487Y0.659
X108.472Y0.364
X108.451Y0.070
X108.422Y-0.224
X108.386Y-0.517
X108.343Y-0.810
X108.293Y-1.102
X108.236Y-1.393
X108.171Y-1.683
X108.099Y-1.972
X108.019Y-2.259
X107.932Y-2.545
X107.838Y-2.829
X107.736Y-3.112
X107.626Y-3.392
X107.509Y-3.671
X107.385Y-3.947
X107.252Y-4.221
X107.112Y-4.493
X106.964Y-4.762
X106.808Y-5.028
X106.645Y-5.291
X106.473Y-5.551
X106.294Y-5.808
X106.107Y-6.062
X105.911Y-6.312
X105.708Y-6.558
X105.496Y-6.801
X105.276Y-7.040
X105.163Y-7.158
X105.048Y-7.275
X104.931Y-7.391
X104.812Y-7.506
X104.691Y-7.620
X104.568Y-7.732
X104.442Y-7.844
X104.315Y-7.954
X104.186Y-8.063
X104.054Y-8.171
X103.920Y-8.278
X103.784Y-8.384
X103.646Y-8.489
X103.506Y-8.592
X103.364Y-8.694
X103.220Y-8.795
X103.074Y-8.894
X102.925Y-8.992
X102.888Y-9.016
X102.869Y-9.029
X102.866Y-9.030
X102.866Y-9.031
X102.872Y-9.032
X102.883Y-9.033
X102.974Y-9.045
X103.155Y-9.069
X103.518Y-9.119
X103.880Y-9.171
X104.240Y-9.227
X104.601Y-9.285
X104.960Y-9.346
X105.319Y-9.410
X105.676Y-9.477
X106.033Y-9.546
X106.389Y-9.619
X106.745Y-9.694
X107.099Y-9.771
X107.452Y-9.852
X107.805Y-9.935
X108.157Y-10.021
X108.508Y-10.110
X108.857Y-10.201
X109.206Y-10.295
X109.554Y-10.392
X109.901Y-10.492
X110.247Y-10.594
X110.592Y-10.699
X110.936Y-10.807
X111.279Y-10.917
X111.621Y-11.030
X111.962Y-11.146
X112.302Y-11.264
X112.641Y-11.385
X112.978Y-11.509
X113.315Y-11.635
X113.650Y-11.764
X113.985Y-11.895
X114.318Y-12.029
X114.650Y-12.166
X114.981Y-12.305
X115.310Y-12.447
X115.639Y-12.592
X115.966Y-12.739
X116.292Y-12.888
X116.617Y-13.040
X116.940Y-13.195
X117.263Y-13.352
X117.584Y-13.512
X117.903Y-13.675
X118.222Y-13.840
X118.539Y-14.007
X118.854Y-14.177
X119.169Y-14.349
X119.482Y-14.524
X119.794Y-14.702
X120.104Y-14.882
X120.413Y-15.064
X120.720Y-15.249
X121.026Y-15.437
X121.331Y-15.627
X121.634Y-15.819
X121.936Y-16.014
X122.236Y-16.211
X122.535Y-16.410
X122.832Y-16.613
X123.128Y-16.817
X123.422Y-17.024
X123.715Y-17.233
X124.006Y-17.445
X124.295Y-17.659
X124.583Y-17.876
X124.869Y-18.095
X125.154Y-18.316
X125.437Y-18.539
X125.719Y-18.765
X125.998Y-18.994
X126.277Y-19.225
X126.553Y-19.458
X126.828Y-19.693
X127.101Y-19.931
X127.372Y-20.171
X127.642Y-20.413
X127.910Y-20.658
X128.176Y-20.905
X128.440Y-21.154
X128.703Y-21.405
X128.964Y-21.659
X129.222Y-21.915
X129.480Y-22.174
X129.735Y-22.434
X129.988Y-22.697
X130.240Y-22.962
X130.490Y-23.229
X130.737Y-23.499
X130.983Y-23.771
X131.227Y-24.045
X131.469Y-24.321
X131.709Y-24.599
X131.948Y-24.880
X132.184Y-25.163
X132.418Y-25.448
X132.650Y-25.735
X132.880Y-26.024
X133.109Y-26.316
X133.335Y-26.609
X133.559Y-26.905
X133.781Y-27.203
X133.891Y-27.353
X133.905Y-27.372
X133.912Y-27.381
X133.915Y-27.386
X133.924Y-27.398
X133.943Y-27.424
X134.015Y-27.528
X134.084Y-27.633
X134.148Y-27.738
X134.209Y-27.843
X134.266Y-27.949
X134.320Y-28.055
X134.370Y-28.161
X134.416Y-28.268
X134.459Y-28.375
X134.498Y-28.482
X134.534Y-28.589
X134.566Y-28.696
X134.596Y-28.803
X134.621Y-28.911
