(VECTRIC POST REV.)
(82074C4DCA892683619619E26FA56BD3)

G21 G22
G0Z20.320
G0X0.000Y0.000S18000M3
G0X92.002Y1.213
G0Z5.080
G1Z-1.000F304.8
G1X92.003Y1.186F1016.0
X92.003Y1.158
X92.004Y1.131
X92.005Y1.104
X92.006Y1.076
X92.008Y1.049
X92.009Y1.022
X92.011Y0.995
X92.012Y0.968
X92.014Y0.941
X92.017Y0.914
X92.019Y0.887
X92.021Y0.860
X92.024Y0.833
X92.027Y0.807
X92.030Y0.780
X92.033Y0.753
X92.036Y0.727
X92.040Y0.700
X92.043Y0.673
X92.047Y0.647
X92.051Y0.621
X92.059Y0.568
X92.068Y0.515
X92.078Y0.463
X92.088Y0.411
X92.099Y0.359
X92.111Y0.308
X92.123Y0.257
X92.136Y0.206
X92.149Y0.155
X92.163Y0.104
X92.178Y0.054
X92.193Y0.004
X92.209Y-0.046
X92.225Y-0.096
X92.242Y-0.145
X92.260Y-0.194
X92.278Y-0.243
X92.297Y-0.291
X92.316Y-0.339
X92.336Y-0.387
X92.357Y-0.434
X92.378Y-0.482
X92.399Y-0.529
X92.421Y-0.575
X92.444Y-0.622
X92.467Y-0.668
X92.491Y-0.713
X92.515Y-0.759
X92.540Y-0.804
X92.565Y-0.848
X92.591Y-0.893
X92.618Y-0.937
X92.645Y-0.980
X92.672Y-1.024
X92.700Y-1.067
X92.728Y-1.109
X92.757Y-1.151
X92.787Y-1.193
X92.816Y-1.235
X92.847Y-1.276
X92.878Y-1.317
X92.909Y-1.357
X92.941Y-1.397
X92.973Y-1.436
X93.006Y-1.476
X93.039Y-1.514
X93.073Y-1.553
X93.107Y-1.591
X93.141Y-1.628
X93.176Y-1.665
X93.212Y-1.702
X93.247Y-1.738
X93.284Y-1.774
X93.320Y-1.810
X93.358Y-1.845
X93.395Y-1.879
X93.433Y-1.913
X93.472Y-1.947
X93.510Y-1.980
X93.549Y-2.013
X93.589Y-2.045
X93.629Y-2.077
X93.669Y-2.108
X93.710Y-2.139
X93.751Y-2.170
X93.793Y-2.199
X93.835Y-2.229
X93.877Y-2.258
X93.919Y-2.286
X93.962Y-2.314
X94.006Y-2.341
X94.049Y-2.368
X94.093Y-2.395
X94.138Y-2.421
X94.182Y-2.446
X94.227Y-2.471
X94.273Y-2.495
X94.318Y-2.519
X94.364Y-2.542
X94.411Y-2.565
X94.457Y-2.587
X94.504Y-2.608
X94.552Y-2.629
X94.599Y-2.650
X94.647Y-2.670
X94.695Y-2.689
X94.743Y-2.708
X94.792Y-2.726
X94.841Y-2.743
X94.890Y-2.761
X94.940Y-2.777
X94.990Y-2.793
X95.040Y-2.808
X95.090Y-2.823
X95.141Y-2.837
X95.191Y-2.850
X95.243Y-2.863
X95.294Y-2.875
X95.345Y-2.887
X95.397Y-2.898
X95.449Y-2.908
X95.501Y-2.918
X95.554Y-2.927
X95.607Y-2.935
X95.633Y-2.939
X95.659Y-2.943
X95.686Y-2.946
X95.713Y-2.950
X95.739Y-2.953
X95.766Y-2.956
X95.793Y-2.959
X95.819Y-2.962
X95.846Y-2.965
X95.873Y-2.967
X95.900Y-2.969
X95.927Y-2.972
X95.954Y-2.974
X95.981Y-2.975
X96.008Y-2.977
X96.035Y-2.978
X96.062Y-2.980
X96.090Y-2.981
X96.117Y-2.982
X96.144Y-2.983
X96.172Y-2.983
X96.199Y-2.984
X96.227Y-2.984
X96.254Y-2.984
X96.281Y-2.984
X96.309Y-2.984
X96.336Y-2.983
X96.364Y-2.983
X96.391Y-2.982
X96.418Y-2.981
X96.446Y-2.980
X96.473Y-2.978
X96.500Y-2.977
X96.527Y-2.975
X96.554Y-2.974
X96.581Y-2.972
X96.608Y-2.969
X96.635Y-2.967
X96.662Y-2.965
X96.689Y-2.962
X96.715Y-2.959
X96.742Y-2.956
X96.769Y-2.953
X96.795Y-2.950
X96.822Y-2.946
X96.849Y-2.943
X96.875Y-2.939
X96.901Y-2.935
X96.954Y-2.927
X97.007Y-2.918
X97.059Y-2.908
X97.111Y-2.898
X97.163Y-2.887
X97.214Y-2.875
X97.265Y-2.863
X97.317Y-2.850
X97.367Y-2.837
X97.418Y-2.823
X97.468Y-2.808
X97.518Y-2.793
X97.568Y-2.777
X97.618Y-2.761
X97.667Y-2.743
X97.716Y-2.726
X97.765Y-2.708
X97.813Y-2.689
X97.861Y-2.670
X97.909Y-2.650
X97.956Y-2.629
X98.004Y-2.608
X98.051Y-2.587
X98.097Y-2.565
X98.144Y-2.542
X98.190Y-2.519
X98.235Y-2.495
X98.281Y-2.471
X98.326Y-2.446
X98.370Y-2.421
X98.415Y-2.395
X98.459Y-2.368
X98.502Y-2.341
X98.546Y-2.314
X98.589Y-2.286
X98.631Y-2.258
X98.673Y-2.229
X98.715Y-2.199
X98.757Y-2.170
X98.798Y-2.139
X98.839Y-2.108
X98.879Y-2.077
X98.919Y-2.045
X98.959Y-2.013
X98.998Y-1.980
X99.036Y-1.947
X99.075Y-1.913
X99.113Y-1.879
X99.150Y-1.845
X99.188Y-1.810
X99.224Y-1.774
X99.260Y-1.738
X99.296Y-1.702
X99.332Y-1.665
X99.367Y-1.628
X99.401Y-1.591
X99.435Y-1.553
X99.469Y-1.514
X99.502Y-1.476
X99.535Y-1.436
X99.567Y-1.397
X99.599Y-1.357
X99.630Y-1.317
X99.661Y-1.276
X99.692Y-1.235
X99.721Y-1.193
X99.751Y-1.151
X99.780Y-1.109
X99.808Y-1.067
X99.836Y-1.024
X99.863Y-0.980
X99.890Y-0.937
X99.917Y-0.893
X99.943Y-0.848
X99.968Y-0.804
X99.993Y-0.759
X100.017Y-0.713
X100.041Y-0.668
X100.064Y-0.622
X100.087Y-0.575
X100.109Y-0.529
X100.130Y-0.482
X100.151Y-0.434
X100.172Y-0.387
X100.192Y-0.339
X100.211Y-0.291
X100.230Y-0.243
X100.248Y-0.194
X100.266Y-0.145
X100.283Y-0.096
X100.299Y-0.046
X100.315Y0.004
X100.330Y0.054
X100.345Y0.104
X100.359Y0.155
X100.372Y0.206
X100.385Y0.257
X100.397Y0.308
X100.409Y0.359
X100.420Y0.411
X100.430Y0.463
X100.440Y0.515
X100.449Y0.568
X100.457Y0.621
X100.461Y0.647
X100.465Y0.673
X100.468Y0.700
X100.472Y0.727
X100.475Y0.753
X100.478Y0.780
X100.481Y0.807
X100.484Y0.833
X100.487Y0.860
X100.489Y0.887
X100.491Y0.914
X100.494Y0.941
X100.496Y0.968
X100.497Y0.995
X100.499Y1.022
X100.500Y1.049
X100.502Y1.076
X100.503Y1.104
X100.504Y1.131
X100.505Y1.158
X100.505Y1.186
X100.506Y1.213
X100.506Y1.241
X100.506Y1.268
X100.506Y1.296
X100.506Y1.323
X100.505Y1.350
X100.505Y1.378
X100.504Y1.405
X100.503Y1.432
X100.502Y1.460
X100.500Y1.487
X100.499Y1.514
X100.497Y1.541
X100.496Y1.568
X100.494Y1.595
X100.491Y1.622
X100.489Y1.649
X100.487Y1.676
X100.484Y1.703
X100.481Y1.730
X100.478Y1.756
X100.475Y1.783
X100.472Y1.810
X100.468Y1.836
X100.465Y1.863
X100.461Y1.889
X100.457Y1.916
X100.449Y1.968
X100.440Y2.021
X100.430Y2.073
X100.420Y2.125
X100.409Y2.177
X100.397Y2.228
X100.385Y2.280
X100.372Y2.331
X100.359Y2.381
X100.345Y2.432
X100.330Y2.482
X100.315Y2.532
X100.299Y2.582
X100.283Y2.632
X100.266Y2.681
X100.248Y2.730
X100.230Y2.779
X100.211Y2.827
X100.192Y2.875
X100.172Y2.923
X100.151Y2.971
X100.130Y3.018
X100.109Y3.065
X100.087Y3.111
X100.064Y3.158
X100.041Y3.204
X100.017Y3.249
X99.993Y3.295
X99.968Y3.340
X99.943Y3.384
X99.917Y3.429
X99.890Y3.473
X99.863Y3.516
X99.836Y3.560
X99.808Y3.603
X99.780Y3.645
X99.751Y3.687
X99.721Y3.729
X99.692Y3.771
X99.661Y3.812
X99.630Y3.853
X99.599Y3.893
X99.567Y3.933
X99.535Y3.973
X99.502Y4.012
X99.469Y4.051
X99.435Y4.089
X99.401Y4.127
X99.367Y4.164
X99.332Y4.202
X99.296Y4.238
X99.260Y4.275
X99.224Y4.310
X99.188Y4.346
X99.150Y4.381
X99.113Y4.415
X99.075Y4.449
X99.036Y4.483
X98.998Y4.516
X98.959Y4.549
X98.919Y4.581
X98.879Y4.613
X98.839Y4.644
X98.798Y4.675
X98.757Y4.706
X98.715Y4.735
X98.673Y4.765
X98.631Y4.794
X98.589Y4.822
X98.546Y4.850
X98.502Y4.878
X98.459Y4.904
X98.415Y4.931
X98.370Y4.957
X98.326Y4.982
X98.281Y5.007
X98.235Y5.031
X98.190Y5.055
X98.144Y5.078
X98.097Y5.101
X98.051Y5.123
X98.004Y5.144
X97.956Y5.165
X97.909Y5.186
X97.861Y5.206
X97.813Y5.225
X97.765Y5.244
X97.716Y5.262
X97.667Y5.280
X97.618Y5.297
X97.568Y5.313
X97.518Y5.329
X97.468Y5.344
X97.418Y5.359
X97.367Y5.373
X97.317Y5.386
X97.265Y5.399
X97.214Y5.411
X97.163Y5.423
X97.111Y5.434
X97.059Y5.444
X97.007Y5.454
X96.954Y5.463
X96.901Y5.471
X96.875Y5.475
X96.849Y5.479
X96.822Y5.482
X96.795Y5.486
X96.769Y5.489
X96.742Y5.492
X96.715Y5.495
X96.689Y5.498
X96.662Y5.501
X96.635Y5.503
X96.608Y5.506
X96.581Y5.508
X96.554Y5.510
X96.527Y5.511
X96.500Y5.513
X96.473Y5.515
X96.446Y5.516
X96.418Y5.517
X96.391Y5.518
X96.364Y5.519
X96.336Y5.519
X96.309Y5.520
X96.281Y5.520
X96.254Y5.520
X96.227Y5.520
X96.199Y5.520
X96.172Y5.519
X96.144Y5.519
X96.117Y5.518
X96.090Y5.517
X96.062Y5.516
X96.035Y5.515
X96.008Y5.513
X95.981Y5.511
X95.954Y5.510
X95.927Y5.508
X95.900Y5.506
X95.873Y5.503
X95.846Y5.501
X95.819Y5.498
X95.793Y5.495
X95.766Y5.492
X95.739Y5.489
X95.713Y5.486
X95.686Y5.482
X95.659Y5.479
X95.633Y5.475
X95.607Y5.471
X95.554Y5.463
X95.501Y5.454
X95.449Y5.444
X95.397Y5.434
X95.345Y5.423
X95.294Y5.411
X95.243Y5.399
X95.191Y5.386
X95.141Y5.373
X95.090Y5.359
X95.040Y5.344
X94.990Y5.329
X94.940Y5.313
X94.890Y5.297
X94.841Y5.280
X94.792Y5.262
X94.743Y5.244
X94.695Y5.225
X94.647Y5.206
X94.599Y5.186
X94.552Y5.165
X94.504Y5.144
X94.457Y5.123
X94.411Y5.101
X94.364Y5.078
X94.318Y5.055
X94.273Y5.031
X94.227Y5.007
X94.182Y4.982
X94.138Y4.957
X94.093Y4.931
X94.049Y4.904
X94.006Y4.878
X93.962Y4.850
X93.919Y4.822
X93.877Y4.794
X93.835Y4.765
X93.793Y4.735
X93.751Y4.706
X93.710Y4.675
X93.669Y4.644
X93.629Y4.613
X93.589Y4.581
X93.549Y4.549
X93.510Y4.516
X93.472Y4.483
X93.433Y4.449
X93.395Y4.415
X93.358Y4.381
X93.320Y4.346
X93.284Y4.310
X93.247Y4.275
X93.212Y4.238
X93.176Y4.202
X93.141Y4.164
X93.107Y4.127
X93.073Y4.089
X93.039Y4.051
X93.006Y4.012
X92.973Y3.973
X92.941Y3.933
X92.909Y3.893
X92.878Y3.853
X92.847Y3.812
X92.816Y3.771
X92.787Y3.729
X92.757Y3.687
X92.728Y3.645
X92.700Y3.603
X92.672Y3.560
X92.645Y3.516
X92.618Y3.473
X92.591Y3.429
X92.565Y3.384
X92.540Y3.340
X92.515Y3.295
X92.491Y3.249
X92.467Y3.204
X92.444Y3.158
X92.421Y3.111
X92.399Y3.065
X92.378Y3.018
X92.357Y2.971
X92.336Y2.923
X92.316Y2.875
X92.297Y2.827
X92.278Y2.779
X92.260Y2.730
X92.242Y2.681
X92.225Y2.632
X92.209Y2.582
X92.193Y2.532
X92.178Y2.482
X92.163Y2.432
X92.149Y2.381
X92.136Y2.331
X92.123Y2.280
X92.111Y2.228
X92.099Y2.177
X92.088Y2.125
X92.078Y2.073
X92.068Y2.021
X92.059Y1.968
X92.051Y1.916
X92.047Y1.889
X92.043Y1.863
X92.040Y1.836
X92.036Y1.810
X92.033Y1.783
X92.030Y1.756
X92.027Y1.730
X92.024Y1.703
X92.021Y1.676
X92.019Y1.649
X92.017Y1.622
X92.014Y1.595
X92.012Y1.568
X92.011Y1.541
X92.009Y1.514
X92.008Y1.487
X92.006Y1.460
X92.005Y1.432
X92.004Y1.405
X92.003Y1.378
X92.003Y1.350
X92.002Y1.323
X92.002Y1.296
X92.002Y1.268
X92.002Y1.241
X92.002Y1.213
G1Z-2.000F304.8
G1X92.003Y1.186F1016.0
X92.003Y1.158
X92.004Y1.131
X92.005Y1.104
X92.006Y1.076
X92.008Y1.049
X92.009Y1.022
X92.011Y0.995
X92.012Y0.968
X92.014Y0.941
X92.017Y0.914
X92.019Y0.887
X92.021Y0.860
X92.024Y0.833
X92.027Y0.807
X92.030Y0.780
X92.033Y0.753
X92.036Y0.727
X92.040Y0.700
X92.043Y0.673
X92.047Y0.647
X92.051Y0.621
X92.059Y0.568
X92.068Y0.515
X92.078Y0.463
X92.088Y0.411
X92.099Y0.359
X92.111Y0.308
X92.123Y0.257
X92.136Y0.206
X92.149Y0.155
X92.163Y0.104
X92.178Y0.054
X92.193Y0.004
X92.209Y-0.046
X92.225Y-0.096
X92.242Y-0.145
X92.260Y-0.194
X92.278Y-0.243
X92.297Y-0.291
X92.316Y-0.339
X92.336Y-0.387
X92.357Y-0.434
X92.378Y-0.482
X92.399Y-0.529
X92.421Y-0.575
X92.444Y-0.622
X92.467Y-0.668
X92.491Y-0.713
X92.515Y-0.759
X92.540Y-0.804
X92.565Y-0.848
X92.591Y-0.893
X92.618Y-0.937
X92.645Y-0.980
X92.672Y-1.024
X92.700Y-1.067
X92.728Y-1.109
X92.757Y-1.151
X92.787Y-1.193
X92.816Y-1.235
X92.847Y-1.276
X92.878Y-1.317
X92.909Y-1.357
X92.941Y-1.397
X92.973Y-1.436
X93.006Y-1.476
X93.039Y-1.514
X93.073Y-1.553
X93.107Y-1.591
X93.141Y-1.628
X93.176Y-1.665
X93.212Y-1.702
X93.247Y-1.738
X93.284Y-1.774
X93.320Y-1.810
X93.358Y-1.845
X93.395Y-1.879
X93.433Y-1.913
X93.472Y-1.947
X93.510Y-1.980
X93.549Y-2.013
X93.589Y-2.045
X93.629Y-2.077
X93.669Y-2.108
X93.710Y-2.139
X93.751Y-2.170
X93.793Y-2.199
X93.835Y-2.229
X93.877Y-2.258
X93.919Y-2.286
X93.962Y-2.314
X94.006Y-2.341
X94.049Y-2.368
X94.093Y-2.395
X94.138Y-2.421
X94.182Y-2.446
X94.227Y-2.471
X94.273Y-2.495
X94.318Y-2.519
X94.364Y-2.542
X94.411Y-2.565
X94.457Y-2.587
X94.504Y-2.608
X94.552Y-2.629
X94.599Y-2.650
X94.647Y-2.670
X94.695Y-2.689
X94.743Y-2.708
X94.792Y-2.726
X94.841Y-2.743
X94.890Y-2.761
X94.940Y-2.777
X94.990Y-2.793
X95.040Y-2.808
X95.090Y-2.823
X95.141Y-2.837
X95.191Y-2.850
X95.243Y-2.863
X95.294Y-2.875
X95.345Y-2.887
X95.397Y-2.898
X95.449Y-2.908
X95.501Y-2.918
X95.554Y-2.927
X95.607Y-2.935
X95.633Y-2.939
X95.659Y-2.943
X95.686Y-2.946
X95.713Y-2.950
X95.739Y-2.953
X95.766Y-2.956
X95.793Y-2.959
X95.819Y-2.962
X95.846Y-2.965
X95.873Y-2.967
X95.900Y-2.969
X95.927Y-2.972
X95.954Y-2.974
X95.981Y-2.975
X96.008Y-2.977
X96.035Y-2.978
X96.062Y-2.980
X96.090Y-2.981
X96.117Y-2.982
X96.144Y-2.983
X96.172Y-2.983
X96.199Y-2.984
X96.227Y-2.984
X96.254Y-2.984
X96.281Y-2.984
X96.309Y-2.984
X96.336Y-2.983
X96.364Y-2.983
X96.391Y-2.982
X96.418Y-2.981
X96.446Y-2.980
X96.473Y-2.978
X96.500Y-2.977
X96.527Y-2.975
X96.554Y-2.974
X96.581Y-2.972
X96.608Y-2.969
X96.635Y-2.967
X96.662Y-2.965
X96.689Y-2.962
X96.715Y-2.959
X96.742Y-2.956
X96.769Y-2.953
X96.795Y-2.950
X96.822Y-2.946
X96.849Y-2.943
X96.875Y-2.939
X96.901Y-2.935
X96.954Y-2.927
X97.007Y-2.918
X97.059Y-2.908
X97.111Y-2.898
X97.163Y-2.887
X97.214Y-2.875
X97.265Y-2.863
X97.317Y-2.850
X97.367Y-2.837
X97.418Y-2.823
X97.468Y-2.808
X97.518Y-2.793
X97.568Y-2.777
X97.618Y-2.761
X97.667Y-2.743
X97.716Y-2.726
X97.765Y-2.708
X97.813Y-2.689
X97.861Y-2.670
X97.909Y-2.650
X97.956Y-2.629
X98.004Y-2.608
X98.051Y-2.587
X98.097Y-2.565
X98.144Y-2.542
X98.190Y-2.519
X98.235Y-2.495
X98.281Y-2.471
X98.326Y-2.446
X98.370Y-2.421
X98.415Y-2.395
X98.459Y-2.368
X98.502Y-2.341
X98.546Y-2.314
X98.589Y-2.286
X98.631Y-2.258
X98.673Y-2.229
X98.715Y-2.199
X98.757Y-2.170
X98.798Y-2.139
X98.839Y-2.108
X98.879Y-2.077
X98.919Y-2.045
X98.959Y-2.013
X98.998Y-1.980
X99.036Y-1.947
X99.075Y-1.913
X99.113Y-1.879
X99.150Y-1.845
X99.188Y-1.810
X99.224Y-1.774
X99.260Y-1.738
X99.296Y-1.702
X99.332Y-1.665
X99.367Y-1.628
X99.401Y-1.591
X99.435Y-1.553
X99.469Y-1.514
X99.502Y-1.476
X99.535Y-1.436
X99.567Y-1.397
X99.599Y-1.357
X99.630Y-1.317
X99.661Y-1.276
X99.692Y-1.235
X99.721Y-1.193
X99.751Y-1.151
X99.780Y-1.109
X99.808Y-1.067
X99.836Y-1.024
X99.863Y-0.980
X99.890Y-0.937
X99.917Y-0.893
X99.943Y-0.848
X99.968Y-0.804
X99.993Y-0.759
X100.017Y-0.713
X100.041Y-0.668
X100.064Y-0.622
X100.087Y-0.575
X100.109Y-0.529
X100.130Y-0.482
X100.151Y-0.434
X100.172Y-0.387
X100.192Y-0.339
X100.211Y-0.291
X100.230Y-0.243
X100.248Y-0.194
X100.266Y-0.145
X100.283Y-0.096
X100.299Y-0.046
X100.315Y0.004
X100.330Y0.054
X100.345Y0.104
X100.359Y0.155
X100.372Y0.206
X100.385Y0.257
X100.397Y0.308
X100.409Y0.359
X100.420Y0.411
X100.430Y0.463
X100.440Y0.515
X100.449Y0.568
X100.457Y0.621
X100.461Y0.647
X100.465Y0.673
X100.468Y0.700
X100.472Y0.727
X100.475Y0.753
X100.478Y0.780
X100.481Y0.807
X100.484Y0.833
X100.487Y0.860
X100.489Y0.887
X100.491Y0.914
X100.494Y0.941
X100.496Y0.968
X100.497Y0.995
X100.499Y1.022
X100.500Y1.049
X100.502Y1.076
X100.503Y1.104
X100.504Y1.131
X100.505Y1.158
X100.505Y1.186
X100.506Y1.213
X100.506Y1.241
X100.506Y1.268
X100.506Y1.296
X100.506Y1.323
X100.505Y1.350
X100.505Y1.378
X100.504Y1.405
X100.503Y1.432
X100.502Y1.460
X100.500Y1.487
X100.499Y1.514
X100.497Y1.541
X100.496Y1.568
X100.494Y1.595
X100.491Y1.622
X100.489Y1.649
X100.487Y1.676
X100.484Y1.703
X100.481Y1.730
X100.478Y1.756
X100.475Y1.783
X100.472Y1.810
X100.468Y1.836
X100.465Y1.863
X100.461Y1.889
X100.457Y1.916
X100.449Y1.968
X100.440Y2.021
X100.430Y2.073
X100.420Y2.125
X100.409Y2.177
X100.397Y2.228
X100.385Y2.280
X100.372Y2.331
X100.359Y2.381
X100.345Y2.432
X100.330Y2.482
X100.315Y2.532
X100.299Y2.582
X100.283Y2.632
X100.266Y2.681
X100.248Y2.730
X100.230Y2.779
X100.211Y2.827
X100.192Y2.875
X100.172Y2.923
X100.151Y2.971
X100.130Y3.018
X100.109Y3.065
X100.087Y3.111
X100.064Y3.158
X100.041Y3.204
X100.017Y3.249
X99.993Y3.295
X99.968Y3.340
X99.943Y3.384
X99.917Y3.429
X99.890Y3.473
X99.863Y3.516
X99.836Y3.560
X99.808Y3.603
X99.780Y3.645
X99.751Y3.687
X99.721Y3.729
X99.692Y3.771
X99.661Y3.812
X99.630Y3.853
X99.599Y3.893
X99.567Y3.933
X99.535Y3.973
X99.502Y4.012
X99.469Y4.051
X99.435Y4.089
X99.401Y4.127
X99.367Y4.164
X99.332Y4.202
X99.296Y4.238
X99.260Y4.275
X99.224Y4.310
X99.188Y4.346
X99.150Y4.381
X99.113Y4.415
X99.075Y4.449
X99.036Y4.483
X98.998Y4.516
X98.959Y4.549
X98.919Y4.581
X98.879Y4.613
X98.839Y4.644
X98.798Y4.675
X98.757Y4.706
X98.715Y4.735
X98.673Y4.765
X98.631Y4.794
X98.589Y4.822
X98.546Y4.850
X98.502Y4.878
X98.459Y4.904
X98.415Y4.931
X98.370Y4.957
X98.326Y4.982
X98.281Y5.007
X98.235Y5.031
X98.190Y5.055
X98.144Y5.078
X98.097Y5.101
X98.051Y5.123
X98.004Y5.144
X97.956Y5.165
X97.909Y5.186
X97.861Y5.206
X97.813Y5.225
X97.765Y5.244
X97.716Y5.262
X97.667Y5.280
X97.618Y5.297
X97.568Y5.313
X97.518Y5.329
X97.468Y5.344
X97.418Y5.359
X97.367Y5.373
X97.317Y5.386
X97.265Y5.399
X97.214Y5.411
X97.163Y5.423
X97.111Y5.434
X97.059Y5.444
X97.007Y5.454
X96.954Y5.463
X96.901Y5.471
X96.875Y5.475
X96.849Y5.479
X96.822Y5.482
X96.795Y5.486
X96.769Y5.489
X96.742Y5.492
X96.715Y5.495
X96.689Y5.498
X96.662Y5.501
X96.635Y5.503
X96.608Y5.506
X96.581Y5.508
X96.554Y5.510
X96.527Y5.511
X96.500Y5.513
X96.473Y5.515
X96.446Y5.516
X96.418Y5.517
X96.391Y5.518
X96.364Y5.519
X96.336Y5.519
X96.309Y5.520
X96.281Y5.520
X96.254Y5.520
X96.227Y5.520
X96.199Y5.520
X96.172Y5.519
X96.144Y5.519
X96.117Y5.518
X96.090Y5.517
X96.062Y5.516
X96.035Y5.515
X96.008Y5.513
X95.981Y5.511
X95.954Y5.510
X95.927Y5.508
X95.900Y5.506
X95.873Y5.503
X95.846Y5.501
X95.819Y5.498
X95.793Y5.495
X95.766Y5.492
X95.739Y5.489
X95.713Y5.486
X95.686Y5.482
X95.659Y5.479
X95.633Y5.475
X95.607Y5.471
X95.554Y5.463
X95.501Y5.454
X95.449Y5.444
X95.397Y5.434
X95.345Y5.423
X95.294Y5.411
X95.243Y5.399
X95.191Y5.386
X95.141Y5.373
X95.090Y5.359
X95.040Y5.344
X94.990Y5.329
X94.940Y5.313
X94.890Y5.297
X94.841Y5.280
X94.792Y5.262
X94.743Y5.244
X94.695Y5.225
X94.647Y5.206
X94.599Y5.186
X94.552Y5.165
X94.504Y5.144
X94.457Y5.123
X94.411Y5.101
X94.364Y5.078
X94.318Y5.055
X94.273Y5.031
X94.227Y5.007
X94.182Y4.982
X94.138Y4.957
X94.093Y4.931
X94.049Y4.904
X94.006Y4.878
X93.962Y4.850
X93.919Y4.822
X93.877Y4.794
X93.835Y4.765
X93.793Y4.735
X93.751Y4.706
X93.710Y4.675
X93.669Y4.644
X93.629Y4.613
X93.589Y4.581
X93.549Y4.549
X93.510Y4.516
X93.472Y4.483
X93.433Y4.449
X93.395Y4.415
X93.358Y4.381
X93.320Y4.346
X93.284Y4.310
X93.247Y4.275
X93.212Y4.238
X93.176Y4.202
X93.141Y4.164
X93.107Y4.127
X93.073Y4.089
X93.039Y4.051
X93.006Y4.012
X92.973Y3.973
X92.941Y3.933
X92.909Y3.893
X92.878Y3.853
X92.847Y3.812
X92.816Y3.771
X92.787Y3.729
X92.757Y3.687
X92.728Y3.645
X92.700Y3.603
X92.672Y3.560
X92.645Y3.516
X92.618Y3.473
X92.591Y3.429
X92.565Y3.384
X92.540Y3.340
X92.515Y3.295
X92.491Y3.249
X92.467Y3.204
X92.444Y3.158
X92.421Y3.111
X92.399Y3.065
X92.378Y3.018
X92.357Y2.971
X92.336Y2.923
X92.316Y2.875
X92.297Y2.827
X92.278Y2.779
X92.260Y2.730
X92.242Y2.681
X92.225Y2.632
X92.209Y2.582
X92.193Y2.532
X92.178Y2.482
X92.163Y2.432
X92.149Y2.381
X92.136Y2.331
X92.123Y2.280
X92.111Y2.228
X92.099Y2.177
X92.088Y2.125
X92.078Y2.073
X92.068Y2.021
X92.059Y1.968
X92.051Y1.916
X92.047Y1.889
X92.043Y1.863
X92.040Y1.836
X92.036Y1.810
X92.033Y1.783
X92.030Y1.756
X92.027Y1.730
X92.024Y1.703
X92.021Y1.676
X92.019Y1.649
X92.017Y1.622
X92.014Y1.595
X92.012Y1.568
X92.011Y1.541
X92.009Y1.514
X92.008Y1.487
X92.006Y1.460
X92.005Y1.432
X92.004Y1.405
X92.003Y1.378
X92.003Y1.350
X92.002Y1.323
X92.002Y1.296
X92.002Y1.268
X92.002Y1.241
X92.002Y1.213
G0Z5.080
G0X93.630Y-16.799
G1Z-1.000F304.8
G1X93.452Y-16.815F1016.0
X93.275Y-16.832
X93.098Y-16.850
X92.921Y-16.869
X92.744Y-16.889
X92.568Y-16.909
X92.392Y-16.930
X92.216Y-16.952
X92.040Y-16.975
X91.865Y-16.999
X91.689Y-17.024
X91.515Y-17.049
X91.340Y-17.075
X91.165Y-17.102
X90.991Y-17.130
X90.817Y-17.158
X90.643Y-17.188
X90.470Y-17.218
X90.297Y-17.249
X90.124Y-17.281
X89.951Y-17.313
X89.779Y-17.347
X89.607Y-17.381
X89.435Y-17.416
X89.263Y-17.451
X89.092Y-17.488
X88.921Y-17.525
X88.750Y-17.563
X88.580Y-17.602
X88.410Y-17.642
X88.240Y-17.682
X88.070Y-17.723
X87.901Y-17.765
X87.732Y-17.808
X87.563Y-17.851
X87.395Y-17.895
X87.226Y-17.940
X87.059Y-17.986
X86.891Y-18.032
X86.724Y-18.080
X86.557Y-18.128
X86.390Y-18.176
X86.224Y-18.226
X86.058Y-18.276
X85.892Y-18.327
X85.727Y-18.379
X85.562Y-18.431
X85.397Y-18.485
X85.233Y-18.539
X85.069Y-18.593
X84.905Y-18.649
X84.741Y-18.705
X84.578Y-18.762
X84.415Y-18.820
X84.253Y-18.878
X84.279Y-18.994
X84.305Y-19.110
X84.332Y-19.225
X84.361Y-19.340
X84.390Y-19.455
X84.419Y-19.569
X84.450Y-19.683
X84.482Y-19.796
X84.514Y-19.909
X84.547Y-20.021
X84.581Y-20.133
X84.616Y-20.245
X84.652Y-20.356
X84.689Y-20.467
X84.726Y-20.577
X84.764Y-20.687
X84.803Y-20.796
X84.843Y-20.905
X84.883Y-21.014
X84.925Y-21.122
X84.967Y-21.229
X85.010Y-21.336
X85.054Y-21.443
X85.098Y-21.549
X85.143Y-21.655
X85.189Y-21.760
X85.236Y-21.865
X85.284Y-21.969
X85.332Y-22.073
X85.381Y-22.176
X85.431Y-22.279
X85.482Y-22.382
X85.533Y-22.484
X85.585Y-22.585
X85.638Y-22.686
X85.691Y-22.786
X85.746Y-22.886
X85.801Y-22.985
X85.856Y-23.084
X85.913Y-23.183
X85.970Y-23.280
X86.028Y-23.378
X86.086Y-23.475
X86.146Y-23.571
X86.205Y-23.667
X86.266Y-23.762
X86.327Y-23.856
X86.389Y-23.951
X86.452Y-24.044
X86.515Y-24.137
X86.579Y-24.230
X86.644Y-24.322
X86.709Y-24.413
X86.776Y-24.504
X86.842Y-24.594
X86.909Y-24.684
X86.977Y-24.773
X87.046Y-24.862
X87.115Y-24.950
X87.185Y-25.037
X87.256Y-25.124
X87.327Y-25.210
X87.399Y-25.296
X87.471Y-25.381
X87.544Y-25.466
X87.618Y-25.550
X87.692Y-25.633
X87.767Y-25.716
X87.842Y-25.798
X87.918Y-25.880
X87.995Y-25.961
X88.072Y-26.041
X88.150Y-26.121
X88.228Y-26.200
X88.307Y-26.279
X88.386Y-26.357
X88.467Y-26.434
X88.547Y-26.511
X88.628Y-26.587
X88.710Y-26.662
X88.792Y-26.737
X88.875Y-26.811
X88.959Y-26.885
X89.043Y-26.957
X89.127Y-27.030
X89.212Y-27.101
X89.298Y-27.172
X89.384Y-27.242
X89.470Y-27.312
X89.557Y-27.381
X89.645Y-27.449
X89.733Y-27.517
X89.822Y-27.584
X89.911Y-27.650
X90.000Y-27.716
X90.090Y-27.781
X90.181Y-27.845
X90.272Y-27.909
X90.364Y-27.972
X90.456Y-28.034
X90.548Y-28.095
X90.641Y-28.156
X90.734Y-28.216
X90.828Y-28.276
X90.923Y-28.334
X91.017Y-28.392
X91.113Y-28.450
X91.208Y-28.506
X91.304Y-28.562
X91.401Y-28.617
X91.498Y-28.672
X91.595Y-28.725
X91.693Y-28.778
X91.792Y-28.831
X91.890Y-28.882
X91.989Y-28.933
X92.089Y-28.983
X92.189Y-29.032
X92.289Y-29.081
X92.390Y-29.129
X92.491Y-29.176
X92.592Y-29.222
X92.694Y-29.268
X92.796Y-29.312
X92.899Y-29.356
X93.002Y-29.400
X93.105Y-29.442
X93.209Y-29.484
X93.299Y-29.407
X93.389Y-29.330
X93.479Y-29.253
X93.570Y-29.177
X93.660Y-29.101
X93.752Y-29.026
X93.843Y-28.950
X93.934Y-28.875
X94.026Y-28.801
X94.118Y-28.726
X94.211Y-28.652
X94.303Y-28.579
X94.396Y-28.505
X94.490Y-28.432
X94.583Y-28.359
X94.677Y-28.287
X94.771Y-28.215
X94.865Y-28.143
X94.959Y-28.071
X95.054Y-28.000
X95.149Y-27.929
X95.244Y-27.859
X95.340Y-27.789
X95.435Y-27.719
X95.531Y-27.649
X95.627Y-27.580
X95.724Y-27.511
X95.820Y-27.443
X95.917Y-27.375
X96.015Y-27.307
X96.112Y-27.239
X96.210Y-27.172
X96.308Y-27.105
X96.406Y-27.039
X96.504Y-26.972
X96.603Y-26.907
X96.702Y-26.841
X96.801Y-26.776
X96.900Y-26.711
X97.000Y-26.647
X97.100Y-26.582
X97.200Y-26.519
X97.300Y-26.455
X97.401Y-26.392
X97.502Y-26.329
X97.603Y-26.267
X97.704Y-26.205
X97.805Y-26.143
X97.907Y-26.082
X98.009Y-26.021
X98.111Y-25.960
X98.214Y-25.900
X98.317Y-25.840
X98.419Y-25.781
X98.523Y-25.721
X98.626Y-25.663
X98.730Y-25.604
X98.833Y-25.546
X98.937Y-25.488
X99.042Y-25.431
X99.146Y-25.374
X99.251Y-25.317
X99.356Y-25.261
X99.461Y-25.205
X99.411Y-25.148
X99.362Y-25.090
X99.313Y-25.033
X99.264Y-24.975
X99.216Y-24.917
X99.167Y-24.859
X99.119Y-24.801
X99.071Y-24.743
X99.024Y-24.684
X98.976Y-24.625
X98.929Y-24.566
X98.882Y-24.507
X98.836Y-24.448
X98.789Y-24.388
X98.743Y-24.329
X98.697Y-24.269
X98.652Y-24.209
X98.606Y-24.149
X98.517Y-24.028
X98.428Y-23.906
X98.340Y-23.784
X98.253Y-23.661
X98.167Y-23.538
X98.082Y-23.414
X97.998Y-23.289
X97.916Y-23.164
X97.834Y-23.038
X97.753Y-22.911
X97.673Y-22.784
X97.595Y-22.656
X97.517Y-22.527
X97.441Y-22.398
X97.365Y-22.269
X97.291Y-22.139
X97.217Y-22.008
X97.145Y-21.877
X97.074Y-21.745
X97.004Y-21.612
X96.934Y-21.480
X96.866Y-21.346
X96.799Y-21.212
X96.733Y-21.078
X96.669Y-20.943
X96.605Y-20.807
X96.542Y-20.671
X96.481Y-20.535
X96.420Y-20.398
X96.361Y-20.260
X96.302Y-20.122
X96.245Y-19.984
X96.189Y-19.845
X96.134Y-19.706
X96.080Y-19.566
X96.027Y-19.426
X95.976Y-19.285
X95.925Y-19.144
X95.875Y-19.003
X95.827Y-18.861
X95.780Y-18.719
X95.734Y-18.576
X95.689Y-18.433
X95.645Y-18.290
X95.602Y-18.146
X95.561Y-18.002
X95.520Y-17.857
X95.481Y-17.712
X95.443Y-17.567
X95.406Y-17.421
X95.370Y-17.276
X95.335Y-17.129
X95.302Y-16.983
X95.269Y-16.836
X95.238Y-16.689
X95.058Y-16.698
X94.879Y-16.707
X94.700Y-16.718
X94.521Y-16.729
X94.342Y-16.741
X94.164Y-16.754
X93.986Y-16.768
X93.808Y-16.783
X93.630Y-16.799
G1Z-2.000F304.8
G1X93.452Y-16.815F1016.0
X93.275Y-16.832
X93.098Y-16.850
X92.921Y-16.869
X92.744Y-16.889
X92.568Y-16.909
X92.392Y-16.930
X92.216Y-16.952
X92.040Y-16.975
X91.865Y-16.999
X91.689Y-17.024
X91.515Y-17.049
X91.340Y-17.075
X91.165Y-17.102
X90.991Y-17.130
X90.817Y-17.158
X90.643Y-17.188
X90.470Y-17.218
X90.297Y-17.249
X90.124Y-17.281
X89.951Y-17.313
X89.779Y-17.347
X89.607Y-17.381
X89.435Y-17.416
X89.263Y-17.451
X89.092Y-17.488
X88.921Y-17.525
X88.750Y-17.563
X88.580Y-17.602
X88.410Y-17.642
X88.240Y-17.682
X88.070Y-17.723
X87.901Y-17.765
X87.732Y-17.808
X87.563Y-17.851
X87.395Y-17.895
X87.226Y-17.940
X87.059Y-17.986
X86.891Y-18.032
X86.724Y-18.080
X86.557Y-18.128
X86.390Y-18.176
X86.224Y-18.226
X86.058Y-18.276
X85.892Y-18.327
X85.727Y-18.379
X85.562Y-18.431
X85.397Y-18.485
X85.233Y-18.539
X85.069Y-18.593
X84.905Y-18.649
X84.741Y-18.705
X84.578Y-18.762
X84.415Y-18.820
X84.253Y-18.878
X84.279Y-18.994
X84.305Y-19.110
X84.332Y-19.225
X84.361Y-19.340
X84.390Y-19.455
X84.419Y-19.569
X84.450Y-19.683
X84.482Y-19.796
X84.514Y-19.909
X84.547Y-20.021
X84.581Y-20.133
X84.616Y-20.245
X84.652Y-20.356
X84.689Y-20.467
X84.726Y-20.577
X84.764Y-20.687
X84.803Y-20.796
X84.843Y-20.905
X84.883Y-21.014
X84.925Y-21.122
X84.967Y-21.229
X85.010Y-21.336
X85.054Y-21.443
X85.098Y-21.549
X85.143Y-21.655
X85.189Y-21.760
X85.236Y-21.865
X85.284Y-21.969
X85.332Y-22.073
X85.381Y-22.176
X85.431Y-22.279
X85.482Y-22.382
X85.533Y-22.484
X85.585Y-22.585
X85.638Y-22.686
X85.691Y-22.786
X85.746Y-22.886
X85.801Y-22.985
X85.856Y-23.084
X85.913Y-23.183
X85.970Y-23.280
X86.028Y-23.378
X86.086Y-23.475
X86.146Y-23.571
X86.205Y-23.667
X86.266Y-23.762
X86.327Y-23.856
X86.389Y-23.951
X86.452Y-24.044
X86.515Y-24.137
X86.579Y-24.230
X86.644Y-24.322
X86.709Y-24.413
X86.776Y-24.504
X86.842Y-24.594
X86.909Y-24.684
X86.977Y-24.773
X87.046Y-24.862
X87.115Y-24.950
X87.185Y-25.037
X87.256Y-25.124
X87.327Y-25.210
X87.399Y-25.296
X87.471Y-25.381
X87.544Y-25.466
X87.618Y-25.550
X87.692Y-25.633
X87.767Y-25.716
X87.842Y-25.798
X87.918Y-25.880
X87.995Y-25.961
X88.072Y-26.041
X88.150Y-26.121
X88.228Y-26.200
X88.307Y-26.279
X88.386Y-26.357
X88.467Y-26.434
X88.547Y-26.511
X88.628Y-26.587
X88.710Y-26.662
X88.792Y-26.737
X88.875Y-26.811
X88.959Y-26.885
X89.043Y-26.957
X89.127Y-27.030
X89.212Y-27.101
X89.298Y-27.172
X89.384Y-27.242
X89.470Y-27.312
X89.557Y-27.381
X89.645Y-27.449
X89.733Y-27.517
X89.822Y-27.584
X89.911Y-27.650
X90.000Y-27.716
X90.090Y-27.781
X90.181Y-27.845
X90.272Y-27.909
X90.364Y-27.972
X90.456Y-28.034
X90.548Y-28.095
X90.641Y-28.156
X90.734Y-28.216
X90.828Y-28.276
X90.923Y-28.334
X91.017Y-28.392
X91.113Y-28.450
X91.208Y-28.506
X91.304Y-28.562
X91.401Y-28.617
X91.498Y-28.672
X91.595Y-28.725
X91.693Y-28.778
X91.792Y-28.831
X91.890Y-28.882
X91.989Y-28.933
X92.089Y-28.983
X92.189Y-29.032
X92.289Y-29.081
X92.390Y-29.129
X92.491Y-29.176
X92.592Y-29.222
X92.694Y-29.268
X92.796Y-29.312
X92.899Y-29.356
X93.002Y-29.400
X93.105Y-29.442
X93.209Y-29.484
X93.299Y-29.407
X93.389Y-29.330
X93.479Y-29.253
X93.570Y-29.177
X93.660Y-29.101
X93.752Y-29.026
X93.843Y-28.950
X93.934Y-28.875
X94.026Y-28.801
X94.118Y-28.726
X94.211Y-28.652
X94.303Y-28.579
X94.396Y-28.505
X94.490Y-28.432
X94.583Y-28.359
X94.677Y-28.287
X94.771Y-28.215
X94.865Y-28.143
X94.959Y-28.071
X95.054Y-28.000
X95.149Y-27.929
X95.244Y-27.859
X95.340Y-27.789
X95.435Y-27.719
X95.531Y-27.649
X95.627Y-27.580
X95.724Y-27.511
X95.820Y-27.443
X95.917Y-27.375
X96.015Y-27.307
X96.112Y-27.239
X96.210Y-27.172
X96.308Y-27.105
X96.406Y-27.039
X96.504Y-26.972
X96.603Y-26.907
X96.702Y-26.841
X96.801Y-26.776
X96.900Y-26.711
X97.000Y-26.647
X97.100Y-26.582
X97.200Y-26.519
X97.300Y-26.455
X97.401Y-26.392
X97.502Y-26.329
X97.603Y-26.267
X97.704Y-26.205
X97.805Y-26.143
X97.907Y-26.082
X98.009Y-26.021
X98.111Y-25.960
X98.214Y-25.900
X98.317Y-25.840
X98.419Y-25.781
X98.523Y-25.721
X98.626Y-25.663
X98.730Y-25.604
X98.833Y-25.546
X98.937Y-25.488
X99.042Y-25.431
X99.146Y-25.374
X99.251Y-25.317
X99.356Y-25.261
X99.461Y-25.205
X99.411Y-25.148
X99.362Y-25.090
X99.313Y-25.033
X99.264Y-24.975
X99.216Y-24.917
X99.167Y-24.859
X99.119Y-24.801
X99.071Y-24.743
X99.024Y-24.684
X98.976Y-24.625
X98.929Y-24.566
X98.882Y-24.507
X98.836Y-24.448
X98.789Y-24.388
X98.743Y-24.329
X98.697Y-24.269
X98.652Y-24.209
X98.606Y-24.149
X98.517Y-24.028
X98.428Y-23.906
X98.340Y-23.784
X98.253Y-23.661
X98.167Y-23.538
X98.082Y-23.414
X97.998Y-23.289
X97.916Y-23.164
X97.834Y-23.038
X97.753Y-22.911
X97.673Y-22.784
X97.595Y-22.656
X97.517Y-22.527
X97.441Y-22.398
X97.365Y-22.269
X97.291Y-22.139
X97.217Y-22.008
X97.145Y-21.877
X97.074Y-21.745
X97.004Y-21.612
X96.934Y-21.480
X96.866Y-21.346
X96.799Y-21.212
X96.733Y-21.078
X96.669Y-20.943
X96.605Y-20.807
X96.542Y-20.671
X96.481Y-20.535
X96.420Y-20.398
X96.361Y-20.260
X96.302Y-20.122
X96.245Y-19.984
X96.189Y-19.845
X96.134Y-19.706
X96.080Y-19.566
X96.027Y-19.426
X95.976Y-19.285
X95.925Y-19.144
X95.875Y-19.003
X95.827Y-18.861
X95.780Y-18.719
X95.734Y-18.576
X95.689Y-18.433
X95.645Y-18.290
X95.602Y-18.146
X95.561Y-18.002
X95.520Y-17.857
X95.481Y-17.712
X95.443Y-17.567
X95.406Y-17.421
X95.370Y-17.276
X95.335Y-17.129
X95.302Y-16.983
X95.269Y-16.836
X95.238Y-16.689
X95.058Y-16.698
X94.879Y-16.707
X94.700Y-16.718
X94.521Y-16.729
X94.342Y-16.741
X94.164Y-16.754
X93.986Y-16.768
X93.808Y-16.783
X93.630Y-16.799
G0Z5.080
G0X99.373Y-16.734
G1Z-1.000F304.8
G1X99.374Y-16.736F1016.0
X99.375Y-16.741
X99.381Y-16.764
X99.406Y-16.853
X99.431Y-16.942
X99.457Y-17.031
X99.483Y-17.119
X99.510Y-17.208
X99.537Y-17.296
X99.565Y-17.384
X99.594Y-17.472
X99.623Y-17.560
X99.652Y-17.647
X99.683Y-17.735
X99.713Y-17.822
X99.744Y-17.909
X99.776Y-17.995
X99.808Y-18.082
X99.841Y-18.168
X99.875Y-18.254
X99.909Y-18.340
X99.943Y-18.426
X99.978Y-18.511
X100.013Y-18.596
X100.049Y-18.681
X100.086Y-18.766
X100.123Y-18.850
X100.160Y-18.935
X100.199Y-19.019
X100.237Y-19.102
X100.276Y-19.186
X100.316Y-19.269
X100.356Y-19.352
X100.397Y-19.435
X100.438Y-19.518
X100.480Y-19.600
X100.522Y-19.682
X100.565Y-19.764
X100.608Y-19.845
X100.652Y-19.927
X100.696Y-20.008
X100.741Y-20.088
X100.786Y-20.169
X100.832Y-20.249
X100.879Y-20.329
X100.925Y-20.408
X100.973Y-20.488
X101.021Y-20.567
X101.069Y-20.645
X101.118Y-20.724
X101.167Y-20.802
X101.217Y-20.880
X101.267Y-20.958
X101.318Y-21.035
X101.370Y-21.112
X101.422Y-21.189
X101.474Y-21.265
X101.527Y-21.341
X101.580Y-21.417
X101.634Y-21.492
X101.688Y-21.567
X101.743Y-21.642
X101.798Y-21.716
X101.854Y-21.791
X101.910Y-21.864
X101.967Y-21.938
X102.024Y-22.011
X102.082Y-22.084
X102.140Y-22.156
X102.199Y-22.229
X102.258Y-22.300
X102.318Y-22.372
X102.378Y-22.443
X102.439Y-22.514
X102.500Y-22.584
X102.561Y-22.654
X102.623Y-22.724
X102.686Y-22.793
X102.749Y-22.862
X102.812Y-22.931
X102.876Y-22.999
X102.941Y-23.067
X103.006Y-23.134
X103.071Y-23.201
X103.137Y-23.268
X103.203Y-23.334
X103.270Y-23.400
X103.337Y-23.466
X103.477Y-23.414
X103.617Y-23.362
X103.756Y-23.311
X103.896Y-23.261
X104.036Y-23.212
X104.175Y-23.163
X104.315Y-23.115
X104.455Y-23.067
X104.594Y-23.020
X104.734Y-22.974
X104.874Y-22.929
X105.013Y-22.884
X105.153Y-22.840
X105.292Y-22.797
X105.432Y-22.754
X105.571Y-22.712
X105.711Y-22.671
X105.850Y-22.630
X105.990Y-22.590
X106.129Y-22.551
X106.269Y-22.512
X106.408Y-22.474
X106.547Y-22.437
X106.687Y-22.400
X106.826Y-22.364
X106.966Y-22.328
X107.105Y-22.294
X107.244Y-22.259
X107.384Y-22.226
X107.523Y-22.193
X107.663Y-22.161
X107.802Y-22.129
X107.941Y-22.098
X108.081Y-22.068
X108.220Y-22.039
X108.359Y-22.010
X108.499Y-21.981
X108.638Y-21.953
X108.777Y-21.926
X108.917Y-21.900
X109.056Y-21.874
X109.196Y-21.849
X109.335Y-21.824
X109.474Y-21.800
X109.614Y-21.776
X109.753Y-21.754
X109.893Y-21.731
X110.032Y-21.710
X110.171Y-21.689
X110.311Y-21.669
X110.450Y-21.649
X110.590Y-21.630
X110.729Y-21.611
X110.869Y-21.593
X111.008Y-21.576
X111.148Y-21.559
X111.287Y-21.543
X111.427Y-21.527
X111.566Y-21.512
X111.706Y-21.498
X111.845Y-21.484
X111.985Y-21.470
X112.125Y-21.458
X112.264Y-21.446
X112.404Y-21.434
X112.543Y-21.423
X112.683Y-21.413
X112.823Y-21.403
X112.963Y-21.394
X113.102Y-21.385
X113.242Y-21.377
X113.382Y-21.369
X113.522Y-21.362
X113.662Y-21.356
X113.802Y-21.350
X113.942Y-21.344
X114.082Y-21.340
X114.221Y-21.335
X114.362Y-21.332
X114.502Y-21.329
X114.642Y-21.326
X114.782Y-21.324
X114.922Y-21.322
X115.062Y-21.321
X115.202Y-21.321
X115.237Y-21.321
X115.246Y-21.321
X115.248
X115.249
X115.247Y-21.320
X115.242Y-21.317
X115.221Y-21.305
X115.136Y-21.259
X114.966Y-21.166
X114.796Y-21.074
X114.625Y-20.984
X114.454Y-20.894
X114.282Y-20.805
X114.110Y-20.717
X113.937Y-20.629
X113.764Y-20.543
X113.590Y-20.458
X113.416Y-20.373
X113.242Y-20.290
X113.067Y-20.207
X112.891Y-20.125
X112.716Y-20.045
X112.539Y-19.965
X112.363Y-19.886
X112.185Y-19.808
X112.008Y-19.731
X111.830Y-19.654
X111.652Y-19.579
X111.473Y-19.505
X111.294Y-19.431
X111.114Y-19.359
X110.934Y-19.287
X110.753Y-19.217
X110.573Y-19.147
X110.391Y-19.078
X110.210Y-19.010
X110.028Y-18.943
X109.845Y-18.877
X109.662Y-18.812
X109.479Y-18.748
X109.296Y-18.685
X109.112Y-18.623
X108.927Y-18.562
X108.743Y-18.501
X108.558Y-18.442
X108.372Y-18.384
X108.187Y-18.326
X108.000Y-18.270
X107.814Y-18.214
X107.627Y-18.159
X107.440Y-18.106
X107.252Y-18.053
X107.065Y-18.001
X106.876Y-17.950
X106.688Y-17.901
X106.499Y-17.852
X106.310Y-17.804
X106.120Y-17.757
X105.930Y-17.711
X105.740Y-17.666
X105.550Y-17.622
X105.359Y-17.579
X105.168Y-17.536
X104.976Y-17.495
X104.785Y-17.455
X104.593Y-17.416
X104.400Y-17.378
X104.208Y-17.340
X104.015Y-17.304
X103.822Y-17.269
X103.628Y-17.235
X103.435Y-17.201
X103.241Y-17.169
X103.046Y-17.137
X102.852Y-17.107
X102.657Y-17.078
X102.462Y-17.049
X102.266Y-17.022
X102.071Y-16.995
X101.875Y-16.970
X101.679Y-16.945
X101.482Y-16.922
X101.286Y-16.900
X101.089Y-16.878
X100.892Y-16.858
X100.694Y-16.838
X100.497Y-16.820
X100.299Y-16.802
X100.101Y-16.786
X99.903Y-16.770
X99.704Y-16.756
X99.506Y-16.742
X99.406Y-16.736
X99.381Y-16.734
X99.375Y-16.734
X99.374Y-16.734
X99.373Y-16.734
G1X99.373Y-16.734Z-2.000F304.8
G1X99.374Y-16.736F1016.0
X99.375Y-16.741
X99.381Y-16.764
X99.406Y-16.853
X99.431Y-16.942
X99.457Y-17.031
X99.483Y-17.119
X99.510Y-17.208
X99.537Y-17.296
X99.565Y-17.384
X99.594Y-17.472
X99.623Y-17.560
X99.652Y-17.647
X99.683Y-17.735
X99.713Y-17.822
X99.744Y-17.909
X99.776Y-17.995
X99.808Y-18.082
X99.841Y-18.168
X99.875Y-18.254
X99.909Y-18.340
X99.943Y-18.426
X99.978Y-18.511
X100.013Y-18.596
X100.049Y-18.681
X100.086Y-18.766
X100.123Y-18.850
X100.160Y-18.935
X100.199Y-19.019
X100.237Y-19.102
X100.276Y-19.186
X100.316Y-19.269
X100.356Y-19.352
X100.397Y-19.435
X100.438Y-19.518
X100.480Y-19.600
X100.522Y-19.682
X100.565Y-19.764
X100.608Y-19.845
X100.652Y-19.927
X100.696Y-20.008
X100.741Y-20.088
X100.786Y-20.169
X100.832Y-20.249
X100.879Y-20.329
X100.925Y-20.408
X100.973Y-20.488
X101.021Y-20.567
X101.069Y-20.645
X101.118Y-20.724
X101.167Y-20.802
X101.217Y-20.880
X101.267Y-20.958
X101.318Y-21.035
X101.370Y-21.112
X101.422Y-21.189
X101.474Y-21.265
X101.527Y-21.341
X101.580Y-21.417
X101.634Y-21.492
X101.688Y-21.567
X101.743Y-21.642
X101.798Y-21.716
X101.854Y-21.791
X101.910Y-21.864
X101.967Y-21.938
X102.024Y-22.011
X102.082Y-22.084
X102.140Y-22.156
X102.199Y-22.229
X102.258Y-22.300
X102.318Y-22.372
X102.378Y-22.443
X102.439Y-22.514
X102.500Y-22.584
X102.561Y-22.654
X102.623Y-22.724
X102.686Y-22.793
X102.749Y-22.862
X102.812Y-22.931
X102.876Y-22.999
X102.941Y-23.067
X103.006Y-23.134
X103.071Y-23.201
X103.137Y-23.268
X103.203Y-23.334
X103.270Y-23.400
X103.337Y-23.466
X103.477Y-23.414
X103.617Y-23.362
X103.756Y-23.311
X103.896Y-23.261
X104.036Y-23.212
X104.175Y-23.163
X104.315Y-23.115
X104.455Y-23.067
X104.594Y-23.020
X104.734Y-22.974
X104.874Y-22.929
X105.013Y-22.884
X105.153Y-22.840
X105.292Y-22.797
X105.432Y-22.754
X105.571Y-22.712
X105.711Y-22.671
X105.850Y-22.630
X105.990Y-22.590
X106.129Y-22.551
X106.269Y-22.512
X106.408Y-22.474
X106.547Y-22.437
X106.687Y-22.400
X106.826Y-22.364
X106.966Y-22.328
X107.105Y-22.294
X107.244Y-22.259
X107.384Y-22.226
X107.523Y-22.193
X107.663Y-22.161
X107.802Y-22.129
X107.941Y-22.098
X108.081Y-22.068
X108.220Y-22.039
X108.359Y-22.010
X108.499Y-21.981
X108.638Y-21.953
X108.777Y-21.926
X108.917Y-21.900
X109.056Y-21.874
X109.196Y-21.849
X109.335Y-21.824
X109.474Y-21.800
X109.614Y-21.776
X109.753Y-21.754
X109.893Y-21.731
X110.032Y-21.710
X110.171Y-21.689
X110.311Y-21.669
X110.450Y-21.649
X110.590Y-21.630
X110.729Y-21.611
X110.869Y-21.593
X111.008Y-21.576
X111.148Y-21.559
X111.287Y-21.543
X111.427Y-21.527
X111.566Y-21.512
X111.706Y-21.498
X111.845Y-21.484
X111.985Y-21.470
X112.125Y-21.458
X112.264Y-21.446
X112.404Y-21.434
X112.543Y-21.423
X112.683Y-21.413
X112.823Y-21.403
X112.963Y-21.394
X113.102Y-21.385
X113.242Y-21.377
X113.382Y-21.369
X113.522Y-21.362
X113.662Y-21.356
X113.802Y-21.350
X113.942Y-21.344
X114.082Y-21.340
X114.221Y-21.335
X114.362Y-21.332
X114.502Y-21.329
X114.642Y-21.326
X114.782Y-21.324
X114.922Y-21.322
X115.062Y-21.321
X115.202Y-21.321
X115.237Y-21.321
X115.246Y-21.321
X115.248
X115.249
X115.247Y-21.320
X115.242Y-21.317
X115.221Y-21.305
X115.136Y-21.259
X114.966Y-21.166
X114.796Y-21.074
X114.625Y-20.984
X114.454Y-20.894
X114.282Y-20.805
X114.110Y-20.717
X113.937Y-20.629
X113.764Y-20.543
X113.590Y-20.458
X113.416Y-20.373
X113.242Y-20.290
X113.067Y-20.207
X112.891Y-20.125
X112.716Y-20.045
X112.539Y-19.965
X112.363Y-19.886
X112.185Y-19.808
X112.008Y-19.731
X111.830Y-19.654
X111.652Y-19.579
X111.473Y-19.505
X111.294Y-19.431
X111.114Y-19.359
X110.934Y-19.287
X110.753Y-19.217
X110.573Y-19.147
X110.391Y-19.078
X110.210Y-19.010
X110.028Y-18.943
X109.845Y-18.877
X109.662Y-18.812
X109.479Y-18.748
X109.296Y-18.685
X109.112Y-18.623
X108.927Y-18.562
X108.743Y-18.501
X108.558Y-18.442
X108.372Y-18.384
X108.187Y-18.326
X108.000Y-18.270
X107.814Y-18.214
X107.627Y-18.159
X107.440Y-18.106
X107.252Y-18.053
X107.065Y-18.001
X106.876Y-17.950
X106.688Y-17.901
X106.499Y-17.852
X106.310Y-17.804
X106.120Y-17.757
X105.930Y-17.711
X105.740Y-17.666
X105.550Y-17.622
X105.359Y-17.579
X105.168Y-17.536
X104.976Y-17.495
X104.785Y-17.455
X104.593Y-17.416
X104.400Y-17.378
X104.208Y-17.340
X104.015Y-17.304
X103.822Y-17.269
X103.628Y-17.235
X103.435Y-17.201
X103.241Y-17.169
X103.046Y-17.137
X102.852Y-17.107
X102.657Y-17.078
X102.462Y-17.049
X102.266Y-17.022
X102.071Y-16.995
X101.875Y-16.970
X101.679Y-16.945
X101.482Y-16.922
X101.286Y-16.900
X101.089Y-16.878
X100.892Y-16.858
X100.694Y-16.838
X100.497Y-16.820
X100.299Y-16.802
X100.101Y-16.786
X99.903Y-16.770
X99.704Y-16.756
X99.506Y-16.742
X99.406Y-16.736
X99.381Y-16.734
X99.375Y-16.734
X99.374Y-16.734
X99.373Y-16.734
G0X99.373Y-16.734Z5.080
G0X90.155Y-32.476
G1Z-1.000F304.8
G1X90.039Y-32.416F1016.0
X89.923Y-32.356
X89.808Y-32.294
X89.693Y-32.232
X89.579Y-32.170
X89.466Y-32.107
X89.353Y-32.043
X89.241Y-31.978
X89.130Y-31.913
X89.019Y-31.847
X88.909Y-31.781
X88.799Y-31.713
X88.690Y-31.646
X88.582Y-31.577
X88.474Y-31.508
X88.367Y-31.438
X88.260Y-31.368
X88.154Y-31.297
X88.049Y-31.225
X87.944Y-31.153
X87.840Y-31.080
X87.737Y-31.007
X87.634Y-30.933
X87.532Y-30.858
X87.430Y-30.783
X87.329Y-30.707
X87.229Y-30.631
X87.129Y-30.554
X87.030Y-30.476
X86.932Y-30.398
X86.834Y-30.319
X86.737Y-30.240
X86.641Y-30.160
X86.545Y-30.079
X86.450Y-29.998
X86.355Y-29.917
X86.261Y-29.835
X86.168Y-29.752
X86.075Y-29.669
X85.983Y-29.585
X85.892Y-29.500
X85.801Y-29.415
X85.711Y-29.330
X85.621Y-29.244
X85.533Y-29.157
X85.445Y-29.070
X85.357Y-28.983
X85.270Y-28.895
X85.184Y-28.806
X85.099Y-28.717
X85.014Y-28.627
X84.930Y-28.537
X84.846Y-28.446
X84.763Y-28.355
X84.681Y-28.263
X84.599Y-28.171
X84.518Y-28.079
X84.438Y-27.985
X84.359Y-27.892
X84.280Y-27.798
X84.201Y-27.703
X84.124Y-27.608
X84.047Y-27.513
X83.971Y-27.417
X83.895Y-27.320
X83.820Y-27.223
X83.746Y-27.126
X83.673Y-27.028
X83.600Y-26.930
X83.527Y-26.831
X83.456Y-26.732
X83.385Y-26.632
X83.315Y-26.532
X83.245Y-26.432
X83.177Y-26.331
X83.109Y-26.229
X83.041Y-26.128
X82.974Y-26.026
X82.908Y-25.923
X82.843Y-25.820
X82.778Y-25.717
X82.714Y-25.613
X82.651Y-25.509
X82.588Y-25.404
X82.526Y-25.299
X82.465Y-25.193
X82.405Y-25.088
X82.345Y-24.982
X82.286Y-24.875
X82.227Y-24.768
X82.169Y-24.661
X82.112Y-24.553
X82.056Y-24.445
X82.000Y-24.337
X81.945Y-24.228
X81.891Y-24.119
X81.837Y-24.009
X81.785Y-23.899
X81.733Y-23.789
X81.681Y-23.679
X81.630Y-23.568
X81.580Y-23.457
X81.531Y-23.345
X81.482Y-23.233
X81.435Y-23.121
X81.387Y-23.009
X81.341Y-22.896
X81.295Y-22.783
X81.250Y-22.669
X81.206Y-22.555
X81.162Y-22.441
X81.120Y-22.327
X81.077Y-22.212
X81.036Y-22.097
X80.995Y-21.982
X80.955Y-21.867
X80.916Y-21.751
X80.878Y-21.635
X80.840Y-21.518
X80.803Y-21.402
X80.767Y-21.285
X80.731Y-21.168
X80.696Y-21.050
X80.662Y-20.932
X80.629Y-20.814
X80.596Y-20.696
X80.564Y-20.578
X80.533Y-20.459
X80.379Y-20.535
X80.225Y-20.611
X80.071Y-20.689
X79.918Y-20.767
X79.765Y-20.845
X79.613Y-20.925
X79.461Y-21.005
X79.310Y-21.085
X79.159Y-21.166
X79.008Y-21.248
X78.858Y-21.331
X78.708Y-21.414
X78.558Y-21.498
X78.409Y-21.583
X78.261Y-21.668
X78.112Y-21.754
X77.965Y-21.841
X77.817Y-21.928
X77.670Y-22.016
X77.524Y-22.104
X77.378Y-22.194
X77.232Y-22.284
X77.087Y-22.374
X76.942Y-22.465
X76.798Y-22.557
X76.654Y-22.649
X76.510Y-22.742
X76.367Y-22.836
X76.225Y-22.930
X76.083Y-23.025
X75.941Y-23.121
X75.800Y-23.217
X75.659Y-23.314
X75.519Y-23.411
X75.379Y-23.509
X75.239Y-23.608
X75.100Y-23.707
X74.962Y-23.807
X74.824Y-23.907
X74.686Y-24.008
X74.549Y-24.110
X74.413Y-24.212
X74.277Y-24.315
X74.141Y-24.419
X74.006Y-24.523
X73.871Y-24.628
X73.737Y-24.733
X73.603Y-24.839
X73.470Y-24.946
X73.337Y-25.053
X73.205Y-25.160
X73.073Y-25.269
X72.942Y-25.377
X72.811Y-25.487
X72.680Y-25.597
X72.551Y-25.707
X72.421Y-25.819
X72.292Y-25.930
X72.164Y-26.043
X72.036Y-26.156
X71.909Y-26.269
X71.782Y-26.383
X71.656Y-26.498
X71.530Y-26.613
X71.543Y-26.693
X71.557Y-26.774
X71.571Y-26.854
X71.585Y-26.934
X71.600Y-27.014
X71.616Y-27.093
X71.631Y-27.173
X71.648Y-27.252
X71.664Y-27.332
X71.681Y-27.411
X71.699Y-27.490
X71.717Y-27.568
X71.735Y-27.647
X71.754Y-27.725
X71.773Y-27.804
X71.792Y-27.882
X71.812Y-27.960
X71.833Y-28.037
X71.854Y-28.115
X71.875Y-28.192
X71.896Y-28.270
X71.918Y-28.347
X71.941Y-28.424
X71.964Y-28.500
X71.987Y-28.577
X72.011Y-28.653
X72.035Y-28.730
X72.059Y-28.806
X72.084Y-28.881
X72.109Y-28.957
X72.135Y-29.033
X72.161Y-29.108
X72.187Y-29.183
X72.214Y-29.258
X72.241Y-29.333
X72.269Y-29.407
X72.297Y-29.481
X72.325Y-29.556
X72.354Y-29.630
X72.383Y-29.703
X72.412Y-29.777
X72.442Y-29.850
X72.473Y-29.923
X72.503Y-29.996
X72.534Y-30.069
X72.566Y-30.142
X72.598Y-30.214
X72.630Y-30.286
X72.662Y-30.358
X72.695Y-30.430
X72.729Y-30.501
X72.762Y-30.573
X72.796Y-30.644
X72.831Y-30.715
X72.865Y-30.785
X72.900Y-30.856
X72.936Y-30.926
X72.972Y-30.996
X73.008Y-31.066
X73.045Y-31.136
X73.082Y-31.205
X73.119Y-31.274
X73.156Y-31.343
X73.194Y-31.412
X73.233Y-31.480
X73.272Y-31.549
X73.311Y-31.617
X73.350Y-31.684
X73.390Y-31.752
X73.430Y-31.819
X73.470Y-31.886
X73.511Y-31.953
X73.552Y-32.020
X73.594Y-32.086
X73.635Y-32.153
X73.678Y-32.218
X73.720Y-32.284
X73.763Y-32.350
X73.806Y-32.415
X73.850Y-32.480
X73.893Y-32.545
X73.938Y-32.609
X73.982Y-32.673
X74.027Y-32.737
X74.072Y-32.801
X74.118Y-32.864
X74.163Y-32.928
X74.210Y-32.991
X74.256Y-33.053
X74.303Y-33.116
X74.350Y-33.178
X74.397Y-33.240
X74.445Y-33.302
X74.493Y-33.363
X74.542Y-33.424
X74.590Y-33.485
X74.639Y-33.546
X74.689Y-33.606
X74.738Y-33.666
X74.788Y-33.726
X74.838Y-33.785
X74.889Y-33.845
X74.940Y-33.904
X74.991Y-33.962
X75.042Y-34.021
X75.094Y-34.079
X75.146Y-34.137
X75.199Y-34.195
X75.251Y-34.252
X75.304Y-34.309
X75.357Y-34.366
X75.411Y-34.422
X75.465Y-34.479
X75.519Y-34.535
X75.573Y-34.590
X75.628Y-34.646
X75.683Y-34.701
X75.738Y-34.755
X75.794Y-34.810
X75.850Y-34.864
X75.906Y-34.918
X75.962Y-34.972
X76.019Y-35.025
X76.076Y-35.078
X76.133Y-35.131
X76.191Y-35.183
X76.249Y-35.235
X76.307Y-35.287
X76.365Y-35.339
X76.424Y-35.390
X76.483Y-35.441
X76.542Y-35.491
X76.601Y-35.542
X76.661Y-35.592
X76.721Y-35.641
X76.781Y-35.691
X76.842Y-35.740
X76.903Y-35.788
X76.964Y-35.837
X77.025Y-35.885
X77.087Y-35.933
X77.148Y-35.980
X77.210Y-36.027
X77.273Y-36.074
X77.335Y-36.120
X77.398Y-36.167
X77.461Y-36.212
X77.525Y-36.258
X77.588Y-36.303
X77.652Y-36.348
X77.716Y-36.393
X77.780Y-36.437
X77.845Y-36.481
X77.910Y-36.524
X77.975Y-36.567
X78.040Y-36.610
X78.105Y-36.653
X78.171Y-36.695
X78.237Y-36.737
X78.303Y-36.778
X78.370Y-36.819
X78.437Y-36.860
X78.504Y-36.901
X78.571Y-36.941
X78.638Y-36.980
X78.706Y-37.020
X78.773Y-37.059
X78.842Y-37.098
X78.910Y-37.136
X78.978Y-37.174
X79.047Y-37.212
X79.116Y-37.249
X79.185Y-37.286
X79.254Y-37.323
X79.324Y-37.359
X79.394Y-37.395
X79.464Y-37.430
X79.534Y-37.465
X79.605Y-37.500
X79.675Y-37.534
X79.746Y-37.568
X79.817Y-37.602
X79.888Y-37.635
X79.960Y-37.668
X80.032Y-37.701
X80.103Y-37.733
X80.175Y-37.765
X80.248Y-37.796
X80.320Y-37.827
X80.393Y-37.858
X80.466Y-37.888
X80.539Y-37.918
X80.612Y-37.948
X80.686Y-37.977
X80.759Y-38.006
X80.833Y-38.034
X80.907Y-38.062
X80.981Y-38.090
X81.056Y-38.117
X81.130Y-38.144
X81.205Y-38.170
X81.280Y-38.196
X81.355Y-38.222
X81.430Y-38.247
X81.506Y-38.272
X81.581Y-38.296
X81.657Y-38.320
X81.733Y-38.344
X81.809Y-38.367
X81.886Y-38.390
X81.962Y-38.413
X82.039Y-38.435
X82.116Y-38.456
X82.193Y-38.478
X82.270Y-38.498
X82.347Y-38.519
X82.425Y-38.539
X82.503Y-38.558
X82.580Y-38.578
X82.658Y-38.596
X82.737Y-38.615
X82.815Y-38.633
X82.893Y-38.650
X82.972Y-38.667
X83.051Y-38.684
X83.130Y-38.700
X83.209Y-38.716
X83.288Y-38.731
X83.367Y-38.746
X83.447Y-38.761
X83.527Y-38.775
X83.606Y-38.789
X83.686Y-38.802
X83.767Y-38.815
X83.847Y-38.827
X83.927Y-38.839
X84.008Y-38.851
X84.088Y-38.862
X84.169Y-38.872
X84.250Y-38.882
X84.331Y-38.892
X84.412Y-38.902
X84.494Y-38.910
X84.575Y-38.919
X84.657Y-38.927
X84.738Y-38.934
X84.820Y-38.941
X84.902Y-38.948
X84.984Y-38.954
X85.066Y-38.960
X85.149Y-38.965
X85.231Y-38.970
X85.314Y-38.975
X85.396Y-38.978
X85.479Y-38.982
X85.562Y-38.985
X85.622Y-38.875
X85.682Y-38.765
X85.743Y-38.655
X85.804Y-38.546
X85.866Y-38.436
X85.927Y-38.327
X85.990Y-38.219
X86.052Y-38.110
X86.115Y-38.002
X86.179Y-37.894
X86.243Y-37.787
X86.307Y-37.679
X86.372Y-37.572
X86.437Y-37.465
X86.502Y-37.359
X86.568Y-37.252
X86.634Y-37.146
X86.700Y-37.040
X86.767Y-36.935
X86.834Y-36.830
X86.902Y-36.725
X86.970Y-36.620
X87.039Y-36.515
X87.107Y-36.411
X87.177Y-36.307
X87.246Y-36.204
X87.316Y-36.100
X87.386Y-35.997
X87.457Y-35.894
X87.528Y-35.792
X87.599Y-35.690
X87.671Y-35.588
X87.743Y-35.486
X87.816Y-35.384
X87.888Y-35.283
X87.962Y-35.182
X88.035Y-35.082
X88.109Y-34.982
X88.183Y-34.882
X88.258Y-34.782
X88.333Y-34.682
X88.408Y-34.583
X88.484Y-34.484
X88.560Y-34.386
X88.637Y-34.287
X88.713Y-34.189
X88.791Y-34.092
X88.868Y-33.994
X88.946Y-33.897
X89.024Y-33.800
X89.103Y-33.704
X89.182Y-33.608
X89.261Y-33.512
X89.340Y-33.416
X89.420Y-33.321
X89.501Y-33.226
X89.581Y-33.131
X89.662Y-33.036
X89.743Y-32.942
X89.825Y-32.848
X89.907Y-32.755
X89.989Y-32.662
X90.072Y-32.569
X90.155Y-32.476
G1Z-2.000F304.8
G1X90.039Y-32.416F1016.0
X89.923Y-32.356
X89.808Y-32.294
X89.693Y-32.232
X89.579Y-32.170
X89.466Y-32.107
X89.353Y-32.043
X89.241Y-31.978
X89.130Y-31.913
X89.019Y-31.847
X88.909Y-31.781
X88.799Y-31.713
X88.690Y-31.646
X88.582Y-31.577
X88.474Y-31.508
X88.367Y-31.438
X88.260Y-31.368
X88.154Y-31.297
X88.049Y-31.225
X87.944Y-31.153
X87.840Y-31.080
X87.737Y-31.007
X87.634Y-30.933
X87.532Y-30.858
X87.430Y-30.783
X87.329Y-30.707
X87.229Y-30.631
X87.129Y-30.554
X87.030Y-30.476
X86.932Y-30.398
X86.834Y-30.319
X86.737Y-30.240
X86.641Y-30.160
X86.545Y-30.079
X86.450Y-29.998
X86.355Y-29.917
X86.261Y-29.835
X86.168Y-29.752
X86.075Y-29.669
X85.983Y-29.585
X85.892Y-29.500
X85.801Y-29.415
X85.711Y-29.330
X85.621Y-29.244
X85.533Y-29.157
X85.445Y-29.070
X85.357Y-28.983
X85.270Y-28.895
X85.184Y-28.806
X85.099Y-28.717
X85.014Y-28.627
X84.930Y-28.537
X84.846Y-28.446
X84.763Y-28.355
X84.681Y-28.263
X84.599Y-28.171
X84.518Y-28.079
X84.438Y-27.985
X84.359Y-27.892
X84.280Y-27.798
X84.201Y-27.703
X84.124Y-27.608
X84.047Y-27.513
X83.971Y-27.417
X83.895Y-27.320
X83.820Y-27.223
X83.746Y-27.126
X83.673Y-27.028
X83.600Y-26.930
X83.527Y-26.831
X83.456Y-26.732
X83.385Y-26.632
X83.315Y-26.532
X83.245Y-26.432
X83.177Y-26.331
X83.109Y-26.229
X83.041Y-26.128
X82.974Y-26.026
X82.908Y-25.923
X82.843Y-25.820
X82.778Y-25.717
X82.714Y-25.613
X82.651Y-25.509
X82.588Y-25.404
X82.526Y-25.299
X82.465Y-25.193
X82.405Y-25.088
X82.345Y-24.982
X82.286Y-24.875
X82.227Y-24.768
X82.169Y-24.661
X82.112Y-24.553
X82.056Y-24.445
X82.000Y-24.337
X81.945Y-24.228
X81.891Y-24.119
X81.837Y-24.009
X81.785Y-23.899
X81.733Y-23.789
X81.681Y-23.679
X81.630Y-23.568
X81.580Y-23.457
X81.531Y-23.345
X81.482Y-23.233
X81.435Y-23.121
X81.387Y-23.009
X81.341Y-22.896
X81.295Y-22.783
X81.250Y-22.669
X81.206Y-22.555
X81.162Y-22.441
X81.120Y-22.327
X81.077Y-22.212
X81.036Y-22.097
X80.995Y-21.982
X80.955Y-21.867
X80.916Y-21.751
X80.878Y-21.635
X80.840Y-21.518
X80.803Y-21.402
X80.767Y-21.285
X80.731Y-21.168
X80.696Y-21.050
X80.662Y-20.932
X80.629Y-20.814
X80.596Y-20.696
X80.564Y-20.578
X80.533Y-20.459
X80.379Y-20.535
X80.225Y-20.611
X80.071Y-20.689
X79.918Y-20.767
X79.765Y-20.845
X79.613Y-20.925
X79.461Y-21.005
X79.310Y-21.085
X79.159Y-21.166
X79.008Y-21.248
X78.858Y-21.331
X78.708Y-21.414
X78.558Y-21.498
X78.409Y-21.583
X78.261Y-21.668
X78.112Y-21.754
X77.965Y-21.841
X77.817Y-21.928
X77.670Y-22.016
X77.524Y-22.104
X77.378Y-22.194
X77.232Y-22.284
X77.087Y-22.374
X76.942Y-22.465
X76.798Y-22.557
X76.654Y-22.649
X76.510Y-22.742
X76.367Y-22.836
X76.225Y-22.930
X76.083Y-23.025
X75.941Y-23.121
X75.800Y-23.217
X75.659Y-23.314
X75.519Y-23.411
X75.379Y-23.509
X75.239Y-23.608
X75.100Y-23.707
X74.962Y-23.807
X74.824Y-23.907
X74.686Y-24.008
X74.549Y-24.110
X74.413Y-24.212
X74.277Y-24.315
X74.141Y-24.419
X74.006Y-24.523
X73.871Y-24.628
X73.737Y-24.733
X73.603Y-24.839
X73.470Y-24.946
X73.337Y-25.053
X73.205Y-25.160
X73.073Y-25.269
X72.942Y-25.377
X72.811Y-25.487
X72.680Y-25.597
X72.551Y-25.707
X72.421Y-25.819
X72.292Y-25.930
X72.164Y-26.043
X72.036Y-26.156
X71.909Y-26.269
X71.782Y-26.383
X71.656Y-26.498
X71.530Y-26.613
X71.543Y-26.693
X71.557Y-26.774
X71.571Y-26.854
X71.585Y-26.934
X71.600Y-27.014
X71.616Y-27.093
X71.631Y-27.173
X71.648Y-27.252
X71.664Y-27.332
X71.681Y-27.411
X71.699Y-27.490
X71.717Y-27.568
X71.735Y-27.647
X71.754Y-27.725
X71.773Y-27.804
X71.792Y-27.882
X71.812Y-27.960
X71.833Y-28.037
X71.854Y-28.115
X71.875Y-28.192
X71.896Y-28.270
X71.918Y-28.347
X71.941Y-28.424
X71.964Y-28.500
X71.987Y-28.577
X72.011Y-28.653
X72.035Y-28.730
X72.059Y-28.806
X72.084Y-28.881
X72.109Y-28.957
X72.135Y-29.033
X72.161Y-29.108
X72.187Y-29.183
X72.214Y-29.258
X72.241Y-29.333
X72.269Y-29.407
X72.297Y-29.481
X72.325Y-29.556
X72.354Y-29.630
X72.383Y-29.703
X72.412Y-29.777
X72.442Y-29.850
X72.473Y-29.923
X72.503Y-29.996
X72.534Y-30.069
X72.566Y-30.142
X72.598Y-30.214
X72.630Y-30.286
X72.662Y-30.358
X72.695Y-30.430
X72.729Y-30.501
X72.762Y-30.573
X72.796Y-30.644
X72.831Y-30.715
X72.865Y-30.785
X72.900Y-30.856
X72.936Y-30.926
X72.972Y-30.996
X73.008Y-31.066
X73.045Y-31.136
X73.082Y-31.205
X73.119Y-31.274
X73.156Y-31.343
X73.194Y-31.412
X73.233Y-31.480
X73.272Y-31.549
X73.311Y-31.617
X73.350Y-31.684
X73.390Y-31.752
X73.430Y-31.819
X73.470Y-31.886
X73.511Y-31.953
X73.552Y-32.020
X73.594Y-32.086
X73.635Y-32.153
X73.678Y-32.218
X73.720Y-32.284
X73.763Y-32.350
X73.806Y-32.415
X73.850Y-32.480
X73.893Y-32.545
X73.938Y-32.609
X73.982Y-32.673
X74.027Y-32.737
X74.072Y-32.801
X74.118Y-32.864
X74.163Y-32.928
X74.210Y-32.991
X74.256Y-33.053
X74.303Y-33.116
X74.350Y-33.178
X74.397Y-33.240
X74.445Y-33.302
X74.493Y-33.363
X74.542Y-33.424
X74.590Y-33.485
X74.639Y-33.546
X74.689Y-33.606
X74.738Y-33.666
X74.788Y-33.726
X74.838Y-33.785
X74.889Y-33.845
X74.940Y-33.904
X74.991Y-33.962
X75.042Y-34.021
X75.094Y-34.079
X75.146Y-34.137
X75.199Y-34.195
X75.251Y-34.252
X75.304Y-34.309
X75.357Y-34.366
X75.411Y-34.422
X75.465Y-34.479
X75.519Y-34.535
X75.573Y-34.590
X75.628Y-34.646
X75.683Y-34.701
X75.738Y-34.755
X75.794Y-34.810
X75.850Y-34.864
X75.906Y-34.918
X75.962Y-34.972
X76.019Y-35.025
X76.076Y-35.078
X76.133Y-35.131
X76.191Y-35.183
X76.249Y-35.235
X76.307Y-35.287
X76.365Y-35.339
X76.424Y-35.390
X76.483Y-35.441
X76.542Y-35.491
X76.601Y-35.542
X76.661Y-35.592
X76.721Y-35.641
X76.781Y-35.691
X76.842Y-35.740
X76.903Y-35.788
X76.964Y-35.837
X77.025Y-35.885
X77.087Y-35.933
X77.148Y-35.980
X77.210Y-36.027
X77.273Y-36.074
X77.335Y-36.120
X77.398Y-36.167
X77.461Y-36.212
X77.525Y-36.258
X77.588Y-36.303
X77.652Y-36.348
X77.716Y-36.393
X77.780Y-36.437
X77.845Y-36.481
X77.910Y-36.524
X77.975Y-36.567
X78.040Y-36.610
X78.105Y-36.653
X78.171Y-36.695
X78.237Y-36.737
X78.303Y-36.778
X78.370Y-36.819
X78.437Y-36.860
X78.504Y-36.901
X78.571Y-36.941
X78.638Y-36.980
X78.706Y-37.020
X78.773Y-37.059
X78.842Y-37.098
X78.910Y-37.136
X78.978Y-37.174
X79.047Y-37.212
X79.116Y-37.249
X79.185Y-37.286
X79.254Y-37.323
X79.324Y-37.359
X79.394Y-37.395
X79.464Y-37.430
X79.534Y-37.465
X79.605Y-37.500
X79.675Y-37.534
X79.746Y-37.568
X79.817Y-37.602
X79.888Y-37.635
X79.960Y-37.668
X80.032Y-37.701
X80.103Y-37.733
X80.175Y-37.765
X80.248Y-37.796
X80.320Y-37.827
X80.393Y-37.858
X80.466Y-37.888
X80.539Y-37.918
X80.612Y-37.948
X80.686Y-37.977
X80.759Y-38.006
X80.833Y-38.034
X80.907Y-38.062
X80.981Y-38.090
X81.056Y-38.117
X81.130Y-38.144
X81.205Y-38.170
X81.280Y-38.196
X81.355Y-38.222
X81.430Y-38.247
X81.506Y-38.272
X81.581Y-38.296
X81.657Y-38.320
X81.733Y-38.344
X81.809Y-38.367
X81.886Y-38.390
X81.962Y-38.413
X82.039Y-38.435
X82.116Y-38.456
X82.193Y-38.478
X82.270Y-38.498
X82.347Y-38.519
X82.425Y-38.539
X82.503Y-38.558
X82.580Y-38.578
X82.658Y-38.596
X82.737Y-38.615
X82.815Y-38.633
X82.893Y-38.650
X82.972Y-38.667
X83.051Y-38.684
X83.130Y-38.700
X83.209Y-38.716
X83.288Y-38.731
X83.367Y-38.746
X83.447Y-38.761
X83.527Y-38.775
X83.606Y-38.789
X83.686Y-38.802
X83.767Y-38.815
X83.847Y-38.827
X83.927Y-38.839
X84.008Y-38.851
X84.088Y-38.862
X84.169Y-38.872
X84.250Y-38.882
X84.331Y-38.892
X84.412Y-38.902
X84.494Y-38.910
X84.575Y-38.919
X84.657Y-38.927
X84.738Y-38.934
X84.820Y-38.941
X84.902Y-38.948
X84.984Y-38.954
X85.066Y-38.960
X85.149Y-38.965
X85.231Y-38.970
X85.314Y-38.975
X85.396Y-38.978
X85.479Y-38.982
X85.562Y-38.985
X85.622Y-38.875
X85.682Y-38.765
X85.743Y-38.655
X85.804Y-38.546
X85.866Y-38.436
X85.927Y-38.327
X85.990Y-38.219
X86.052Y-38.110
X86.115Y-38.002
X86.179Y-37.894
X86.243Y-37.787
X86.307Y-37.679
X86.372Y-37.572
X86.437Y-37.465
X86.502Y-37.359
X86.568Y-37.252
X86.634Y-37.146
X86.700Y-37.040
X86.767Y-36.935
X86.834Y-36.830
X86.902Y-36.725
X86.970Y-36.620
X87.039Y-36.515
X87.107Y-36.411
X87.177Y-36.307
X87.246Y-36.204
X87.316Y-36.100
X87.386Y-35.997
X87.457Y-35.894
X87.528Y-35.792
X87.599Y-35.690
X87.671Y-35.588
X87.743Y-35.486
X87.816Y-35.384
X87.888Y-35.283
X87.962Y-35.182
X88.035Y-35.082
X88.109Y-34.982
X88.183Y-34.882
X88.258Y-34.782
X88.333Y-34.682
X88.408Y-34.583
X88.484Y-34.484
X88.560Y-34.386
X88.637Y-34.287
X88.713Y-34.189
X88.791Y-34.092
X88.868Y-33.994
X88.946Y-33.897
X89.024Y-33.800
X89.103Y-33.704
X89.182Y-33.608
X89.261Y-33.512
X89.340Y-33.416
X89.420Y-33.321
X89.501Y-33.226
X89.581Y-33.131
X89.662Y-33.036
X89.743Y-32.942
X89.825Y-32.848
X89.907Y-32.755
X89.989Y-32.662
X90.072Y-32.569
X90.155Y-32.476
G0Z5.080
G0X83.775Y-42.852
G1Z-1.000F304.8
G1X83.604Y-42.830F1016.0
X83.433Y-42.807
X83.263Y-42.782
X83.093Y-42.756
X82.924Y-42.728
X82.755Y-42.699
X82.587Y-42.668
X82.420Y-42.636
X82.253Y-42.602
X82.086Y-42.566
X81.920Y-42.530
X81.755Y-42.491
X81.590Y-42.452
X81.426Y-42.411
X81.262Y-42.368
X81.099Y-42.324
X80.936Y-42.279
X80.774Y-42.232
X80.613Y-42.183
X80.452Y-42.134
X80.292Y-42.083
X80.133Y-42.030
X79.974Y-41.976
X79.816Y-41.921
X79.658Y-41.864
X79.501Y-41.806
X79.345Y-41.747
X79.189Y-41.686
X79.035Y-41.624
X78.880Y-41.561
X78.727Y-41.496
X78.574Y-41.430
X78.422Y-41.363
X78.271Y-41.294
X78.120Y-41.224
X77.970Y-41.153
X77.821Y-41.080
X77.672Y-41.007
X77.525Y-40.932
X77.378Y-40.855
X77.232Y-40.778
X77.086Y-40.699
X76.942Y-40.619
X76.798Y-40.537
X76.655Y-40.455
X76.512Y-40.371
X76.371Y-40.286
X76.230Y-40.200
X76.091Y-40.112
X75.952Y-40.024
X75.813Y-39.934
X75.676Y-39.843
X75.540Y-39.751
X75.404Y-39.658
X75.269Y-39.563
X75.136Y-39.468
X75.003Y-39.371
X74.870Y-39.273
X74.739Y-39.174
X74.609Y-39.074
X74.480Y-38.972
X74.351Y-38.870
X74.224Y-38.767
X74.097Y-38.662
X73.971Y-38.556
X73.846Y-38.450
X73.723Y-38.342
X73.600Y-38.233
X73.478Y-38.123
X73.357Y-38.012
X73.237Y-37.900
X73.118Y-37.787
X73.000Y-37.673
X72.883Y-37.558
X72.767Y-37.442
X72.652Y-37.325
X72.538Y-37.207
X72.425Y-37.088
X72.314Y-36.967
X72.203Y-36.846
X72.093Y-36.724
X71.984Y-36.601
X71.877Y-36.477
X71.770Y-36.352
X71.665Y-36.227
X71.560Y-36.100
X71.457Y-35.972
X71.355Y-35.843
X71.253Y-35.714
X71.153Y-35.583
X71.055Y-35.452
X70.957Y-35.320
X70.860Y-35.187
X70.765Y-35.053
X70.670Y-34.918
X70.577Y-34.782
X70.485Y-34.645
X70.394Y-34.508
X70.305Y-34.370
X70.216Y-34.230
X70.129Y-34.090
X70.043Y-33.950
X69.958Y-33.808
X69.874Y-33.666
X69.792Y-33.522
X69.711Y-33.378
X69.631Y-33.234
X69.552Y-33.088
X69.474Y-32.942
X69.398Y-32.794
X69.323Y-32.647
X69.250Y-32.498
X69.177Y-32.349
X69.106Y-32.199
X69.036Y-32.048
X68.968Y-31.896
X68.900Y-31.744
X68.834Y-31.591
X68.770Y-31.437
X68.707Y-31.283
X68.645Y-31.128
X68.584Y-30.972
X68.525Y-30.816
X68.467Y-30.659
X68.410Y-30.501
X68.355Y-30.343
X68.301Y-30.184
X68.249Y-30.024
X68.124Y-30.172
X68.000Y-30.321
X67.877Y-30.470
X67.755Y-30.620
X67.633Y-30.771
X67.512Y-30.922
X67.392Y-31.074
X67.272Y-31.226
X67.154Y-31.379
X67.036Y-31.533
X66.919Y-31.688
X66.802Y-31.843
X66.687Y-31.998
X66.572Y-32.154
X66.458Y-32.311
X66.345Y-32.469
X66.232Y-32.627
X66.121Y-32.786
X66.010Y-32.945
X65.900Y-33.105
X65.790Y-33.265
X65.682Y-33.426
X65.574Y-33.588
X65.467Y-33.750
X65.361Y-33.913
X65.256Y-34.076
X65.152Y-34.240
X65.048Y-34.405
X64.945Y-34.570
X64.844Y-34.736
X64.742Y-34.902
X64.642Y-35.069
X64.543Y-35.236
X64.444Y-35.404
X64.346Y-35.573
X64.249Y-35.742
X64.153Y-35.912
X64.058Y-36.082
X63.964Y-36.253
X63.870Y-36.424
X63.778Y-36.596
X63.686Y-36.768
X63.595Y-36.941
X63.505Y-37.115
X63.416Y-37.289
X63.327Y-37.463
X63.240Y-37.638
X63.153Y-37.814
X63.068Y-37.990
X62.983Y-38.166
X62.899Y-38.343
X62.816Y-38.521
X62.734Y-38.699
X62.653Y-38.878
X62.573Y-39.057
X62.493Y-39.236
X62.415Y-39.416
X62.337Y-39.597
X62.260Y-39.778
X62.185Y-39.960
X62.110Y-40.142
X62.036Y-40.324
X61.963Y-40.507
X61.891Y-40.691
X61.911Y-40.799
X61.931Y-40.907
X61.953Y-41.014
X61.975Y-41.121
X61.997Y-41.227
X62.021Y-41.333
X62.045Y-41.439
X62.070Y-41.545
X62.095Y-41.650
X62.121Y-41.754
X62.148Y-41.859
X62.176Y-41.963
X62.204Y-42.066
X62.233Y-42.169
X62.263Y-42.272
X62.293Y-42.374
X62.324Y-42.476
X62.355Y-42.578
X62.388Y-42.679
X62.421Y-42.780
X62.454Y-42.880
X62.489Y-42.980
X62.524Y-43.079
X62.559Y-43.179
X62.595Y-43.277
X62.632Y-43.376
X62.670Y-43.474
X62.708Y-43.571
X62.747Y-43.668
X62.786Y-43.765
X62.826Y-43.861
X62.867Y-43.957
X62.908Y-44.053
X62.950Y-44.148
X62.993Y-44.242
X63.036Y-44.336
X63.080Y-44.430
X63.124Y-44.524
X63.169Y-44.616
X63.215Y-44.709
X63.261Y-44.801
X63.308Y-44.893
X63.355Y-44.984
X63.403Y-45.075
X63.452Y-45.165
X63.501Y-45.255
X63.550Y-45.344
X63.601Y-45.433
X63.652Y-45.522
X63.703Y-45.610
X63.755Y-45.697
X63.807Y-45.785
X63.861Y-45.871
X63.914Y-45.958
X63.968Y-46.044
X64.023Y-46.129
X64.078Y-46.214
X64.134Y-46.298
X64.191Y-46.382
X64.248Y-46.466
X64.305Y-46.549
X64.363Y-46.632
X64.421Y-46.714
X64.480Y-46.796
X64.540Y-46.877
X64.600Y-46.958
X64.661Y-47.038
X64.722Y-47.118
X64.783Y-47.197
X64.845Y-47.276
X64.908Y-47.354
X64.971Y-47.432
X65.035Y-47.510
X65.099Y-47.586
X65.163Y-47.663
X65.228Y-47.739
X65.294Y-47.814
X65.360Y-47.889
X65.426Y-47.964
X65.493Y-48.038
X65.561Y-48.111
X65.629Y-48.184
X65.697Y-48.257
X65.766Y-48.329
X65.835Y-48.400
X65.905Y-48.471
X65.975Y-48.542
X66.046Y-48.612
X66.117Y-48.681
X66.188Y-48.750
X66.260Y-48.819
X66.333Y-48.886
X66.405Y-48.954
X66.479Y-49.021
X66.552Y-49.087
X66.626Y-49.153
X66.701Y-49.218
X66.776Y-49.283
X66.851Y-49.348
X66.927Y-49.411
X67.003Y-49.475
X67.080Y-49.537
X67.156Y-49.599
X67.234Y-49.661
X67.312Y-49.722
X67.390Y-49.783
X67.468Y-49.843
X67.547Y-49.902
X67.626Y-49.961
X67.706Y-50.020
X67.786Y-50.078
X67.866Y-50.135
X67.947Y-50.192
X68.028Y-50.248
X68.110Y-50.304
X68.191Y-50.359
X68.274Y-50.413
X68.356Y-50.467
X68.439Y-50.521
X68.522Y-50.574
X68.606Y-50.626
X68.690Y-50.678
X68.774Y-50.729
X68.858Y-50.780
X68.943Y-50.830
X69.029Y-50.879
X69.114Y-50.928
X69.200Y-50.976
X69.286Y-51.024
X69.373Y-51.071
X69.459Y-51.118
X69.547Y-51.164
X69.634Y-51.210
X69.722Y-51.255
X69.810Y-51.299
X69.898Y-51.343
X69.987Y-51.386
X70.075Y-51.428
X70.165Y-51.470
X70.254Y-51.512
X70.344Y-51.552
X70.434Y-51.593
X70.524Y-51.632
X70.614Y-51.671
X70.705Y-51.710
X70.796Y-51.747
X70.888Y-51.785
X70.979Y-51.821
X71.071Y-51.857
X71.163Y-51.893
X71.255Y-51.927
X71.348Y-51.962
X71.441Y-51.995
X71.534Y-52.028
X71.627Y-52.060
X71.720Y-52.092
X71.814Y-52.123
X71.908Y-52.154
X72.002Y-52.183
X72.096Y-52.213
X72.191Y-52.241
X72.286Y-52.269
X72.381Y-52.296
X72.476Y-52.323
X72.571Y-52.349
X72.667Y-52.375
X72.763Y-52.399
X72.859Y-52.424
X72.955Y-52.447
X73.051Y-52.470
X73.148Y-52.492
X73.244Y-52.514
X73.341Y-52.535
X73.438Y-52.555
X73.536Y-52.575
X73.633Y-52.594
X73.731Y-52.612
X73.828Y-52.630
X73.926Y-52.647
X74.024Y-52.663
X74.122Y-52.679
X74.221Y-52.694
X74.319Y-52.709
X74.418Y-52.722
X74.516Y-52.735
X74.615Y-52.748
X74.714Y-52.760
X74.813Y-52.771
X74.913Y-52.781
X75.012Y-52.791
X75.111Y-52.800
X75.211Y-52.808
X75.311Y-52.816
X75.411Y-52.823
X75.510Y-52.829
X75.610Y-52.835
X75.711Y-52.840
X75.811Y-52.844
X75.911Y-52.848
X76.011Y-52.851
X76.112Y-52.853
X76.212Y-52.855
X76.313Y-52.856
X76.414Y-52.856
X76.515Y-52.855
X76.615Y-52.854
X76.716Y-52.852
X76.817Y-52.849
X76.918Y-52.846
X77.019Y-52.842
X77.121Y-52.837
X77.222Y-52.832
X77.323Y-52.826
X77.424Y-52.819
X77.526Y-52.811
X77.627Y-52.803
X77.728Y-52.794
X77.830Y-52.784
X77.931Y-52.774
X78.033Y-52.762
X78.134Y-52.751
X78.236Y-52.738
X78.337Y-52.725
X78.439Y-52.710
X78.540Y-52.696
X78.642Y-52.680
X78.743Y-52.664
X78.845Y-52.647
X78.947Y-52.629
X79.048Y-52.611
X79.150Y-52.591
X79.251Y-52.571
X79.353Y-52.551
X79.454Y-52.529
X79.556Y-52.507
X79.657Y-52.484
X79.758Y-52.460
X79.860Y-52.436
X79.961Y-52.411
X80.062Y-52.385
X80.164Y-52.358
X80.265Y-52.331
X80.366Y-52.303
X80.467Y-52.274
X80.568Y-52.244
X80.669Y-52.213
X80.770Y-52.182
X80.871Y-52.150
X80.972Y-52.117
X81.072Y-52.084
X81.173Y-52.049
X81.274Y-52.014
X81.374Y-51.978
X81.474Y-51.942
X81.575Y-51.904
X81.675Y-51.866
X81.689Y-51.718
X81.703Y-51.571
X81.718Y-51.423
X81.734Y-51.276
X81.750Y-51.129
X81.767Y-50.982
X81.784Y-50.836
X81.802Y-50.689
X81.821Y-50.543
X81.841Y-50.397
X81.861Y-50.251
X81.881Y-50.106
X81.902Y-49.960
X81.924Y-49.815
X81.947Y-49.670
X81.970Y-49.525
X81.994Y-49.381
X82.018Y-49.236
X82.043Y-49.092
X82.068Y-48.948
X82.095Y-48.805
X82.121Y-48.661
X82.149Y-48.518
X82.177Y-48.375
X82.205Y-48.232
X82.234Y-48.090
X82.264Y-47.948
X82.295Y-47.805
X82.326Y-47.664
X82.357Y-47.522
X82.389Y-47.381
X82.422Y-47.239
X82.455Y-47.098
X82.489Y-46.958
X82.524Y-46.817
X82.559Y-46.677
X82.595Y-46.537
X82.631Y-46.397
X82.668Y-46.258
X82.705Y-46.118
X82.743Y-45.979
X82.782Y-45.841
X82.821Y-45.702
X82.861Y-45.564
X82.901Y-45.426
X82.942Y-45.288
X82.984Y-45.150
X83.026Y-45.013
X83.068Y-44.876
X83.111Y-44.739
X83.155Y-44.603
X83.199Y-44.467
X83.244Y-44.331
X83.290Y-44.195
X83.336Y-44.059
X83.382Y-43.924
X83.430Y-43.789
X83.477Y-43.654
X83.525Y-43.520
X83.574Y-43.386
X83.624Y-43.252
X83.674Y-43.118
X83.724Y-42.985
X83.775Y-42.852
G1Z-2.000F304.8
G1X83.604Y-42.830F1016.0
X83.433Y-42.807
X83.263Y-42.782
X83.093Y-42.756
X82.924Y-42.728
X82.755Y-42.699
X82.587Y-42.668
X82.420Y-42.636
X82.253Y-42.602
X82.086Y-42.566
X81.920Y-42.530
X81.755Y-42.491
X81.590Y-42.452
X81.426Y-42.411
X81.262Y-42.368
X81.099Y-42.324
X80.936Y-42.279
X80.774Y-42.232
X80.613Y-42.183
X80.452Y-42.134
X80.292Y-42.083
X80.133Y-42.030
X79.974Y-41.976
X79.816Y-41.921
X79.658Y-41.864
X79.501Y-41.806
X79.345Y-41.747
X79.189Y-41.686
X79.035Y-41.624
X78.880Y-41.561
X78.727Y-41.496
X78.574Y-41.430
X78.422Y-41.363
X78.271Y-41.294
X78.120Y-41.224
X77.970Y-41.153
X77.821Y-41.080
X77.672Y-41.007
X77.525Y-40.932
X77.378Y-40.855
X77.232Y-40.778
X77.086Y-40.699
X76.942Y-40.619
X76.798Y-40.537
X76.655Y-40.455
X76.512Y-40.371
X76.371Y-40.286
X76.230Y-40.200
X76.091Y-40.112
X75.952Y-40.024
X75.813Y-39.934
X75.676Y-39.843
X75.540Y-39.751
X75.404Y-39.658
X75.269Y-39.563
X75.136Y-39.468
X75.003Y-39.371
X74.870Y-39.273
X74.739Y-39.174
X74.609Y-39.074
X74.480Y-38.972
X74.351Y-38.870
X74.224Y-38.767
X74.097Y-38.662
X73.971Y-38.556
X73.846Y-38.450
X73.723Y-38.342
X73.600Y-38.233
X73.478Y-38.123
X73.357Y-38.012
X73.237Y-37.900
X73.118Y-37.787
X73.000Y-37.673
X72.883Y-37.558
X72.767Y-37.442
X72.652Y-37.325
X72.538Y-37.207
X72.425Y-37.088
X72.314Y-36.967
X72.203Y-36.846
X72.093Y-36.724
X71.984Y-36.601
X71.877Y-36.477
X71.770Y-36.352
X71.665Y-36.227
X71.560Y-36.100
X71.457Y-35.972
X71.355Y-35.843
X71.253Y-35.714
X71.153Y-35.583
X71.055Y-35.452
X70.957Y-35.320
X70.860Y-35.187
X70.765Y-35.053
X70.670Y-34.918
X70.577Y-34.782
X70.485Y-34.645
X70.394Y-34.508
X70.305Y-34.370
X70.216Y-34.230
X70.129Y-34.090
X70.043Y-33.950
X69.958Y-33.808
X69.874Y-33.666
X69.792Y-33.522
X69.711Y-33.378
X69.631Y-33.234
X69.552Y-33.088
X69.474Y-32.942
X69.398Y-32.794
X69.323Y-32.647
X69.250Y-32.498
X69.177Y-32.349
X69.106Y-32.199
X69.036Y-32.048
X68.968Y-31.896
X68.900Y-31.744
X68.834Y-31.591
X68.770Y-31.437
X68.707Y-31.283
X68.645Y-31.128
X68.584Y-30.972
X68.525Y-30.816
X68.467Y-30.659
X68.410Y-30.501
X68.355Y-30.343
X68.301Y-30.184
X68.249Y-30.024
X68.124Y-30.172
X68.000Y-30.321
X67.877Y-30.470
X67.755Y-30.620
X67.633Y-30.771
X67.512Y-30.922
X67.392Y-31.074
X67.272Y-31.226
X67.154Y-31.379
X67.036Y-31.533
X66.919Y-31.688
X66.802Y-31.843
X66.687Y-31.998
X66.572Y-32.154
X66.458Y-32.311
X66.345Y-32.469
X66.232Y-32.627
X66.121Y-32.786
X66.010Y-32.945
X65.900Y-33.105
X65.790Y-33.265
X65.682Y-33.426
X65.574Y-33.588
X65.467Y-33.750
X65.361Y-33.913
X65.256Y-34.076
X65.152Y-34.240
X65.048Y-34.405
X64.945Y-34.570
X64.844Y-34.736
X64.742Y-34.902
X64.642Y-35.069
X64.543Y-35.236
X64.444Y-35.404
X64.346Y-35.573
X64.249Y-35.742
X64.153Y-35.912
X64.058Y-36.082
X63.964Y-36.253
X63.870Y-36.424
X63.778Y-36.596
X63.686Y-36.768
X63.595Y-36.941
X63.505Y-37.115
X63.416Y-37.289
X63.327Y-37.463
X63.240Y-37.638
X63.153Y-37.814
X63.068Y-37.990
X62.983Y-38.166
X62.899Y-38.343
X62.816Y-38.521
X62.734Y-38.699
X62.653Y-38.878
X62.573Y-39.057
X62.493Y-39.236
X62.415Y-39.416
X62.337Y-39.597
X62.260Y-39.778
X62.185Y-39.960
X62.110Y-40.142
X62.036Y-40.324
X61.963Y-40.507
X61.891Y-40.691
X61.911Y-40.799
X61.931Y-40.907
X61.953Y-41.014
X61.975Y-41.121
X61.997Y-41.227
X62.021Y-41.333
X62.045Y-41.439
X62.070Y-41.545
X62.095Y-41.650
X62.121Y-41.754
X62.148Y-41.859
X62.176Y-41.963
X62.204Y-42.066
X62.233Y-42.169
X62.263Y-42.272
X62.293Y-42.374
X62.324Y-42.476
X62.355Y-42.578
X62.388Y-42.679
X62.421Y-42.780
X62.454Y-42.880
X62.489Y-42.980
X62.524Y-43.079
X62.559Y-43.179
X62.595Y-43.277
X62.632Y-43.376
X62.670Y-43.474
X62.708Y-43.571
X62.747Y-43.668
X62.786Y-43.765
X62.826Y-43.861
X62.867Y-43.957
X62.908Y-44.053
X62.950Y-44.148
X62.993Y-44.242
X63.036Y-44.336
X63.080Y-44.430
X63.124Y-44.524
X63.169Y-44.616
X63.215Y-44.709
X63.261Y-44.801
X63.308Y-44.893
X63.355Y-44.984
X63.403Y-45.075
X63.452Y-45.165
X63.501Y-45.255
X63.550Y-45.344
X63.601Y-45.433
X63.652Y-45.522
X63.703Y-45.610
X63.755Y-45.697
X63.807Y-45.785
X63.861Y-45.871
X63.914Y-45.958
X63.968Y-46.044
X64.023Y-46.129
X64.078Y-46.214
X64.134Y-46.298
X64.191Y-46.382
X64.248Y-46.466
X64.305Y-46.549
X64.363Y-46.632
X64.421Y-46.714
X64.480Y-46.796
X64.540Y-46.877
X64.600Y-46.958
X64.661Y-47.038
X64.722Y-47.118
X64.783Y-47.197
X64.845Y-47.276
X64.908Y-47.354
X64.971Y-47.432
X65.035Y-47.510
X65.099Y-47.586
X65.163Y-47.663
X65.228Y-47.739
X65.294Y-47.814
X65.360Y-47.889
X65.426Y-47.964
X65.493Y-48.038
X65.561Y-48.111
X65.629Y-48.184
X65.697Y-48.257
X65.766Y-48.329
X65.835Y-48.400
X65.905Y-48.471
X65.975Y-48.542
X66.046Y-48.612
X66.117Y-48.681
X66.188Y-48.750
X66.260Y-48.819
X66.333Y-48.886
X66.405Y-48.954
X66.479Y-49.021
X66.552Y-49.087
X66.626Y-49.153
X66.701Y-49.218
X66.776Y-49.283
X66.851Y-49.348
X66.927Y-49.411
X67.003Y-49.475
X67.080Y-49.537
X67.156Y-49.599
X67.234Y-49.661
X67.312Y-49.722
X67.390Y-49.783
X67.468Y-49.843
X67.547Y-49.902
X67.626Y-49.961
X67.706Y-50.020
X67.786Y-50.078
X67.866Y-50.135
X67.947Y-50.192
X68.028Y-50.248
X68.110Y-50.304
X68.191Y-50.359
X68.274Y-50.413
X68.356Y-50.467
X68.439Y-50.521
X68.522Y-50.574
X68.606Y-50.626
X68.690Y-50.678
X68.774Y-50.729
X68.858Y-50.780
X68.943Y-50.830
X69.029Y-50.879
X69.114Y-50.928
X69.200Y-50.976
X69.286Y-51.024
X69.373Y-51.071
X69.459Y-51.118
X69.547Y-51.164
X69.634Y-51.210
X69.722Y-51.255
X69.810Y-51.299
X69.898Y-51.343
X69.987Y-51.386
X70.075Y-51.428
X70.165Y-51.470
X70.254Y-51.512
X70.344Y-51.552
X70.434Y-51.593
X70.524Y-51.632
X70.614Y-51.671
X70.705Y-51.710
X70.796Y-51.747
X70.888Y-51.785
X70.979Y-51.821
X71.071Y-51.857
X71.163Y-51.893
X71.255Y-51.927
X71.348Y-51.962
X71.441Y-51.995
X71.534Y-52.028
X71.627Y-52.060
X71.720Y-52.092
X71.814Y-52.123
X71.908Y-52.154
X72.002Y-52.183
X72.096Y-52.213
X72.191Y-52.241
X72.286Y-52.269
X72.381Y-52.296
X72.476Y-52.323
X72.571Y-52.349
X72.667Y-52.375
X72.763Y-52.399
X72.859Y-52.424
X72.955Y-52.447
X73.051Y-52.470
X73.148Y-52.492
X73.244Y-52.514
X73.341Y-52.535
X73.438Y-52.555
X73.536Y-52.575
X73.633Y-52.594
X73.731Y-52.612
X73.828Y-52.630
X73.926Y-52.647
X74.024Y-52.663
X74.122Y-52.679
X74.221Y-52.694
X74.319Y-52.709
X74.418Y-52.722
X74.516Y-52.735
X74.615Y-52.748
X74.714Y-52.760
X74.813Y-52.771
X74.913Y-52.781
X75.012Y-52.791
X75.111Y-52.800
X75.211Y-52.808
X75.311Y-52.816
X75.411Y-52.823
X75.510Y-52.829
X75.610Y-52.835
X75.711Y-52.840
X75.811Y-52.844
X75.911Y-52.848
X76.011Y-52.851
X76.112Y-52.853
X76.212Y-52.855
X76.313Y-52.856
X76.414Y-52.856
X76.515Y-52.855
X76.615Y-52.854
X76.716Y-52.852
X76.817Y-52.849
X76.918Y-52.846
X77.019Y-52.842
X77.121Y-52.837
X77.222Y-52.832
X77.323Y-52.826
X77.424Y-52.819
X77.526Y-52.811
X77.627Y-52.803
X77.728Y-52.794
X77.830Y-52.784
X77.931Y-52.774
X78.033Y-52.762
X78.134Y-52.751
X78.236Y-52.738
X78.337Y-52.725
X78.439Y-52.710
X78.540Y-52.696
X78.642Y-52.680
X78.743Y-52.664
X78.845Y-52.647
X78.947Y-52.629
X79.048Y-52.611
X79.150Y-52.591
X79.251Y-52.571
X79.353Y-52.551
X79.454Y-52.529
X79.556Y-52.507
X79.657Y-52.484
X79.758Y-52.460
X79.860Y-52.436
X79.961Y-52.411
X80.062Y-52.385
X80.164Y-52.358
X80.265Y-52.331
X80.366Y-52.303
X80.467Y-52.274
X80.568Y-52.244
X80.669Y-52.213
X80.770Y-52.182
X80.871Y-52.150
X80.972Y-52.117
X81.072Y-52.084
X81.173Y-52.049
X81.274Y-52.014
X81.374Y-51.978
X81.474Y-51.942
X81.575Y-51.904
X81.675Y-51.866
X81.689Y-51.718
X81.703Y-51.571
X81.718Y-51.423
X81.734Y-51.276
X81.750Y-51.129
X81.767Y-50.982
X81.784Y-50.836
X81.802Y-50.689
X81.821Y-50.543
X81.841Y-50.397
X81.861Y-50.251
X81.881Y-50.106
X81.902Y-49.960
X81.924Y-49.815
X81.947Y-49.670
X81.970Y-49.525
X81.994Y-49.381
X82.018Y-49.236
X82.043Y-49.092
X82.068Y-48.948
X82.095Y-48.805
X82.121Y-48.661
X82.149Y-48.518
X82.177Y-48.375
X82.205Y-48.232
X82.234Y-48.090
X82.264Y-47.948
X82.295Y-47.805
X82.326Y-47.664
X82.357Y-47.522
X82.389Y-47.381
X82.422Y-47.239
X82.455Y-47.098
X82.489Y-46.958
X82.524Y-46.817
X82.559Y-46.677
X82.595Y-46.537
X82.631Y-46.397
X82.668Y-46.258
X82.705Y-46.118
X82.743Y-45.979
X82.782Y-45.841
X82.821Y-45.702
X82.861Y-45.564
X82.901Y-45.426
X82.942Y-45.288
X82.984Y-45.150
X83.026Y-45.013
X83.068Y-44.876
X83.111Y-44.739
X83.155Y-44.603
X83.199Y-44.467
X83.244Y-44.331
X83.290Y-44.195
X83.336Y-44.059
X83.382Y-43.924
X83.430Y-43.789
X83.477Y-43.654
X83.525Y-43.520
X83.574Y-43.386
X83.624Y-43.252
X83.674Y-43.118
X83.724Y-42.985
X83.775Y-42.852
G0Z5.080
G0X81.560Y-56.129
G1Z-1.000F304.8
G1X81.461Y-56.157F1016.0
X81.361Y-56.185
X81.262Y-56.212
X81.162Y-56.239
X81.063Y-56.265
X80.963Y-56.291
X80.864Y-56.316
X80.764Y-56.340
X80.664Y-56.364
X80.565Y-56.387
X80.465Y-56.410
X80.365Y-56.432
X80.266Y-56.453
X80.166Y-56.474
X80.066Y-56.495
X79.967Y-56.515
X79.867Y-56.534
X79.767Y-56.553
X79.667Y-56.571
X79.568Y-56.589
X79.468Y-56.606
X79.368Y-56.622
X79.268Y-56.638
X79.169Y-56.654
X79.069Y-56.668
X78.969Y-56.683
X78.870Y-56.697
X78.770Y-56.710
X78.670Y-56.722
X78.571Y-56.735
X78.471Y-56.746
X78.371Y-56.757
X78.272Y-56.768
X78.172Y-56.778
X78.073Y-56.787
X77.973Y-56.796
X77.874Y-56.804
X77.774Y-56.812
X77.675Y-56.819
X77.576Y-56.826
X77.476Y-56.832
X77.377Y-56.838
X77.278Y-56.843
X77.178Y-56.848
X77.079Y-56.852
X76.980Y-56.855
X76.881Y-56.858
X76.782Y-56.861
X76.683Y-56.862
X76.584Y-56.864
X76.485Y-56.865
X76.386Y-56.865
X76.288Y-56.865
X76.189Y-56.864
X76.090Y-56.863
X75.992Y-56.861
X75.893Y-56.859
X75.795Y-56.856
X75.697Y-56.853
X75.598Y-56.849
X75.500Y-56.845
X75.402Y-56.840
X75.304Y-56.834
X75.206Y-56.828
X75.108Y-56.822
X75.010Y-56.815
X74.912Y-56.807
X74.815Y-56.799
X74.717Y-56.791
X74.620Y-56.782
X74.522Y-56.772
X74.425Y-56.762
X74.328Y-56.752
X74.231Y-56.741
X74.134Y-56.729
X74.037Y-56.717
X73.940Y-56.705
X73.843Y-56.692
X73.747Y-56.678
X73.650Y-56.664
X73.554Y-56.650
X73.458Y-56.635
X73.361Y-56.619
X73.265Y-56.603
X73.169Y-56.586
X73.074Y-56.569
X72.978Y-56.552
X72.882Y-56.534
X72.787Y-56.515
X72.692Y-56.496
X72.596Y-56.477
X72.501Y-56.457
X72.407Y-56.436
X72.312Y-56.415
X72.217Y-56.394
X72.123Y-56.372
X72.028Y-56.349
X71.934Y-56.326
X71.840Y-56.303
X71.746Y-56.279
X71.652Y-56.255
X71.558Y-56.230
X71.465Y-56.205
X71.372Y-56.179
X71.278Y-56.153
X71.185Y-56.126
X71.092Y-56.098
X71.000Y-56.071
X70.907Y-56.043
X70.815Y-56.014
X70.722Y-55.985
X70.630Y-55.955
X70.538Y-55.925
X70.447Y-55.894
X70.355Y-55.863
X70.264Y-55.832
X70.172Y-55.800
X70.081Y-55.768
X69.990Y-55.735
X69.900Y-55.701
X69.809Y-55.667
X69.719Y-55.633
X69.629Y-55.598
X69.539Y-55.563
X69.449Y-55.527
X69.359Y-55.491
X69.270Y-55.455
X69.181Y-55.418
X69.092Y-55.380
X69.003Y-55.342
X68.914Y-55.304
X68.826Y-55.265
X68.738Y-55.226
X68.650Y-55.186
X68.562Y-55.146
X68.474Y-55.105
X68.387Y-55.064
X68.300Y-55.022
X68.213Y-54.980
X68.126Y-54.938
X68.040Y-54.895
X67.953Y-54.851
X67.867Y-54.808
X67.781Y-54.763
X67.696Y-54.719
X67.610Y-54.673
X67.525Y-54.628
X67.440Y-54.582
X67.356Y-54.535
X67.271Y-54.489
X67.187Y-54.441
X67.103Y-54.393
X67.019Y-54.345
X66.936Y-54.297
X66.852Y-54.247
X66.769Y-54.198
X66.687Y-54.148
X66.604Y-54.098
X66.522Y-54.047
X66.440Y-53.996
X66.358Y-53.944
X66.276Y-53.892
X66.195Y-53.839
X66.114Y-53.786
X66.033Y-53.733
X65.953Y-53.679
X65.873Y-53.625
X65.793Y-53.571
X65.713Y-53.515
X65.634Y-53.460
X65.554Y-53.404
X65.476Y-53.348
X65.397Y-53.291
X65.319Y-53.234
X65.241Y-53.176
X65.163Y-53.118
X65.085Y-53.060
X65.008Y-53.001
X64.931Y-52.942
X64.855Y-52.882
X64.778Y-52.822
X64.702Y-52.762
X64.627Y-52.701
X64.551Y-52.640
X64.476Y-52.578
X64.401Y-52.516
X64.327Y-52.454
X64.252Y-52.391
X64.178Y-52.328
X64.105Y-52.264
X64.032Y-52.200
X63.959Y-52.135
X63.886Y-52.071
X63.813Y-52.005
X63.741Y-51.940
X63.670Y-51.874
X63.598Y-51.807
X63.527Y-51.740
X63.456Y-51.673
X63.386Y-51.605
X63.316Y-51.537
X63.246Y-51.469
X63.176Y-51.400
X63.107Y-51.331
X63.038Y-51.261
X62.970Y-51.192
X62.902Y-51.121
X62.834Y-51.050
X62.766Y-50.979
X62.699Y-50.908
X62.633Y-50.836
X62.566Y-50.764
X62.500Y-50.691
X62.434Y-50.618
X62.369Y-50.545
X62.304Y-50.471
X62.239Y-50.397
X62.175Y-50.322
X62.111Y-50.247
X62.047Y-50.172
X61.984Y-50.096
X61.921Y-50.020
X61.859Y-49.944
X61.797Y-49.867
X61.735Y-49.790
X61.673Y-49.712
X61.612Y-49.634
X61.552Y-49.556
X61.491Y-49.478
X61.432Y-49.399
X61.372Y-49.319
X61.313Y-49.240
X61.254Y-49.159
X61.196Y-49.079
X61.138Y-48.998
X61.080Y-48.917
X61.023Y-48.836
X60.966Y-48.754
X60.910Y-48.672
X60.854Y-48.589
X60.798Y-48.506
X60.743Y-48.423
X60.688Y-48.339
X60.634Y-48.255
X60.580Y-48.171
X60.526Y-48.086
X60.473Y-48.001
X60.420Y-47.916
X60.368Y-47.830
X60.316Y-47.744
X60.264Y-47.657
X60.213Y-47.571
X60.163Y-47.483
X60.112Y-47.396
X60.062Y-47.308
X60.013Y-47.220
X59.966Y-47.467
X59.922Y-47.714
X59.878Y-47.960
X59.837Y-48.207
X59.797Y-48.454
X59.759Y-48.700
X59.722Y-48.947
X59.688Y-49.193
X59.654Y-49.440
X59.623Y-49.686
X59.593Y-49.932
X59.565Y-50.178
X59.538Y-50.425
X59.513Y-50.671
X59.489Y-50.917
X59.468Y-51.162
X59.448Y-51.408
X59.429Y-51.654
X59.412Y-51.899
X59.397Y-52.144
X59.383Y-52.390
X59.371Y-52.635
X59.360Y-52.880
X59.352Y-53.124
X59.344Y-53.369
X59.338Y-53.613
X59.334Y-53.858
X59.332Y-54.102
X59.331Y-54.346
X59.331Y-54.589
X59.334Y-54.833
X59.337Y-55.076
X59.343Y-55.319
X59.350Y-55.562
X59.358Y-55.805
X59.368Y-56.048
X59.380Y-56.290
X59.393Y-56.532
X59.407Y-56.774
X59.423Y-57.015
X59.441Y-57.257
X59.460Y-57.498
X59.481Y-57.738
X59.504Y-57.979
X59.527Y-58.219
X59.553Y-58.459
X59.580Y-58.699
X59.608Y-58.938
X59.638Y-59.177
X59.669Y-59.416
X59.702Y-59.655
X59.737Y-59.893
X59.773Y-60.131
X59.810Y-60.368
X59.849Y-60.606
X59.890Y-60.843
X59.931Y-61.079
X59.975Y-61.315
X60.020Y-61.551
X60.066Y-61.787
X60.114Y-62.022
X60.163Y-62.257
X60.214Y-62.491
X60.266Y-62.725
X60.327Y-62.820
X60.389Y-62.915
X60.451Y-63.009
X60.514Y-63.102
X60.577Y-63.195
X60.641Y-63.287
X60.705Y-63.378
X60.770Y-63.469
X60.836Y-63.559
X60.902Y-63.649
X60.968Y-63.737
X61.035Y-63.825
X61.102Y-63.913
X61.170Y-63.999
X61.239Y-64.085
X61.308Y-64.171
X61.377Y-64.255
X61.447Y-64.339
X61.517Y-64.423
X61.588Y-64.506
X61.659Y-64.588
X61.731Y-64.669
X61.803Y-64.750
X61.876Y-64.830
X61.949Y-64.909
X62.023Y-64.988
X62.097Y-65.066
X62.171Y-65.143
X62.246Y-65.220
X62.321Y-65.296
X62.397Y-65.371
X62.473Y-65.446
X62.550Y-65.520
X62.627Y-65.593
X62.705Y-65.666
X62.782Y-65.738
X62.861Y-65.809
X62.939Y-65.880
X63.018Y-65.950
X63.098Y-66.020
X63.178Y-66.088
X63.258Y-66.156
X63.339Y-66.224
X63.420Y-66.290
X63.501Y-66.356
X63.583Y-66.422
X63.665Y-66.486
X63.748Y-66.550
X63.831Y-66.614
X63.914Y-66.677
X63.998Y-66.739
X64.081Y-66.800
X64.166Y-66.861
X64.250Y-66.921
X64.335Y-66.980
X64.421Y-67.039
X64.506Y-67.097
X64.592Y-67.154
X64.679Y-67.211
X64.765Y-67.267
X64.852Y-67.322
X64.940Y-67.377
X65.027Y-67.431
X65.115Y-67.484
X65.203Y-67.537
X65.292Y-67.589
X65.381Y-67.640
X65.470Y-67.691
X65.559Y-67.741
X65.649Y-67.790
X65.739Y-67.839
X65.829Y-67.887
X65.919Y-67.934
X66.010Y-67.981
X66.101Y-68.026
X66.193Y-68.072
X66.284Y-68.116
X66.376Y-68.160
X66.468Y-68.204
X66.560Y-68.246
X66.653Y-68.288
X66.746Y-68.330
X66.839Y-68.370
X66.932Y-68.410
X67.025Y-68.449
X67.119Y-68.488
X67.213Y-68.526
X67.307Y-68.563
X67.401Y-68.600
X67.496Y-68.636
X67.591Y-68.671
X67.686Y-68.706
X67.781Y-68.739
X67.876Y-68.773
X67.972Y-68.805
X68.067Y-68.837
X68.163Y-68.868
X68.259Y-68.899
X68.356Y-68.929
X68.452Y-68.958
X68.549Y-68.987
X68.645Y-69.014
X68.742Y-69.042
X68.839Y-69.068
X68.937Y-69.094
X69.034Y-69.119
X69.132Y-69.144
X69.229Y-69.168
X69.327Y-69.191
X69.425Y-69.213
X69.523Y-69.235
X69.621Y-69.256
X69.720Y-69.277
X69.818Y-69.297
X69.916Y-69.316
X70.015Y-69.334
X70.114Y-69.352
X70.213Y-69.369
X70.312Y-69.386
X70.411Y-69.401
X70.510Y-69.417
X70.609Y-69.431
X70.708Y-69.445
X70.808Y-69.458
X70.907Y-69.470
X71.007Y-69.482
X71.106Y-69.493
X71.206Y-69.504
X71.306Y-69.513
X71.406Y-69.522
X71.506Y-69.531
X71.605Y-69.538
X71.705Y-69.546
X71.805Y-69.552
X71.905Y-69.558
X72.005Y-69.563
X72.105Y-69.567
X72.206Y-69.571
X72.306Y-69.574
X72.406Y-69.576
X72.506Y-69.578
X72.606Y-69.579
X72.706Y-69.579
X72.807Y-69.579
X72.907Y-69.578
X73.007Y-69.576
X73.107Y-69.574
X73.207Y-69.571
X73.308Y-69.567
X73.408Y-69.562
X73.508Y-69.557
X73.608Y-69.552
X73.708Y-69.545
X73.808Y-69.538
X73.908Y-69.530
X74.008Y-69.522
X74.108Y-69.513
X74.208Y-69.503
X74.308Y-69.492
X74.407Y-69.481
X74.507Y-69.470
X74.607Y-69.457
X74.706Y-69.444
X74.806Y-69.430
X74.905Y-69.416
X75.004Y-69.400
X75.104Y-69.385
X75.203Y-69.368
X75.302Y-69.351
X75.401Y-69.333
X75.500Y-69.314
X75.599Y-69.295
X75.697Y-69.275
X75.796Y-69.255
X75.894Y-69.233
X75.993Y-69.211
X76.091Y-69.189
X76.189Y-69.166
X76.287Y-69.142
X76.385Y-69.117
X76.482Y-69.092
X76.580Y-69.066
X76.677Y-69.039
X76.775Y-69.012
X76.872Y-68.984
X76.969Y-68.955
X77.065Y-68.926
X77.162Y-68.896
X77.259Y-68.865
X77.355Y-68.833
X77.451Y-68.801
X77.547Y-68.769
X77.643Y-68.735
X77.738Y-68.701
X77.834Y-68.666
X77.929Y-68.631
X78.024Y-68.595
X78.119Y-68.558
X78.213Y-68.520
X78.308Y-68.482
X78.402Y-68.443
X78.496Y-68.404
X78.590Y-68.364
X78.683Y-68.323
X78.777Y-68.281
X78.870Y-68.239
X78.962Y-68.196
X79.055Y-68.153
X79.147Y-68.108
X79.239Y-68.064
X79.331Y-68.018
X79.423Y-67.972
X79.514Y-67.925
X79.605Y-67.877
X79.696Y-67.829
X79.787Y-67.780
X79.877Y-67.730
X79.967Y-67.680
X80.057Y-67.629
X80.146Y-67.577
X80.235Y-67.525
X80.324Y-67.472
X80.413Y-67.418
X80.501Y-67.363
X80.589Y-67.308
X80.677Y-67.253
X80.764Y-67.196
X80.851Y-67.139
X80.938Y-67.081
X81.024Y-67.023
X81.110Y-66.964
X81.196Y-66.904
X81.282Y-66.843
X81.367Y-66.782
X81.452Y-66.720
X81.536Y-66.658
X81.620Y-66.594
X81.704Y-66.530
X81.787Y-66.466
X81.870Y-66.401
X81.953Y-66.335
X82.035Y-66.268
X82.117Y-66.201
X82.198Y-66.133
X82.279Y-66.064
X82.360Y-65.995
X82.441Y-65.925
X82.521Y-65.854
X82.600Y-65.783
X82.679Y-65.711
X82.758Y-65.638
X82.837Y-65.564
X82.915Y-65.490
X82.992Y-65.416
X83.069Y-65.340
X83.146Y-65.264
X83.102Y-65.127
X83.059Y-64.989
X83.016Y-64.851
X82.974Y-64.713
X82.932Y-64.575
X82.891Y-64.437
X82.851Y-64.298
X82.811Y-64.159
X82.772Y-64.021
X82.733Y-63.881
X82.695Y-63.742
X82.658Y-63.603
X82.621Y-63.463
X82.585Y-63.323
X82.550Y-63.183
X82.515Y-63.043
X82.481Y-62.902
X82.447Y-62.762
X82.414Y-62.621
X82.381Y-62.480
X82.350Y-62.339
X82.318Y-62.197
X82.288Y-62.056
X82.258Y-61.914
X82.228Y-61.772
X82.199Y-61.630
X82.171Y-61.488
X82.144Y-61.346
X82.117Y-61.204
X82.090Y-61.061
X82.065Y-60.918
X82.039Y-60.775
X82.015Y-60.632
X81.991Y-60.489
X81.968Y-60.345
X81.945Y-60.202
X81.923Y-60.058
X81.902Y-59.914
X81.881Y-59.770
X81.861Y-59.626
X81.841Y-59.482
X81.822Y-59.338
X81.804Y-59.193
X81.786Y-59.048
X81.769Y-58.904
X81.752Y-58.759
X81.736Y-58.614
X81.721Y-58.468
X81.706Y-58.323
X81.692Y-58.178
X81.679Y-58.032
X81.666Y-57.886
X81.654Y-57.741
X81.642Y-57.595
X81.631Y-57.449
X81.621Y-57.302
X81.611Y-57.156
X81.602Y-57.010
X81.593Y-56.863
X81.585Y-56.716
X81.578Y-56.570
X81.571Y-56.423
X81.565Y-56.276
X81.560Y-56.129
G1Z-2.000F304.8
G1X81.461Y-56.157F1016.0
X81.361Y-56.185
X81.262Y-56.212
X81.162Y-56.239
X81.063Y-56.265
X80.963Y-56.291
X80.864Y-56.316
X80.764Y-56.340
X80.664Y-56.364
X80.565Y-56.387
X80.465Y-56.410
X80.365Y-56.432
X80.266Y-56.453
X80.166Y-56.474
X80.066Y-56.495
X79.967Y-56.515
X79.867Y-56.534
X79.767Y-56.553
X79.667Y-56.571
X79.568Y-56.589
X79.468Y-56.606
X79.368Y-56.622
X79.268Y-56.638
X79.169Y-56.654
X79.069Y-56.668
X78.969Y-56.683
X78.870Y-56.697
X78.770Y-56.710
X78.670Y-56.722
X78.571Y-56.735
X78.471Y-56.746
X78.371Y-56.757
X78.272Y-56.768
X78.172Y-56.778
X78.073Y-56.787
X77.973Y-56.796
X77.874Y-56.804
X77.774Y-56.812
X77.675Y-56.819
X77.576Y-56.826
X77.476Y-56.832
X77.377Y-56.838
X77.278Y-56.843
X77.178Y-56.848
X77.079Y-56.852
X76.980Y-56.855
X76.881Y-56.858
X76.782Y-56.861
X76.683Y-56.862
X76.584Y-56.864
X76.485Y-56.865
X76.386Y-56.865
X76.288Y-56.865
X76.189Y-56.864
X76.090Y-56.863
X75.992Y-56.861
X75.893Y-56.859
X75.795Y-56.856
X75.697Y-56.853
X75.598Y-56.849
X75.500Y-56.845
X75.402Y-56.840
X75.304Y-56.834
X75.206Y-56.828
X75.108Y-56.822
X75.010Y-56.815
X74.912Y-56.807
X74.815Y-56.799
X74.717Y-56.791
X74.620Y-56.782
X74.522Y-56.772
X74.425Y-56.762
X74.328Y-56.752
X74.231Y-56.741
X74.134Y-56.729
X74.037Y-56.717
X73.940Y-56.705
X73.843Y-56.692
X73.747Y-56.678
X73.650Y-56.664
X73.554Y-56.650
X73.458Y-56.635
X73.361Y-56.619
X73.265Y-56.603
X73.169Y-56.586
X73.074Y-56.569
X72.978Y-56.552
X72.882Y-56.534
X72.787Y-56.515
X72.692Y-56.496
X72.596Y-56.477
X72.501Y-56.457
X72.407Y-56.436
X72.312Y-56.415
X72.217Y-56.394
X72.123Y-56.372
X72.028Y-56.349
X71.934Y-56.326
X71.840Y-56.303
X71.746Y-56.279
X71.652Y-56.255
X71.558Y-56.230
X71.465Y-56.205
X71.372Y-56.179
X71.278Y-56.153
X71.185Y-56.126
X71.092Y-56.098
X71.000Y-56.071
X70.907Y-56.043
X70.815Y-56.014
X70.722Y-55.985
X70.630Y-55.955
X70.538Y-55.925
X70.447Y-55.894
X70.355Y-55.863
X70.264Y-55.832
X70.172Y-55.800
X70.081Y-55.768
X69.990Y-55.735
X69.900Y-55.701
X69.809Y-55.667
X69.719Y-55.633
X69.629Y-55.598
X69.539Y-55.563
X69.449Y-55.527
X69.359Y-55.491
X69.270Y-55.455
X69.181Y-55.418
X69.092Y-55.380
X69.003Y-55.342
X68.914Y-55.304
X68.826Y-55.265
X68.738Y-55.226
X68.650Y-55.186
X68.562Y-55.146
X68.474Y-55.105
X68.387Y-55.064
X68.300Y-55.022
X68.213Y-54.980
X68.126Y-54.938
X68.040Y-54.895
X67.953Y-54.851
X67.867Y-54.808
X67.781Y-54.763
X67.696Y-54.719
X67.610Y-54.673
X67.525Y-54.628
X67.440Y-54.582
X67.356Y-54.535
X67.271Y-54.489
X67.187Y-54.441
X67.103Y-54.393
X67.019Y-54.345
X66.936Y-54.297
X66.852Y-54.247
X66.769Y-54.198
X66.687Y-54.148
X66.604Y-54.098
X66.522Y-54.047
X66.440Y-53.996
X66.358Y-53.944
X66.276Y-53.892
X66.195Y-53.839
X66.114Y-53.786
X66.033Y-53.733
X65.953Y-53.679
X65.873Y-53.625
X65.793Y-53.571
X65.713Y-53.515
X65.634Y-53.460
X65.554Y-53.404
X65.476Y-53.348
X65.397Y-53.291
X65.319Y-53.234
X65.241Y-53.176
X65.163Y-53.118
X65.085Y-53.060
X65.008Y-53.001
X64.931Y-52.942
X64.855Y-52.882
X64.778Y-52.822
X64.702Y-52.762
X64.627Y-52.701
X64.551Y-52.640
X64.476Y-52.578
X64.401Y-52.516
X64.327Y-52.454
X64.252Y-52.391
X64.178Y-52.328
X64.105Y-52.264
X64.032Y-52.200
X63.959Y-52.135
X63.886Y-52.071
X63.813Y-52.005
X63.741Y-51.940
X63.670Y-51.874
X63.598Y-51.807
X63.527Y-51.740
X63.456Y-51.673
X63.386Y-51.605
X63.316Y-51.537
X63.246Y-51.469
X63.176Y-51.400
X63.107Y-51.331
X63.038Y-51.261
X62.970Y-51.192
X62.902Y-51.121
X62.834Y-51.050
X62.766Y-50.979
X62.699Y-50.908
X62.633Y-50.836
X62.566Y-50.764
X62.500Y-50.691
X62.434Y-50.618
X62.369Y-50.545
X62.304Y-50.471
X62.239Y-50.397
X62.175Y-50.322
X62.111Y-50.247
X62.047Y-50.172
X61.984Y-50.096
X61.921Y-50.020
X61.859Y-49.944
X61.797Y-49.867
X61.735Y-49.790
X61.673Y-49.712
X61.612Y-49.634
X61.552Y-49.556
X61.491Y-49.478
X61.432Y-49.399
X61.372Y-49.319
X61.313Y-49.240
X61.254Y-49.159
X61.196Y-49.079
X61.138Y-48.998
X61.080Y-48.917
X61.023Y-48.836
X60.966Y-48.754
X60.910Y-48.672
X60.854Y-48.589
X60.798Y-48.506
X60.743Y-48.423
X60.688Y-48.339
X60.634Y-48.255
X60.580Y-48.171
X60.526Y-48.086
X60.473Y-48.001
X60.420Y-47.916
X60.368Y-47.830
X60.316Y-47.744
X60.264Y-47.657
X60.213Y-47.571
X60.163Y-47.483
X60.112Y-47.396
X60.062Y-47.308
X60.013Y-47.220
X59.966Y-47.467
X59.922Y-47.714
X59.878Y-47.960
X59.837Y-48.207
X59.797Y-48.454
X59.759Y-48.700
X59.722Y-48.947
X59.688Y-49.193
X59.654Y-49.440
X59.623Y-49.686
X59.593Y-49.932
X59.565Y-50.178
X59.538Y-50.425
X59.513Y-50.671
X59.489Y-50.917
X59.468Y-51.162
X59.448Y-51.408
X59.429Y-51.654
X59.412Y-51.899
X59.397Y-52.144
X59.383Y-52.390
X59.371Y-52.635
X59.360Y-52.880
X59.352Y-53.124
X59.344Y-53.369
X59.338Y-53.613
X59.334Y-53.858
X59.332Y-54.102
X59.331Y-54.346
X59.331Y-54.589
X59.334Y-54.833
X59.337Y-55.076
X59.343Y-55.319
X59.350Y-55.562
X59.358Y-55.805
X59.368Y-56.048
X59.380Y-56.290
X59.393Y-56.532
X59.407Y-56.774
X59.423Y-57.015
X59.441Y-57.257
X59.460Y-57.498
X59.481Y-57.738
X59.504Y-57.979
X59.527Y-58.219
X59.553Y-58.459
X59.580Y-58.699
X59.608Y-58.938
X59.638Y-59.177
X59.669Y-59.416
X59.702Y-59.655
X59.737Y-59.893
X59.773Y-60.131
X59.810Y-60.368
X59.849Y-60.606
X59.890Y-60.843
X59.931Y-61.079
X59.975Y-61.315
X60.020Y-61.551
X60.066Y-61.787
X60.114Y-62.022
X60.163Y-62.257
X60.214Y-62.491
X60.266Y-62.725
X60.327Y-62.820
X60.389Y-62.915
X60.451Y-63.009
X60.514Y-63.102
X60.577Y-63.195
X60.641Y-63.287
X60.705Y-63.378
X60.770Y-63.469
X60.836Y-63.559
X60.902Y-63.649
X60.968Y-63.737
X61.035Y-63.825
X61.102Y-63.913
X61.170Y-63.999
X61.239Y-64.085
X61.308Y-64.171
X61.377Y-64.255
X61.447Y-64.339
X61.517Y-64.423
X61.588Y-64.506
X61.659Y-64.588
X61.731Y-64.669
X61.803Y-64.750
X61.876Y-64.830
X61.949Y-64.909
X62.023Y-64.988
X62.097Y-65.066
X62.171Y-65.143
X62.246Y-65.220
X62.321Y-65.296
X62.397Y-65.371
X62.473Y-65.446
X62.550Y-65.520
X62.627Y-65.593
X62.705Y-65.666
X62.782Y-65.738
X62.861Y-65.809
X62.939Y-65.880
X63.018Y-65.950
X63.098Y-66.020
X63.178Y-66.088
X63.258Y-66.156
X63.339Y-66.224
X63.420Y-66.290
X63.501Y-66.356
X63.583Y-66.422
X63.665Y-66.486
X63.748Y-66.550
X63.831Y-66.614
X63.914Y-66.677
X63.998Y-66.739
X64.081Y-66.800
X64.166Y-66.861
X64.250Y-66.921
X64.335Y-66.980
X64.421Y-67.039
X64.506Y-67.097
X64.592Y-67.154
X64.679Y-67.211
X64.765Y-67.267
X64.852Y-67.322
X64.940Y-67.377
X65.027Y-67.431
X65.115Y-67.484
X65.203Y-67.537
X65.292Y-67.589
X65.381Y-67.640
X65.470Y-67.691
X65.559Y-67.741
X65.649Y-67.790
X65.739Y-67.839
X65.829Y-67.887
X65.919Y-67.934
X66.010Y-67.981
X66.101Y-68.026
X66.193Y-68.072
X66.284Y-68.116
X66.376Y-68.160
X66.468Y-68.204
X66.560Y-68.246
X66.653Y-68.288
X66.746Y-68.330
X66.839Y-68.370
X66.932Y-68.410
X67.025Y-68.449
X67.119Y-68.488
X67.213Y-68.526
X67.307Y-68.563
X67.401Y-68.600
X67.496Y-68.636
X67.591Y-68.671
X67.686Y-68.706
X67.781Y-68.739
X67.876Y-68.773
X67.972Y-68.805
X68.067Y-68.837
X68.163Y-68.868
X68.259Y-68.899
X68.356Y-68.929
X68.452Y-68.958
X68.549Y-68.987
X68.645Y-69.014
X68.742Y-69.042
X68.839Y-69.068
X68.937Y-69.094
X69.034Y-69.119
X69.132Y-69.144
X69.229Y-69.168
X69.327Y-69.191
X69.425Y-69.213
X69.523Y-69.235
X69.621Y-69.256
X69.720Y-69.277
X69.818Y-69.297
X69.916Y-69.316
X70.015Y-69.334
X70.114Y-69.352
X70.213Y-69.369
X70.312Y-69.386
X70.411Y-69.401
X70.510Y-69.417
X70.609Y-69.431
X70.708Y-69.445
X70.808Y-69.458
X70.907Y-69.470
X71.007Y-69.482
X71.106Y-69.493
X71.206Y-69.504
X71.306Y-69.513
X71.406Y-69.522
X71.506Y-69.531
X71.605Y-69.538
X71.705Y-69.546
X71.805Y-69.552
X71.905Y-69.558
X72.005Y-69.563
X72.105Y-69.567
X72.206Y-69.571
X72.306Y-69.574
X72.406Y-69.576
X72.506Y-69.578
X72.606Y-69.579
X72.706Y-69.579
X72.807Y-69.579
X72.907Y-69.578
X73.007Y-69.576
X73.107Y-69.574
X73.207Y-69.571
X73.308Y-69.567
X73.408Y-69.562
X73.508Y-69.557
X73.608Y-69.552
X73.708Y-69.545
X73.808Y-69.538
X73.908Y-69.530
X74.008Y-69.522
X74.108Y-69.513
X74.208Y-69.503
X74.308Y-69.492
X74.407Y-69.481
X74.507Y-69.470
X74.607Y-69.457
X74.706Y-69.444
X74.806Y-69.430
X74.905Y-69.416
X75.004Y-69.400
X75.104Y-69.385
X75.203Y-69.368
X75.302Y-69.351
X75.401Y-69.333
X75.500Y-69.314
X75.599Y-69.295
X75.697Y-69.275
X75.796Y-69.255
X75.894Y-69.233
X75.993Y-69.211
X76.091Y-69.189
X76.189Y-69.166
X76.287Y-69.142
X76.385Y-69.117
X76.482Y-69.092
X76.580Y-69.066
X76.677Y-69.039
X76.775Y-69.012
X76.872Y-68.984
X76.969Y-68.955
X77.065Y-68.926
X77.162Y-68.896
X77.259Y-68.865
X77.355Y-68.833
X77.451Y-68.801
X77.547Y-68.769
X77.643Y-68.735
X77.738Y-68.701
X77.834Y-68.666
X77.929Y-68.631
X78.024Y-68.595
X78.119Y-68.558
X78.213Y-68.520
X78.308Y-68.482
X78.402Y-68.443
X78.496Y-68.404
X78.590Y-68.364
X78.683Y-68.323
X78.777Y-68.281
X78.870Y-68.239
X78.962Y-68.196
X79.055Y-68.153
X79.147Y-68.108
X79.239Y-68.064
X79.331Y-68.018
X79.423Y-67.972
X79.514Y-67.925
X79.605Y-67.877
X79.696Y-67.829
X79.787Y-67.780
X79.877Y-67.730
X79.967Y-67.680
X80.057Y-67.629
X80.146Y-67.577
X80.235Y-67.525
X80.324Y-67.472
X80.413Y-67.418
X80.501Y-67.363
X80.589Y-67.308
X80.677Y-67.253
X80.764Y-67.196
X80.851Y-67.139
X80.938Y-67.081
X81.024Y-67.023
X81.110Y-66.964
X81.196Y-66.904
X81.282Y-66.843
X81.367Y-66.782
X81.452Y-66.720
X81.536Y-66.658
X81.620Y-66.594
X81.704Y-66.530
X81.787Y-66.466
X81.870Y-66.401
X81.953Y-66.335
X82.035Y-66.268
X82.117Y-66.201
X82.198Y-66.133
X82.279Y-66.064
X82.360Y-65.995
X82.441Y-65.925
X82.521Y-65.854
X82.600Y-65.783
X82.679Y-65.711
X82.758Y-65.638
X82.837Y-65.564
X82.915Y-65.490
X82.992Y-65.416
X83.069Y-65.340
X83.146Y-65.264
X83.102Y-65.127
X83.059Y-64.989
X83.016Y-64.851
X82.974Y-64.713
X82.932Y-64.575
X82.891Y-64.437
X82.851Y-64.298
X82.811Y-64.159
X82.772Y-64.021
X82.733Y-63.881
X82.695Y-63.742
X82.658Y-63.603
X82.621Y-63.463
X82.585Y-63.323
X82.550Y-63.183
X82.515Y-63.043
X82.481Y-62.902
X82.447Y-62.762
X82.414Y-62.621
X82.381Y-62.480
X82.350Y-62.339
X82.318Y-62.197
X82.288Y-62.056
X82.258Y-61.914
X82.228Y-61.772
X82.199Y-61.630
X82.171Y-61.488
X82.144Y-61.346
X82.117Y-61.204
X82.090Y-61.061
X82.065Y-60.918
X82.039Y-60.775
X82.015Y-60.632
X81.991Y-60.489
X81.968Y-60.345
X81.945Y-60.202
X81.923Y-60.058
X81.902Y-59.914
X81.881Y-59.770
X81.861Y-59.626
X81.841Y-59.482
X81.822Y-59.338
X81.804Y-59.193
X81.786Y-59.048
X81.769Y-58.904
X81.752Y-58.759
X81.736Y-58.614
X81.721Y-58.468
X81.706Y-58.323
X81.692Y-58.178
X81.679Y-58.032
X81.666Y-57.886
X81.654Y-57.741
X81.642Y-57.595
X81.631Y-57.449
X81.621Y-57.302
X81.611Y-57.156
X81.602Y-57.010
X81.593Y-56.863
X81.585Y-56.716
X81.578Y-56.570
X81.571Y-56.423
X81.565Y-56.276
X81.560Y-56.129
G0Z5.080
G0X84.727Y-69.234
G1Z-1.000F304.8
G1X84.584Y-69.352F1016.0
X84.440Y-69.469
X84.295Y-69.584
X84.149Y-69.697
X84.003Y-69.809
X83.855Y-69.919
X83.707Y-70.027
X83.558Y-70.134
X83.408Y-70.240
X83.257Y-70.343
X83.105Y-70.445
X82.953Y-70.546
X82.799Y-70.645
X82.645Y-70.742
X82.491Y-70.838
X82.335Y-70.932
X82.179Y-71.024
X82.022Y-71.115
X81.864Y-71.204
X81.706Y-71.292
X81.547Y-71.378
X81.387Y-71.462
X81.227Y-71.545
X81.066Y-71.626
X80.904Y-71.705
X80.742Y-71.783
X80.579Y-71.859
X80.415Y-71.934
X80.251Y-72.007
X80.087Y-72.078
X79.922Y-72.148
X79.756Y-72.216
X79.590Y-72.282
X79.423Y-72.347
X79.256Y-72.410
X79.088Y-72.472
X78.919Y-72.532
X78.751Y-72.590
X78.582Y-72.647
X78.412Y-72.702
X78.242Y-72.755
X78.071Y-72.806
X77.900Y-72.856
X77.729Y-72.905
X77.557Y-72.952
X77.385Y-72.997
X77.213Y-73.040
X77.040Y-73.082
X76.867Y-73.122
X76.693Y-73.160
X76.520Y-73.197
X76.346Y-73.232
X76.171Y-73.266
X75.997Y-73.298
X75.822Y-73.328
X75.647Y-73.356
X75.471Y-73.383
X75.296Y-73.408
X75.120Y-73.432
X74.944Y-73.454
X74.768Y-73.474
X74.591Y-73.492
X74.415Y-73.509
X74.238Y-73.524
X74.061Y-73.538
X73.884Y-73.550
X73.707Y-73.560
X73.530Y-73.568
X73.353Y-73.575
X73.175Y-73.580
X72.998Y-73.584
X72.820Y-73.586
X72.643Y-73.586
X72.465Y-73.584
X72.288Y-73.581
X72.110Y-73.576
X71.933Y-73.569
X71.755Y-73.561
X71.578Y-73.551
X71.400Y-73.539
X71.223Y-73.526
X71.045Y-73.511
X70.868Y-73.494
X70.691Y-73.476
X70.514Y-73.455
X70.337Y-73.433
X70.160Y-73.410
X69.984Y-73.385
X69.807Y-73.358
X69.631Y-73.329
X69.455Y-73.299
X69.279Y-73.267
X69.103Y-73.233
X68.928Y-73.197
X68.752Y-73.160
X68.577Y-73.121
X68.402Y-73.081
X68.228Y-73.039
X68.054Y-72.994
X67.880Y-72.949
X67.706Y-72.901
X67.533Y-72.852
X67.360Y-72.801
X67.187Y-72.749
X67.015Y-72.694
X66.843Y-72.638
X66.671Y-72.581
X66.500Y-72.521
X66.329Y-72.460
X66.159Y-72.397
X65.989Y-72.333
X65.820Y-72.266
X65.651Y-72.198
X65.482Y-72.128
X65.314Y-72.057
X65.146Y-71.984
X64.979Y-71.909
X64.813Y-71.832
X64.647Y-71.753
X64.481Y-71.673
X64.316Y-71.591
X64.152Y-71.508
X63.988Y-71.422
X63.825Y-71.335
X63.662Y-71.246
X63.500Y-71.155
X63.339Y-71.063
X63.178Y-70.969
X63.261Y-71.137
X63.345Y-71.304
X63.430Y-71.471
X63.516Y-71.637
X63.602Y-71.803
X63.690Y-71.969
X63.778Y-72.134
X63.867Y-72.299
X63.957Y-72.463
X64.048Y-72.627
X64.139Y-72.791
X64.232Y-72.954
X64.325Y-73.117
X64.419Y-73.279
X64.514Y-73.441
X64.610Y-73.603
X64.707Y-73.764
X64.804Y-73.925
X64.903Y-74.085
X65.002Y-74.245
X65.102Y-74.404
X65.203Y-74.563
X65.304Y-74.721
X65.407Y-74.879
X65.510Y-75.037
X65.614Y-75.194
X65.719Y-75.350
X65.825Y-75.506
X65.931Y-75.662
X66.039Y-75.817
X66.147Y-75.972
X66.256Y-76.126
X66.365Y-76.279
X66.476Y-76.433
X66.587Y-76.585
X66.699Y-76.737
X66.812Y-76.889
X66.926Y-77.040
X67.040Y-77.191
X67.155Y-77.341
X67.271Y-77.490
X67.388Y-77.639
X67.506Y-77.788
X67.624Y-77.936
X67.743Y-78.083
X67.863Y-78.230
X67.984Y-78.376
X68.105Y-78.522
X68.227Y-78.667
X68.350Y-78.812
