(VECTRIC POST REV.)
(4AC7A5FFD0F6DEDC3B51B569B338FFCA)
T1M6
G17
G0Z20.320
G0X0.000Y0.000S18000M3
G0X10.884Y7.632
G0Z5.080
G1Z-0.640F304.8
G1Y-289.193F1016.0
X247.709
Y7.632
X10.884
G1Z-1.280F304.8
G1Y-289.193F1016.0
X247.709
Y7.632
X10.884
G1Z-1.920F304.8
G1Y-289.193F1016.0
X247.709
Y7.632
X10.884
G1Z-2.560F304.8
G1Y-289.193F1016.0
X247.709
Y7.632
X10.884
G1Z-3.200F304.8
G1Y-289.193F1016.0
X247.709
Y7.632
X10.884
G0Z5.080
G0Z20.320
G0X0.000Y0.000
M30
