(VECTRIC POST REV.)
(82074C4DCA892683619619E26FA56BD3)

G20 G21
G0Z20.320
G0X0.000Y0.000S18000M3
G0X42.046Y-21.552
G0Z5.080
G1Z-1.250F304.8
G1X42.047Y-21.578F1016.0
X42.047Y-21.605
X42.047Y-21.618
Y-21.620
Y-21.621
Y-21.622
Y-21.624
Y-21.626
Y-21.628
Y-21.632
Y-21.635
Y-21.640
Y-21.644
Y-21.649
Y-21.655
Y-21.661
Y-21.668
Y-21.675
Y-21.682
Y-21.690
Y-21.698
Y-21.707
Y-21.717
Y-21.726
Y-21.736
Y-21.747
Y-21.758
Y-21.770
Y-21.781
Y-21.794
Y-21.807
Y-21.820
Y-21.833
Y-21.847
Y-21.862
Y-21.876
Y-21.892
Y-21.907
Y-21.923
Y-21.940
Y-21.956
Y-21.973
Y-21.991
Y-22.009
Y-22.027
Y-22.046
Y-22.065
Y-22.084
Y-22.104
Y-22.124
Y-22.144
Y-22.165
Y-22.186
Y-22.207
Y-22.229
Y-22.251
Y-22.274
Y-22.296
Y-22.319
Y-22.343
Y-22.367
Y-22.391
Y-22.415
Y-22.440
Y-22.464
Y-22.490
Y-22.515
Y-22.541
Y-22.567
Y-22.593
Y-22.620
Y-22.647
Y-22.674
Y-22.702
Y-22.729
Y-22.757
Y-22.786
Y-22.814
Y-22.843
Y-22.872
Y-22.901
Y-22.931
Y-22.960
Y-22.990
Y-23.020
Y-23.051
Y-23.081
Y-23.112
Y-23.143
Y-23.175
Y-23.206
Y-23.238
Y-23.270
Y-23.302
Y-23.367
Y-23.432
Y-23.498
Y-23.565
Y-23.633
Y-23.701
Y-23.770
Y-23.840
Y-23.909
Y-23.980
Y-24.051
Y-24.123
Y-24.194
Y-24.267
Y-24.340
Y-24.413
Y-24.486
Y-24.560
Y-24.634
Y-24.708
Y-24.857
Y-25.007
Y-25.157
Y-25.458
Y-25.608
Y-25.757
Y-25.832
Y-25.906
Y-25.980
Y-26.054
Y-26.127
Y-26.201
Y-26.274
Y-26.346
Y-26.418
Y-26.490
Y-26.561
Y-26.632
Y-26.702
Y-26.772
Y-26.841
Y-26.909
Y-26.977
Y-27.044
Y-27.111
Y-27.177
Y-27.242
Y-27.274
Y-27.306
Y-27.338
Y-27.370
Y-27.401
Y-27.433
Y-27.464
Y-27.494
Y-27.525
Y-27.555
Y-27.586
Y-27.615
Y-27.645
Y-27.675
Y-27.704
Y-27.733
Y-27.761
Y-27.790
Y-27.818
Y-27.846
Y-27.874
Y-27.901
Y-27.928
Y-27.955
Y-27.982
Y-28.008
Y-28.034
Y-28.060
Y-28.085
Y-28.111
Y-28.135
Y-28.160
Y-28.184
Y-28.208
Y-28.232
Y-28.255
Y-28.278
Y-28.301
Y-28.323
Y-28.345
Y-28.367
Y-28.389
Y-28.410
Y-28.430
Y-28.451
Y-28.471
Y-28.490
Y-28.510
Y-28.528
Y-28.547
Y-28.565
Y-28.583
Y-28.601
Y-28.618
Y-28.634
Y-28.651
Y-28.667
Y-28.682
Y-28.697
Y-28.712
Y-28.726
Y-28.740
Y-28.754
Y-28.767
Y-28.779
Y-28.792
Y-28.804
Y-28.815
Y-28.826
Y-28.837
Y-28.847
Y-28.856
Y-28.866
Y-28.874
Y-28.883
Y-28.890
Y-28.898
Y-28.905
Y-28.911
Y-28.917
Y-28.923
Y-28.928
Y-28.933
Y-28.937
Y-28.940
Y-28.943
Y-28.946
Y-28.948
Y-28.950
Y-28.951
Y-28.952
X42.046Y-28.952
X42.044
X42.043
X42.041
X42.039
X42.036
X42.034
X42.030
X42.027
X42.023
X42.019
X42.015
X42.010
X42.005
X42.000
X41.995
X41.989
X41.983
X41.976
X41.970
X41.963
X41.956
X41.948
X41.940
X41.932
X41.924
X41.916
X41.907
X41.898
X41.888
X41.879
X41.869
X41.859
X41.848
X41.838
X41.827
X41.816
X41.805
X41.793
X41.781
X41.769
X41.757
X41.744
X41.732
X41.719
X41.706
X41.692
X41.679
X41.665
X41.651
X41.636
X41.622
X41.607
X41.592
X41.577
X41.562
X41.547
X41.531
X41.499
X41.466
X41.433
X41.399
X41.364
X41.328
X41.292
X41.255
X41.218
X41.180
X41.141
X41.102
X41.062
X41.022
X40.981
X40.939
X40.898
X40.855
X40.812
X40.769
X40.726
X40.681
X40.637
X40.592
X40.547
X40.502
X40.456
X40.410
X40.364
X40.317
X40.270
X40.223
X40.176
X40.081
X39.986
X39.890
X39.697
X39.504
X39.408
X39.313
X39.218
X39.171
X39.124
X39.077
X39.030
X38.984
X38.938
X38.892
X38.847
X38.802
X38.757
X38.713
X38.669
X38.625
X38.582
X38.539
X38.497
X38.455
X38.413
X38.372
X38.332
X38.292
X38.253
X38.214
X38.176
X38.139
X38.102
X38.066
X38.030
X37.995
X37.961
X37.928
X37.895
X37.863
X37.847
X37.832
X37.817
X37.802
X37.787
X37.772
X37.758
X37.743
X37.729
X37.715
X37.702
X37.688
X37.675
X37.662
X37.650
X37.637
X37.625
X37.613
X37.601
X37.589
X37.578
X37.567
X37.556
X37.546
X37.535
X37.525
X37.515
X37.506
X37.496
X37.487
X37.478
X37.470
X37.462
X37.454
X37.446
X37.438
X37.431
X37.424
X37.418
X37.411
X37.405
X37.399
X37.394
X37.389
X37.384
X37.379
X37.375
X37.371
X37.367
X37.364
X37.361
X37.358
X37.355
X37.353
X37.351
X37.350
X37.348
X37.347
X37.347Y-28.951
Y-28.950
Y-28.948
Y-28.946
Y-28.943
Y-28.940
Y-28.937
Y-28.933
Y-28.928
Y-28.923
Y-28.917
Y-28.911
Y-28.905
Y-28.898
Y-28.890
Y-28.883
Y-28.874
Y-28.866
Y-28.856
Y-28.847
Y-28.837
Y-28.826
Y-28.815
Y-28.804
Y-28.792
Y-28.779
Y-28.767
Y-28.754
Y-28.740
Y-28.726
Y-28.712
Y-28.697
Y-28.682
Y-28.667
Y-28.651
Y-28.634
Y-28.618
Y-28.601
Y-28.583
Y-28.565
Y-28.547
Y-28.528
Y-28.510
Y-28.490
Y-28.471
Y-28.451
Y-28.430
Y-28.410
Y-28.389
Y-28.367
Y-28.345
Y-28.323
Y-28.301
Y-28.278
Y-28.255
Y-28.232
Y-28.208
Y-28.184
Y-28.160
Y-28.135
Y-28.111
Y-28.085
Y-28.060
Y-28.034
Y-28.008
Y-27.982
Y-27.955
Y-27.928
Y-27.901
Y-27.874
Y-27.846
Y-27.818
Y-27.790
Y-27.761
Y-27.733
Y-27.704
Y-27.675
Y-27.645
Y-27.615
Y-27.586
Y-27.555
Y-27.525
Y-27.494
Y-27.464
Y-27.433
Y-27.401
Y-27.370
Y-27.338
Y-27.306
Y-27.274
Y-27.242
Y-27.177
Y-27.111
Y-27.044
Y-26.977
Y-26.909
Y-26.841
Y-26.772
Y-26.702
Y-26.632
Y-26.561
Y-26.490
Y-26.418
Y-26.346
Y-26.274
Y-26.201
Y-26.127
Y-26.054
Y-25.980
Y-25.906
Y-25.832
Y-25.757
Y-25.608
Y-25.458
Y-25.157
Y-25.007
Y-24.857
Y-24.708
Y-24.634
Y-24.560
Y-24.486
Y-24.413
Y-24.340
Y-24.267
Y-24.194
Y-24.123
Y-24.051
Y-23.980
Y-23.909
Y-23.840
Y-23.770
Y-23.701
Y-23.633
Y-23.565
Y-23.498
Y-23.432
Y-23.367
Y-23.302
Y-23.270
Y-23.238
Y-23.206
Y-23.175
Y-23.143
Y-23.112
Y-23.081
Y-23.051
Y-23.020
Y-22.990
Y-22.960
Y-22.931
Y-22.901
Y-22.872
Y-22.843
Y-22.814
Y-22.786
Y-22.757
Y-22.729
Y-22.702
Y-22.674
Y-22.647
Y-22.620
Y-22.593
Y-22.567
Y-22.541
Y-22.515
Y-22.490
Y-22.464
Y-22.440
Y-22.415
Y-22.391
Y-22.367
Y-22.343
Y-22.319
Y-22.296
Y-22.274
Y-22.251
Y-22.229
Y-22.207
Y-22.186
Y-22.165
Y-22.144
Y-22.124
Y-22.104
Y-22.084
Y-22.065
Y-22.046
Y-22.027
Y-22.009
Y-21.991
Y-21.973
Y-21.956
Y-21.940
Y-21.923
Y-21.907
Y-21.892
Y-21.876
Y-21.862
Y-21.847
Y-21.833
Y-21.820
Y-21.807
Y-21.794
Y-21.781
Y-21.770
Y-21.758
Y-21.747
Y-21.736
Y-21.726
Y-21.717
Y-21.707
Y-21.698
Y-21.690
Y-21.682
Y-21.675
Y-21.668
Y-21.661
Y-21.655
Y-21.649
Y-21.644
Y-21.640
Y-21.635
Y-21.632
Y-21.628
Y-21.626
Y-21.624
Y-21.622
Y-21.621
Y-21.620
Y-21.619
X37.347Y-21.612
X37.347Y-21.586
X37.347Y-21.559
X37.348Y-21.533
X37.349Y-21.506
X37.351Y-21.480
X37.352Y-21.454
X37.354Y-21.428
X37.357Y-21.402
X37.359Y-21.376
X37.362Y-21.350
X37.365Y-21.324
X37.368Y-21.298
X37.372Y-21.273
X37.376Y-21.247
X37.380Y-21.222
X37.385Y-21.197
X37.389Y-21.171
X37.394Y-21.146
X37.400Y-21.121
X37.405Y-21.096
X37.411Y-21.071
X37.417Y-21.047
X37.423Y-21.022
X37.430Y-20.997
X37.437Y-20.973
X37.444Y-20.949
X37.451Y-20.924
X37.459Y-20.900
X37.467Y-20.876
X37.475Y-20.852
X37.483Y-20.829
X37.492Y-20.805
X37.501Y-20.781
X37.510Y-20.758
X37.519Y-20.735
X37.529Y-20.712
X37.538Y-20.689
X37.548Y-20.666
X37.559Y-20.643
X37.569Y-20.620
X37.580Y-20.598
X37.591Y-20.575
X37.602Y-20.553
X37.614Y-20.531
X37.625Y-20.509
X37.637Y-20.487
X37.649Y-20.465
X37.662Y-20.444
X37.674Y-20.422
X37.687Y-20.401
X37.700Y-20.380
X37.713Y-20.359
X37.727Y-20.338
X37.740Y-20.317
X37.754Y-20.297
X37.768Y-20.277
X37.782Y-20.256
X37.797Y-20.236
X37.811Y-20.216
X37.826Y-20.197
X37.841Y-20.177
X37.857Y-20.158
X37.872Y-20.138
X37.888Y-20.119
X37.904Y-20.100
X37.920Y-20.082
X37.936Y-20.063
X37.953Y-20.045
X37.969Y-20.026
X37.986Y-20.008
X38.003Y-19.991
X38.020Y-19.973
X38.038Y-19.955
X38.055Y-19.938
X38.073Y-19.921
X38.091Y-19.904
X38.109Y-19.887
X38.127Y-19.871
X38.146Y-19.854
X38.164Y-19.838
X38.183Y-19.822
X38.202Y-19.806
X38.221Y-19.791
X38.240Y-19.775
X38.260Y-19.760
X38.280Y-19.745
X38.299Y-19.730
X38.319Y-19.715
X38.339Y-19.701
X38.360Y-19.687
X38.380Y-19.673
X38.401Y-19.659
X38.421Y-19.645
X38.442Y-19.632
X38.463Y-19.619
X38.484Y-19.606
X38.506Y-19.593
X38.527Y-19.581
X38.549Y-19.569
X38.571Y-19.556
X38.592Y-19.545
X38.614Y-19.533
X38.637Y-19.522
X38.659Y-19.511
X38.681Y-19.500
X38.704Y-19.489
X38.727Y-19.479
X38.749Y-19.468
X38.772Y-19.458
X38.795Y-19.449
X38.819Y-19.439
X38.842Y-19.430
X38.865Y-19.421
X38.889Y-19.412
X38.913Y-19.403
X38.936Y-19.395
X38.960Y-19.387
X38.984Y-19.379
X39.009Y-19.372
X39.033Y-19.365
X39.057Y-19.358
X39.082Y-19.351
X39.106Y-19.344
X39.131Y-19.338
X39.156Y-19.332
X39.181Y-19.326
X39.205Y-19.321
X39.231Y-19.316
X39.256Y-19.311
X39.281Y-19.306
X39.306Y-19.302
X39.332Y-19.298
X39.357Y-19.294
X39.383Y-19.290
X39.409Y-19.287
X39.435Y-19.284
X39.460Y-19.281
X39.486Y-19.279
X39.512Y-19.277
X39.539Y-19.275
X39.565Y-19.273
X39.591Y-19.272
X39.618Y-19.271
X39.644Y-19.270
X39.670Y-19.270
X39.697Y-19.269
X39.698
X39.699Y-19.269
X39.703Y-19.269
X39.716Y-19.269
X39.742Y-19.270
X39.769Y-19.270
X39.795Y-19.271
X39.821Y-19.273
X39.847Y-19.274
X39.873Y-19.276
X39.899Y-19.278
X39.925Y-19.280
X39.951Y-19.283
X39.977Y-19.286
X40.002Y-19.289
X40.028Y-19.293
X40.053Y-19.296
X40.079Y-19.300
X40.104Y-19.305
X40.129Y-19.309
X40.154Y-19.314
X40.179Y-19.319
X40.204Y-19.325
X40.229Y-19.330
X40.254Y-19.336
X40.279Y-19.342
X40.303Y-19.349
X40.328Y-19.356
X40.352Y-19.363
X40.376Y-19.370
X40.400Y-19.377
X40.424Y-19.385
X40.448Y-19.393
X40.472Y-19.401
X40.496Y-19.410
X40.519Y-19.418
X40.543Y-19.427
X40.566Y-19.436
X40.589Y-19.446
X40.612Y-19.456
X40.635Y-19.465
X40.658Y-19.476
X40.681Y-19.486
X40.703Y-19.497
X40.726Y-19.507
X40.748Y-19.518
X40.770Y-19.530
X40.792Y-19.541
X40.814Y-19.553
X40.836Y-19.565
X40.858Y-19.577
X40.879Y-19.590
X40.900Y-19.602
X40.922Y-19.615
X40.943Y-19.628
X40.964Y-19.642
X40.984Y-19.655
X41.005Y-19.669
X41.026Y-19.683
X41.046Y-19.697
X41.066Y-19.711
X41.086Y-19.726
X41.106Y-19.741
X41.126Y-19.756
X41.145Y-19.771
X41.164Y-19.786
X41.184Y-19.802
X41.203Y-19.817
X41.222Y-19.833
X41.240Y-19.850
X41.259Y-19.866
X41.277Y-19.882
X41.295Y-19.899
X41.313Y-19.916
X41.331Y-19.933
X41.349Y-19.950
X41.366Y-19.968
X41.384Y-19.986
X41.401Y-20.003
X41.418Y-20.021
X41.434Y-20.039
X41.451Y-20.058
X41.467Y-20.076
X41.483Y-20.095
X41.499Y-20.114
X41.515Y-20.133
X41.531Y-20.152
X41.546Y-20.172
X41.561Y-20.191
X41.576Y-20.211
X41.591Y-20.231
X41.606Y-20.251
X41.620Y-20.271
X41.634Y-20.291
X41.648Y-20.312
X41.662Y-20.332
X41.675Y-20.353
X41.689Y-20.374
X41.702Y-20.395
X41.715Y-20.416
X41.727Y-20.438
X41.740Y-20.459
X41.752Y-20.481
X41.764Y-20.503
X41.776Y-20.525
X41.787Y-20.547
X41.799Y-20.569
X41.810Y-20.591
X41.821Y-20.614
X41.831Y-20.636
X41.842Y-20.659
X41.852Y-20.682
X41.862Y-20.705
X41.871Y-20.728
X41.881Y-20.751
X41.890Y-20.775
X41.899Y-20.798
X41.908Y-20.822
X41.916Y-20.846
X41.924Y-20.869
X41.932Y-20.893
X41.940Y-20.917
X41.948Y-20.942
X41.955Y-20.966
X41.962Y-20.990
X41.968Y-21.015
X41.975Y-21.039
X41.981Y-21.064
X41.987Y-21.089
X41.993Y-21.114
X41.998Y-21.139
X42.003Y-21.164
X42.008Y-21.189
X42.012Y-21.215
X42.017Y-21.240
X42.021Y-21.266
X42.025Y-21.291
X42.028Y-21.317
X42.031Y-21.343
X42.034Y-21.368
X42.037Y-21.394
X42.039Y-21.420
X42.041Y-21.446
X42.043Y-21.473
X42.044Y-21.499
X42.046Y-21.525
X42.046Y-21.552
G1Z-2.500F304.8
G1X42.047Y-21.578F1016.0
X42.047Y-21.605
X42.047Y-21.618
Y-21.620
Y-21.621
Y-21.622
Y-21.624
Y-21.626
Y-21.628
Y-21.632
Y-21.635
Y-21.640
Y-21.644
Y-21.649
Y-21.655
Y-21.661
Y-21.668
Y-21.675
Y-21.682
Y-21.690
Y-21.698
Y-21.707
Y-21.717
Y-21.726
Y-21.736
Y-21.747
Y-21.758
Y-21.770
Y-21.781
Y-21.794
Y-21.807
Y-21.820
Y-21.833
Y-21.847
Y-21.862
Y-21.876
Y-21.892
Y-21.907
Y-21.923
Y-21.940
Y-21.956
Y-21.973
Y-21.991
Y-22.009
Y-22.027
Y-22.046
Y-22.065
Y-22.084
Y-22.104
Y-22.124
Y-22.144
Y-22.165
Y-22.186
Y-22.207
Y-22.229
Y-22.251
Y-22.274
Y-22.296
Y-22.319
Y-22.343
Y-22.367
Y-22.391
Y-22.415
Y-22.440
Y-22.464
Y-22.490
Y-22.515
Y-22.541
Y-22.567
Y-22.593
Y-22.620
Y-22.647
Y-22.674
Y-22.702
Y-22.729
Y-22.757
Y-22.786
Y-22.814
Y-22.843
Y-22.872
Y-22.901
Y-22.931
Y-22.960
Y-22.990
Y-23.020
Y-23.051
Y-23.081
Y-23.112
Y-23.143
Y-23.175
Y-23.206
Y-23.238
Y-23.270
Y-23.302
Y-23.367
Y-23.432
Y-23.498
Y-23.565
Y-23.633
Y-23.701
Y-23.770
Y-23.840
Y-23.909
Y-23.980
Y-24.051
Y-24.123
Y-24.194
Y-24.267
Y-24.340
Y-24.413
Y-24.486
Y-24.560
Y-24.634
Y-24.708
Y-24.857
Y-25.007
Y-25.157
Y-25.458
Y-25.608
Y-25.757
Y-25.832
Y-25.906
Y-25.980
Y-26.054
Y-26.127
Y-26.201
Y-26.274
Y-26.346
Y-26.418
Y-26.490
Y-26.561
Y-26.632
Y-26.702
Y-26.772
Y-26.841
Y-26.909
Y-26.977
Y-27.044
Y-27.111
Y-27.177
Y-27.242
Y-27.274
Y-27.306
Y-27.338
Y-27.370
Y-27.401
Y-27.433
Y-27.464
Y-27.494
Y-27.525
Y-27.555
Y-27.586
Y-27.615
Y-27.645
Y-27.675
Y-27.704
Y-27.733
Y-27.761
Y-27.790
Y-27.818
Y-27.846
Y-27.874
Y-27.901
Y-27.928
Y-27.955
Y-27.982
Y-28.008
Y-28.034
Y-28.060
Y-28.085
Y-28.111
Y-28.135
Y-28.160
Y-28.184
Y-28.208
Y-28.232
Y-28.255
Y-28.278
Y-28.301
Y-28.323
Y-28.345
Y-28.367
Y-28.389
Y-28.410
Y-28.430
Y-28.451
Y-28.471
Y-28.490
Y-28.510
Y-28.528
Y-28.547
Y-28.565
Y-28.583
Y-28.601
Y-28.618
Y-28.634
Y-28.651
Y-28.667
Y-28.682
Y-28.697
Y-28.712
Y-28.726
Y-28.740
Y-28.754
Y-28.767
Y-28.779
Y-28.792
Y-28.804
Y-28.815
Y-28.826
Y-28.837
Y-28.847
Y-28.856
Y-28.866
Y-28.874
Y-28.883
Y-28.890
Y-28.898
Y-28.905
Y-28.911
Y-28.917
Y-28.923
Y-28.928
Y-28.933
Y-28.937
Y-28.940
Y-28.943
Y-28.946
Y-28.948
Y-28.950
Y-28.951
Y-28.952
X42.046Y-28.952
X42.044
X42.043
X42.041
X42.039
X42.036
X42.034
X42.030
X42.027
X42.023
X42.019
X42.015
X42.010
X42.005
X42.000
X41.995
X41.989
X41.983
X41.976
X41.970
X41.963
X41.956
X41.948
X41.940
X41.932
X41.924
X41.916
X41.907
X41.898
X41.888
X41.879
X41.869
X41.859
X41.848
X41.838
X41.827
X41.816
X41.805
X41.793
X41.781
X41.769
X41.757
X41.744
X41.732
X41.719
X41.706
X41.692
X41.679
X41.665
X41.651
X41.636
X41.622
X41.607
X41.592
X41.577
X41.562
X41.547
X41.531
X41.499
X41.466
X41.433
X41.399
X41.364
X41.328
X41.292
X41.255
X41.218
X41.180
X41.141
X41.102
X41.062
X41.022
X40.981
X40.939
X40.898
X40.855
X40.812
X40.769
X40.726
X40.681
X40.637
X40.592
X40.547
X40.502
X40.456
X40.410
X40.364
X40.317
X40.270
X40.223
X40.176
X40.081
X39.986
X39.890
X39.697
X39.504
X39.408
X39.313
X39.218
X39.171
X39.124
X39.077
X39.030
X38.984
X38.938
X38.892
X38.847
X38.802
X38.757
X38.713
X38.669
X38.625
X38.582
X38.539
X38.497
X38.455
X38.413
X38.372
X38.332
X38.292
X38.253
X38.214
X38.176
X38.139
X38.102
X38.066
X38.030
X37.995
X37.961
X37.928
X37.895
X37.863
X37.847
X37.832
X37.817
X37.802
X37.787
X37.772
X37.758
X37.743
X37.729
X37.715
X37.702
X37.688
X37.675
X37.662
X37.650
X37.637
X37.625
X37.613
X37.601
X37.589
X37.578
X37.567
X37.556
X37.546
X37.535
X37.525
X37.515
X37.506
X37.496
X37.487
X37.478
X37.470
X37.462
X37.454
X37.446
X37.438
X37.431
X37.424
X37.418
X37.411
X37.405
X37.399
X37.394
X37.389
X37.384
X37.379
X37.375
X37.371
X37.367
X37.364
X37.361
X37.358
X37.355
X37.353
X37.351
X37.350
X37.348
X37.347
X37.347Y-28.951
Y-28.950
Y-28.948
Y-28.946
Y-28.943
Y-28.940
Y-28.937
Y-28.933
Y-28.928
Y-28.923
Y-28.917
Y-28.911
Y-28.905
Y-28.898
Y-28.890
Y-28.883
Y-28.874
Y-28.866
Y-28.856
Y-28.847
Y-28.837
Y-28.826
Y-28.815
Y-28.804
Y-28.792
Y-28.779
Y-28.767
Y-28.754
Y-28.740
Y-28.726
Y-28.712
Y-28.697
Y-28.682
Y-28.667
Y-28.651
Y-28.634
Y-28.618
Y-28.601
Y-28.583
Y-28.565
Y-28.547
Y-28.528
Y-28.510
Y-28.490
Y-28.471
Y-28.451
Y-28.430
Y-28.410
Y-28.389
Y-28.367
Y-28.345
Y-28.323
Y-28.301
Y-28.278
Y-28.255
Y-28.232
Y-28.208
Y-28.184
Y-28.160
Y-28.135
Y-28.111
Y-28.085
Y-28.060
Y-28.034
Y-28.008
Y-27.982
Y-27.955
Y-27.928
Y-27.901
Y-27.874
Y-27.846
Y-27.818
Y-27.790
Y-27.761
Y-27.733
Y-27.704
Y-27.675
Y-27.645
Y-27.615
Y-27.586
Y-27.555
Y-27.525
Y-27.494
Y-27.464
Y-27.433
Y-27.401
Y-27.370
Y-27.338
Y-27.306
Y-27.274
Y-27.242
Y-27.177
Y-27.111
Y-27.044
Y-26.977
Y-26.909
Y-26.841
Y-26.772
Y-26.702
Y-26.632
Y-26.561
Y-26.490
Y-26.418
Y-26.346
Y-26.274
Y-26.201
Y-26.127
Y-26.054
Y-25.980
Y-25.906
Y-25.832
Y-25.757
Y-25.608
Y-25.458
Y-25.157
Y-25.007
Y-24.857
Y-24.708
Y-24.634
Y-24.560
Y-24.486
Y-24.413
Y-24.340
Y-24.267
Y-24.194
Y-24.123
Y-24.051
Y-23.980
Y-23.909
Y-23.840
Y-23.770
Y-23.701
Y-23.633
Y-23.565
Y-23.498
Y-23.432
Y-23.367
Y-23.302
Y-23.270
Y-23.238
Y-23.206
Y-23.175
Y-23.143
Y-23.112
Y-23.081
Y-23.051
Y-23.020
Y-22.990
Y-22.960
Y-22.931
Y-22.901
Y-22.872
Y-22.843
Y-22.814
Y-22.786
Y-22.757
Y-22.729
Y-22.702
Y-22.674
Y-22.647
Y-22.620
Y-22.593
Y-22.567
Y-22.541
Y-22.515
Y-22.490
Y-22.464
Y-22.440
Y-22.415
Y-22.391
Y-22.367
Y-22.343
Y-22.319
Y-22.296
Y-22.274
Y-22.251
Y-22.229
Y-22.207
Y-22.186
Y-22.165
Y-22.144
Y-22.124
Y-22.104
Y-22.084
Y-22.065
Y-22.046
Y-22.027
Y-22.009
Y-21.991
Y-21.973
Y-21.956
Y-21.940
Y-21.923
Y-21.907
Y-21.892
Y-21.876
Y-21.862
Y-21.847
Y-21.833
Y-21.820
Y-21.807
Y-21.794
Y-21.781
Y-21.770
Y-21.758
Y-21.747
Y-21.736
Y-21.726
Y-21.717
Y-21.707
Y-21.698
Y-21.690
Y-21.682
Y-21.675
Y-21.668
Y-21.661
Y-21.655
Y-21.649
Y-21.644
Y-21.640
Y-21.635
Y-21.632
Y-21.628
Y-21.626
Y-21.624
Y-21.622
Y-21.621
Y-21.620
Y-21.619
X37.347Y-21.612
X37.347Y-21.586
X37.347Y-21.559
X37.348Y-21.533
X37.349Y-21.506
X37.351Y-21.480
X37.352Y-21.454
X37.354Y-21.428
X37.357Y-21.402
X37.359Y-21.376
X37.362Y-21.350
X37.365Y-21.324
X37.368Y-21.298
X37.372Y-21.273
X37.376Y-21.247
X37.380Y-21.222
X37.385Y-21.197
X37.389Y-21.171
X37.394Y-21.146
X37.400Y-21.121
X37.405Y-21.096
X37.411Y-21.071
X37.417Y-21.047
X37.423Y-21.022
X37.430Y-20.997
X37.437Y-20.973
X37.444Y-20.949
X37.451Y-20.924
X37.459Y-20.900
X37.467Y-20.876
X37.475Y-20.852
X37.483Y-20.829
X37.492Y-20.805
X37.501Y-20.781
X37.510Y-20.758
X37.519Y-20.735
X37.529Y-20.712
X37.538Y-20.689
X37.548Y-20.666
X37.559Y-20.643
X37.569Y-20.620
X37.580Y-20.598
X37.591Y-20.575
X37.602Y-20.553
X37.614Y-20.531
X37.625Y-20.509
X37.637Y-20.487
X37.649Y-20.465
X37.662Y-20.444
X37.674Y-20.422
X37.687Y-20.401
X37.700Y-20.380
X37.713Y-20.359
X37.727Y-20.338
X37.740Y-20.317
X37.754Y-20.297
X37.768Y-20.277
X37.782Y-20.256
X37.797Y-20.236
X37.811Y-20.216
X37.826Y-20.197
X37.841Y-20.177
X37.857Y-20.158
X37.872Y-20.138
X37.888Y-20.119
X37.904Y-20.100
X37.920Y-20.082
X37.936Y-20.063
X37.953Y-20.045
X37.969Y-20.026
X37.986Y-20.008
X38.003Y-19.991
X38.020Y-19.973
X38.038Y-19.955
X38.055Y-19.938
X38.073Y-19.921
X38.091Y-19.904
X38.109Y-19.887
X38.127Y-19.871
X38.146Y-19.854
X38.164Y-19.838
X38.183Y-19.822
X38.202Y-19.806
X38.221Y-19.791
X38.240Y-19.775
X38.260Y-19.760
X38.280Y-19.745
X38.299Y-19.730
X38.319Y-19.715
X38.339Y-19.701
X38.360Y-19.687
X38.380Y-19.673
X38.401Y-19.659
X38.421Y-19.645
X38.442Y-19.632
X38.463Y-19.619
X38.484Y-19.606
X38.506Y-19.593
X38.527Y-19.581
X38.549Y-19.569
X38.571Y-19.556
X38.592Y-19.545
X38.614Y-19.533
X38.637Y-19.522
X38.659Y-19.511
X38.681Y-19.500
X38.704Y-19.489
X38.727Y-19.479
X38.749Y-19.468
X38.772Y-19.458
X38.795Y-19.449
X38.819Y-19.439
X38.842Y-19.430
X38.865Y-19.421
X38.889Y-19.412
X38.913Y-19.403
X38.936Y-19.395
X38.960Y-19.387
X38.984Y-19.379
X39.009Y-19.372
X39.033Y-19.365
X39.057Y-19.358
X39.082Y-19.351
X39.106Y-19.344
X39.131Y-19.338
X39.156Y-19.332
X39.181Y-19.326
X39.205Y-19.321
X39.231Y-19.316
X39.256Y-19.311
X39.281Y-19.306
X39.306Y-19.302
X39.332Y-19.298
X39.357Y-19.294
X39.383Y-19.290
X39.409Y-19.287
X39.435Y-19.284
X39.460Y-19.281
X39.486Y-19.279
X39.512Y-19.277
X39.539Y-19.275
X39.565Y-19.273
X39.591Y-19.272
X39.618Y-19.271
X39.644Y-19.270
X39.670Y-19.270
X39.697Y-19.269
X39.698
X39.699Y-19.269
X39.703Y-19.269
X39.716Y-19.269
X39.742Y-19.270
X39.769Y-19.270
X39.795Y-19.271
X39.821Y-19.273
X39.847Y-19.274
X39.873Y-19.276
X39.899Y-19.278
X39.925Y-19.280
X39.951Y-19.283
X39.977Y-19.286
X40.002Y-19.289
X40.028Y-19.293
X40.053Y-19.296
X40.079Y-19.300
X40.104Y-19.305
X40.129Y-19.309
X40.154Y-19.314
X40.179Y-19.319
X40.204Y-19.325
X40.229Y-19.330
X40.254Y-19.336
X40.279Y-19.342
X40.303Y-19.349
X40.328Y-19.356
X40.352Y-19.363
X40.376Y-19.370
X40.400Y-19.377
X40.424Y-19.385
X40.448Y-19.393
X40.472Y-19.401
X40.496Y-19.410
X40.519Y-19.418
X40.543Y-19.427
X40.566Y-19.436
X40.589Y-19.446
X40.612Y-19.456
X40.635Y-19.465
X40.658Y-19.476
X40.681Y-19.486
X40.703Y-19.497
X40.726Y-19.507
X40.748Y-19.518
X40.770Y-19.530
X40.792Y-19.541
X40.814Y-19.553
X40.836Y-19.565
X40.858Y-19.577
X40.879Y-19.590
X40.900Y-19.602
X40.922Y-19.615
X40.943Y-19.628
X40.964Y-19.642
X40.984Y-19.655
X41.005Y-19.669
X41.026Y-19.683
X41.046Y-19.697
X41.066Y-19.711
X41.086Y-19.726
X41.106Y-19.741
X41.126Y-19.756
X41.145Y-19.771
X41.164Y-19.786
X41.184Y-19.802
X41.203Y-19.817
X41.222Y-19.833
X41.240Y-19.850
X41.259Y-19.866
X41.277Y-19.882
X41.295Y-19.899
X41.313Y-19.916
X41.331Y-19.933
X41.349Y-19.950
X41.366Y-19.968
X41.384Y-19.986
X41.401Y-20.003
X41.418Y-20.021
X41.434Y-20.039
X41.451Y-20.058
X41.467Y-20.076
X41.483Y-20.095
X41.499Y-20.114
X41.515Y-20.133
X41.531Y-20.152
X41.546Y-20.172
X41.561Y-20.191
X41.576Y-20.211
X41.591Y-20.231
X41.606Y-20.251
X41.620Y-20.271
X41.634Y-20.291
X41.648Y-20.312
X41.662Y-20.332
X41.675Y-20.353
X41.689Y-20.374
X41.702Y-20.395
X41.715Y-20.416
X41.727Y-20.438
X41.740Y-20.459
X41.752Y-20.481
X41.764Y-20.503
X41.776Y-20.525
X41.787Y-20.547
X41.799Y-20.569
X41.810Y-20.591
X41.821Y-20.614
X41.831Y-20.636
X41.842Y-20.659
X41.852Y-20.682
X41.862Y-20.705
X41.871Y-20.728
X41.881Y-20.751
X41.890Y-20.775
X41.899Y-20.798
X41.908Y-20.822
X41.916Y-20.846
X41.924Y-20.869
X41.932Y-20.893
X41.940Y-20.917
X41.948Y-20.942
X41.955Y-20.966
X41.962Y-20.990
X41.968Y-21.015
X41.975Y-21.039
X41.981Y-21.064
X41.987Y-21.089
X41.993Y-21.114
X41.998Y-21.139
X42.003Y-21.164
X42.008Y-21.189
X42.012Y-21.215
X42.017Y-21.240
X42.021Y-21.266
X42.025Y-21.291
X42.028Y-21.317
X42.031Y-21.343
X42.034Y-21.368
X42.037Y-21.394
X42.039Y-21.420
X42.041Y-21.446
X42.043Y-21.473
X42.044Y-21.499
X42.046Y-21.525
X42.046Y-21.552
G1Z-3.750F304.8
G1X42.047Y-21.578F1016.0
X42.047Y-21.605
X42.047Y-21.618
Y-21.620
Y-21.621
Y-21.622
Y-21.624
Y-21.626
Y-21.628
Y-21.632
Y-21.635
Y-21.640
Y-21.644
Y-21.649
Y-21.655
Y-21.661
Y-21.668
Y-21.675
Y-21.682
Y-21.690
Y-21.698
Y-21.707
Y-21.717
Y-21.726
Y-21.736
Y-21.747
Y-21.758
Y-21.770
Y-21.781
Y-21.794
Y-21.807
Y-21.820
Y-21.833
Y-21.847
Y-21.862
Y-21.876
Y-21.892
Y-21.907
Y-21.923
Y-21.940
Y-21.956
Y-21.973
Y-21.991
Y-22.009
Y-22.027
Y-22.046
Y-22.065
Y-22.084
Y-22.104
Y-22.124
Y-22.144
Y-22.165
Y-22.186
Y-22.207
Y-22.229
Y-22.251
Y-22.274
Y-22.296
Y-22.319
Y-22.343
Y-22.367
Y-22.391
Y-22.415
Y-22.440
Y-22.464
Y-22.490
Y-22.515
Y-22.541
Y-22.567
Y-22.593
Y-22.620
Y-22.647
Y-22.674
Y-22.702
Y-22.729
Y-22.757
Y-22.786
Y-22.814
Y-22.843
Y-22.872
Y-22.901
Y-22.931
Y-22.960
Y-22.990
Y-23.020
Y-23.051
Y-23.081
Y-23.112
Y-23.143
Y-23.175
Y-23.206
Y-23.238
Y-23.270
Y-23.302
Y-23.367
Y-23.432
Y-23.498
Y-23.565
Y-23.633
Y-23.701
Y-23.770
Y-23.840
Y-23.909
Y-23.980
Y-24.051
Y-24.123
Y-24.194
Y-24.267
Y-24.340
Y-24.413
Y-24.486
Y-24.560
Y-24.634
Y-24.708
Y-24.857
Y-25.007
Y-25.157
Y-25.458
Y-25.608
Y-25.757
Y-25.832
Y-25.906
Y-25.980
Y-26.054
Y-26.127
Y-26.201
Y-26.274
Y-26.346
Y-26.418
Y-26.490
Y-26.561
Y-26.632
Y-26.702
Y-26.772
Y-26.841
Y-26.909
Y-26.977
Y-27.044
Y-27.111
Y-27.177
Y-27.242
Y-27.274
Y-27.306
Y-27.338
Y-27.370
Y-27.401
Y-27.433
Y-27.464
Y-27.494
Y-27.525
Y-27.555
Y-27.586
Y-27.615
Y-27.645
Y-27.675
Y-27.704
Y-27.733
Y-27.761
Y-27.790
Y-27.818
Y-27.846
Y-27.874
Y-27.901
Y-27.928
Y-27.955
Y-27.982
Y-28.008
Y-28.034
Y-28.060
Y-28.085
Y-28.111
Y-28.135
Y-28.160
Y-28.184
Y-28.208
Y-28.232
Y-28.255
Y-28.278
Y-28.301
Y-28.323
Y-28.345
Y-28.367
Y-28.389
Y-28.410
Y-28.430
Y-28.451
Y-28.471
Y-28.490
Y-28.510
Y-28.528
Y-28.547
Y-28.565
Y-28.583
Y-28.601
Y-28.618
Y-28.634
Y-28.651
Y-28.667
Y-28.682
Y-28.697
Y-28.712
Y-28.726
Y-28.740
Y-28.754
Y-28.767
Y-28.779
Y-28.792
Y-28.804
Y-28.815
Y-28.826
Y-28.837
Y-28.847
Y-28.856
Y-28.866
Y-28.874
Y-28.883
Y-28.890
Y-28.898
Y-28.905
Y-28.911
Y-28.917
Y-28.923
Y-28.928
Y-28.933
Y-28.937
Y-28.940
Y-28.943
Y-28.946
Y-28.948
Y-28.950
Y-28.951
Y-28.952
X42.046Y-28.952
X42.044
X42.043
X42.041
X42.039
X42.036
X42.034
X42.030
X42.027
X42.023
X42.019
X42.015
X42.010
X42.005
X42.000
X41.995
X41.989
X41.983
X41.976
X41.970
X41.963
X41.956
X41.948
X41.940
X41.932
X41.924
X41.916
X41.907
X41.898
X41.888
X41.879
X41.869
X41.859
X41.848
X41.838
X41.827
X41.816
X41.805
X41.793
X41.781
X41.769
X41.757
X41.744
X41.732
X41.719
X41.706
X41.692
X41.679
X41.665
X41.651
X41.636
X41.622
X41.607
X41.592
X41.577
X41.562
X41.547
X41.531
X41.499
X41.466
X41.433
X41.399
X41.364
X41.328
X41.292
X41.255
X41.218
X41.180
X41.141
X41.102
X41.062
X41.022
X40.981
X40.939
X40.898
X40.855
X40.812
X40.769
X40.726
X40.681
X40.637
X40.592
X40.547
X40.502
X40.456
X40.410
X40.364
X40.317
X40.270
X40.223
X40.176
X40.081
X39.986
X39.890
X39.697
X39.504
X39.408
X39.313
X39.218
X39.171
X39.124
X39.077
X39.030
X38.984
X38.938
X38.892
X38.847
X38.802
X38.757
X38.713
X38.669
X38.625
X38.582
X38.539
X38.497
X38.455
X38.413
X38.372
X38.332
X38.292
X38.253
X38.214
X38.176
X38.139
X38.102
X38.066
X38.030
X37.995
X37.961
X37.928
X37.895
X37.863
X37.847
X37.832
X37.817
X37.802
X37.787
X37.772
X37.758
X37.743
X37.729
X37.715
X37.702
X37.688
X37.675
X37.662
X37.650
X37.637
X37.625
X37.613
X37.601
X37.589
X37.578
X37.567
X37.556
X37.546
X37.535
X37.525
X37.515
X37.506
X37.496
X37.487
X37.478
X37.470
X37.462
X37.454
X37.446
X37.438
X37.431
X37.424
X37.418
X37.411
X37.405
X37.399
X37.394
X37.389
X37.384
X37.379
X37.375
X37.371
X37.367
X37.364
X37.361
X37.358
X37.355
X37.353
X37.351
X37.350
X37.348
X37.347
X37.347Y-28.951
Y-28.950
Y-28.948
Y-28.946
Y-28.943
Y-28.940
Y-28.937
Y-28.933
Y-28.928
Y-28.923
Y-28.917
Y-28.911
Y-28.905
Y-28.898
Y-28.890
Y-28.883
Y-28.874
Y-28.866
Y-28.856
Y-28.847
Y-28.837
Y-28.826
Y-28.815
Y-28.804
Y-28.792
Y-28.779
Y-28.767
Y-28.754
Y-28.740
Y-28.726
Y-28.712
Y-28.697
Y-28.682
Y-28.667
Y-28.651
Y-28.634
Y-28.618
Y-28.601
Y-28.583
Y-28.565
Y-28.547
Y-28.528
Y-28.510
Y-28.490
Y-28.471
Y-28.451
Y-28.430
Y-28.410
Y-28.389
Y-28.367
Y-28.345
Y-28.323
Y-28.301
Y-28.278
Y-28.255
Y-28.232
Y-28.208
Y-28.184
Y-28.160
Y-28.135
Y-28.111
Y-28.085
Y-28.060
Y-28.034
Y-28.008
Y-27.982
Y-27.955
Y-27.928
Y-27.901
Y-27.874
Y-27.846
Y-27.818
Y-27.790
Y-27.761
Y-27.733
Y-27.704
Y-27.675
Y-27.645
Y-27.615
Y-27.586
Y-27.555
Y-27.525
Y-27.494
Y-27.464
Y-27.433
Y-27.401
Y-27.370
Y-27.338
Y-27.306
Y-27.274
Y-27.242
Y-27.177
Y-27.111
Y-27.044
Y-26.977
Y-26.909
Y-26.841
Y-26.772
Y-26.702
Y-26.632
Y-26.561
Y-26.490
Y-26.418
Y-26.346
Y-26.274
Y-26.201
Y-26.127
Y-26.054
Y-25.980
Y-25.906
Y-25.832
Y-25.757
Y-25.608
Y-25.458
Y-25.157
Y-25.007
Y-24.857
Y-24.708
Y-24.634
Y-24.560
Y-24.486
Y-24.413
Y-24.340
Y-24.267
Y-24.194
Y-24.123
Y-24.051
Y-23.980
Y-23.909
Y-23.840
Y-23.770
Y-23.701
Y-23.633
Y-23.565
Y-23.498
Y-23.432
Y-23.367
Y-23.302
Y-23.270
Y-23.238
Y-23.206
Y-23.175
Y-23.143
Y-23.112
Y-23.081
Y-23.051
Y-23.020
Y-22.990
Y-22.960
Y-22.931
Y-22.901
Y-22.872
Y-22.843
Y-22.814
Y-22.786
Y-22.757
Y-22.729
Y-22.702
Y-22.674
Y-22.647
Y-22.620
Y-22.593
Y-22.567
Y-22.541
Y-22.515
Y-22.490
Y-22.464
Y-22.440
Y-22.415
Y-22.391
Y-22.367
Y-22.343
Y-22.319
Y-22.296
Y-22.274
Y-22.251
Y-22.229
Y-22.207
Y-22.186
Y-22.165
Y-22.144
Y-22.124
Y-22.104
Y-22.084
Y-22.065
Y-22.046
Y-22.027
Y-22.009
Y-21.991
Y-21.973
Y-21.956
Y-21.940
Y-21.923
Y-21.907
Y-21.892
Y-21.876
Y-21.862
Y-21.847
Y-21.833
Y-21.820
Y-21.807
Y-21.794
Y-21.781
Y-21.770
Y-21.758
Y-21.747
Y-21.736
Y-21.726
Y-21.717
Y-21.707
Y-21.698
Y-21.690
Y-21.682
Y-21.675
Y-21.668
Y-21.661
Y-21.655
Y-21.649
Y-21.644
Y-21.640
Y-21.635
Y-21.632
Y-21.628
Y-21.626
Y-21.624
Y-21.622
Y-21.621
Y-21.620
Y-21.619
X37.347Y-21.612
X37.347Y-21.586
X37.347Y-21.559
X37.348Y-21.533
X37.349Y-21.506
X37.351Y-21.480
X37.352Y-21.454
X37.354Y-21.428
X37.357Y-21.402
X37.359Y-21.376
X37.362Y-21.350
X37.365Y-21.324
X37.368Y-21.298
X37.372Y-21.273
X37.376Y-21.247
X37.380Y-21.222
X37.385Y-21.197
X37.389Y-21.171
X37.394Y-21.146
X37.400Y-21.121
X37.405Y-21.096
X37.411Y-21.071
X37.417Y-21.047
X37.423Y-21.022
X37.430Y-20.997
X37.437Y-20.973
X37.444Y-20.949
X37.451Y-20.924
X37.459Y-20.900
X37.467Y-20.876
X37.475Y-20.852
X37.483Y-20.829
X37.492Y-20.805
X37.501Y-20.781
X37.510Y-20.758
X37.519Y-20.735
X37.529Y-20.712
X37.538Y-20.689
X37.548Y-20.666
X37.559Y-20.643
X37.569Y-20.620
X37.580Y-20.598
X37.591Y-20.575
X37.602Y-20.553
X37.614Y-20.531
X37.625Y-20.509
X37.637Y-20.487
X37.649Y-20.465
X37.662Y-20.444
X37.674Y-20.422
X37.687Y-20.401
X37.700Y-20.380
X37.713Y-20.359
X37.727Y-20.338
X37.740Y-20.317
X37.754Y-20.297
X37.768Y-20.277
X37.782Y-20.256
X37.797Y-20.236
X37.811Y-20.216
X37.826Y-20.197
X37.841Y-20.177
X37.857Y-20.158
X37.872Y-20.138
X37.888Y-20.119
X37.904Y-20.100
X37.920Y-20.082
X37.936Y-20.063
X37.953Y-20.045
X37.969Y-20.026
X37.986Y-20.008
X38.003Y-19.991
X38.020Y-19.973
X38.038Y-19.955
X38.055Y-19.938
X38.073Y-19.921
X38.091Y-19.904
X38.109Y-19.887
X38.127Y-19.871
X38.146Y-19.854
X38.164Y-19.838
X38.183Y-19.822
X38.202Y-19.806
X38.221Y-19.791
X38.240Y-19.775
X38.260Y-19.760
X38.280Y-19.745
X38.299Y-19.730
X38.319Y-19.715
X38.339Y-19.701
X38.360Y-19.687
X38.380Y-19.673
X38.401Y-19.659
X38.421Y-19.645
X38.442Y-19.632
X38.463Y-19.619
X38.484Y-19.606
X38.506Y-19.593
X38.527Y-19.581
X38.549Y-19.569
X38.571Y-19.556
X38.592Y-19.545
X38.614Y-19.533
X38.637Y-19.522
X38.659Y-19.511
X38.681Y-19.500
X38.704Y-19.489
X38.727Y-19.479
X38.749Y-19.468
X38.772Y-19.458
X38.795Y-19.449
X38.819Y-19.439
X38.842Y-19.430
X38.865Y-19.421
X38.889Y-19.412
X38.913Y-19.403
X38.936Y-19.395
X38.960Y-19.387
X38.984Y-19.379
X39.009Y-19.372
X39.033Y-19.365
X39.057Y-19.358
X39.082Y-19.351
X39.106Y-19.344
X39.131Y-19.338
X39.156Y-19.332
X39.181Y-19.326
X39.205Y-19.321
X39.231Y-19.316
X39.256Y-19.311
X39.281Y-19.306
X39.306Y-19.302
X39.332Y-19.298
X39.357Y-19.294
X39.383Y-19.290
X39.409Y-19.287
X39.435Y-19.284
X39.460Y-19.281
X39.486Y-19.279
X39.512Y-19.277
X39.539Y-19.275
X39.565Y-19.273
X39.591Y-19.272
X39.618Y-19.271
X39.644Y-19.270
X39.670Y-19.270
X39.697Y-19.269
X39.698
X39.699Y-19.269
X39.703Y-19.269
X39.716Y-19.269
X39.742Y-19.270
X39.769Y-19.270
X39.795Y-19.271
X39.821Y-19.273
X39.847Y-19.274
X39.873Y-19.276
X39.899Y-19.278
X39.925Y-19.280
X39.951Y-19.283
X39.977Y-19.286
X40.002Y-19.289
X40.028Y-19.293
X40.053Y-19.296
X40.079Y-19.300
X40.104Y-19.305
X40.129Y-19.309
X40.154Y-19.314
X40.179Y-19.319
X40.204Y-19.325
X40.229Y-19.330
X40.254Y-19.336
X40.279Y-19.342
X40.303Y-19.349
X40.328Y-19.356
X40.352Y-19.363
X40.376Y-19.370
X40.400Y-19.377
X40.424Y-19.385
X40.448Y-19.393
X40.472Y-19.401
X40.496Y-19.410
X40.519Y-19.418
X40.543Y-19.427
X40.566Y-19.436
X40.589Y-19.446
X40.612Y-19.456
X40.635Y-19.465
X40.658Y-19.476
X40.681Y-19.486
X40.703Y-19.497
X40.726Y-19.507
X40.748Y-19.518
X40.770Y-19.530
X40.792Y-19.541
X40.814Y-19.553
X40.836Y-19.565
X40.858Y-19.577
X40.879Y-19.590
X40.900Y-19.602
X40.922Y-19.615
X40.943Y-19.628
X40.964Y-19.642
X40.984Y-19.655
X41.005Y-19.669
X41.026Y-19.683
X41.046Y-19.697
X41.066Y-19.711
X41.086Y-19.726
X41.106Y-19.741
X41.126Y-19.756
X41.145Y-19.771
X41.164Y-19.786
X41.184Y-19.802
X41.203Y-19.817
X41.222Y-19.833
X41.240Y-19.850
X41.259Y-19.866
X41.277Y-19.882
X41.295Y-19.899
X41.313Y-19.916
X41.331Y-19.933
X41.349Y-19.950
X41.366Y-19.968
X41.384Y-19.986
X41.401Y-20.003
X41.418Y-20.021
X41.434Y-20.039
X41.451Y-20.058
X41.467Y-20.076
X41.483Y-20.095
X41.499Y-20.114
X41.515Y-20.133
X41.531Y-20.152
X41.546Y-20.172
X41.561Y-20.191
X41.576Y-20.211
X41.591Y-20.231
X41.606Y-20.251
X41.620Y-20.271
X41.634Y-20.291
X41.648Y-20.312
X41.662Y-20.332
X41.675Y-20.353
X41.689Y-20.374
X41.702Y-20.395
X41.715Y-20.416
X41.727Y-20.438
X41.740Y-20.459
X41.752Y-20.481
X41.764Y-20.503
X41.776Y-20.525
X41.787Y-20.547
X41.799Y-20.569
X41.810Y-20.591
X41.821Y-20.614
X41.831Y-20.636
X41.842Y-20.659
X41.852Y-20.682
X41.862Y-20.705
X41.871Y-20.728
X41.881Y-20.751
X41.890Y-20.775
X41.899Y-20.798
X41.908Y-20.822
X41.916Y-20.846
X41.924Y-20.869
X41.932Y-20.893
X41.940Y-20.917
X41.948Y-20.942
X41.955Y-20.966
X41.962Y-20.990
X41.968Y-21.015
X41.975Y-21.039
X41.981Y-21.064
X41.987Y-21.089
X41.993Y-21.114
X41.998Y-21.139
X42.003Y-21.164
X42.008Y-21.189
X42.012Y-21.215
X42.017Y-21.240
X42.021Y-21.266
X42.025Y-21.291
X42.028Y-21.317
X42.031Y-21.343
X42.034Y-21.368
X42.037Y-21.394
X42.039Y-21.420
X42.041Y-21.446
X42.043Y-21.473
X42.044Y-21.499
X42.046Y-21.525
X42.046Y-21.552
G0Z5.080
G0X41.145Y-45.404
G1Z-1.250F304.8
G1X41.148Y-45.484F1016.0
X41.149Y-45.564
X41.149Y-45.584
Y-45.587
Y-45.588
Y-45.590
Y-45.593
Y-45.598
Y-45.604
Y-45.611
Y-45.620
Y-45.630
Y-45.642
Y-45.655
Y-45.669
Y-45.685
Y-45.702
Y-45.720
Y-45.739
Y-45.760
Y-45.782
Y-45.806
Y-45.830
Y-45.856
Y-45.883
Y-45.912
Y-45.941
Y-45.972
Y-46.004
Y-46.037
Y-46.071
Y-46.107
Y-46.143
Y-46.181
Y-46.220
Y-46.260
Y-46.301
Y-46.343
Y-46.387
Y-46.431
Y-46.477
Y-46.523
Y-46.571
Y-46.619
Y-46.669
Y-46.720
Y-46.772
Y-46.825
Y-46.878
Y-46.933
Y-46.989
Y-47.046
Y-47.103
Y-47.162
Y-47.222
Y-47.282
Y-47.344
Y-47.406
Y-47.469
Y-47.533
Y-47.599
Y-47.664
Y-47.731
Y-47.799
Y-47.867
Y-47.937
Y-48.007
Y-48.078
Y-48.150
Y-48.222
Y-48.295
Y-48.370
Y-48.444
Y-48.520
Y-48.597
Y-48.674
Y-48.752
Y-48.830
Y-48.909
Y-48.989
Y-49.070
Y-49.151
Y-49.233
Y-49.316
Y-49.399
Y-49.483
Y-49.568
Y-49.653
Y-49.739
Y-49.825
Y-49.913
Y-50.000
Y-50.088
Y-50.177
Y-50.266
Y-50.356
Y-50.446
Y-50.537
Y-50.629
Y-50.721
Y-50.813
Y-50.999
Y-51.187
Y-51.377
Y-51.569
Y-51.762
Y-51.957
Y-52.153
Y-52.350
Y-52.549
Y-52.749
Y-52.950
Y-53.153
Y-53.356
Y-53.560
Y-53.765
Y-53.971
Y-54.178
Y-54.385
Y-54.592
Y-55.009
Y-55.427
Y-56.263
Y-56.680
Y-57.096
Y-57.304
Y-57.510
Y-57.717
Y-57.922
Y-58.127
Y-58.330
Y-58.533
Y-58.735
Y-58.935
Y-59.135
Y-59.333
Y-59.530
Y-59.725
Y-59.919
Y-60.111
Y-60.302
Y-60.490
Y-60.677
Y-60.770
Y-60.863
Y-60.954
Y-61.046
Y-61.137
Y-61.227
Y-61.317
Y-61.406
Y-61.494
Y-61.582
Y-61.670
Y-61.757
Y-61.843
Y-61.929
Y-62.014
Y-62.099
Y-62.183
Y-62.266
Y-62.348
Y-62.430
Y-62.512
Y-62.592
Y-62.672
Y-62.751
Y-62.830
Y-62.907
Y-62.984
Y-63.061
Y-63.136
Y-63.211
Y-63.285
Y-63.358
Y-63.431
Y-63.502
Y-63.573
Y-63.643
Y-63.713
Y-63.781
Y-63.848
Y-63.915
Y-63.981
Y-64.046
Y-64.110
Y-64.173
Y-64.235
Y-64.297
Y-64.357
Y-64.416
Y-64.475
Y-64.533
Y-64.589
Y-64.645
Y-64.699
Y-64.753
Y-64.806
Y-64.857
Y-64.908
Y-64.958
Y-65.006
Y-65.054
Y-65.100
Y-65.145
Y-65.190
Y-65.233
Y-65.275
Y-65.316
Y-65.356
Y-65.395
Y-65.432
Y-65.469
Y-65.504
Y-65.538
Y-65.571
Y-65.603
Y-65.633
Y-65.663
Y-65.691
Y-65.718
Y-65.743
Y-65.768
Y-65.791
Y-65.813
Y-65.833
Y-65.853
Y-65.871
Y-65.888
Y-65.903
Y-65.917
Y-65.930
Y-65.941
Y-65.951
Y-65.960
Y-65.967
Y-65.973
Y-65.978
Y-65.981
Y-65.983
X41.148Y-65.983
X41.147
X41.145
X41.142
X41.140
X41.132
X41.123
X41.113
X41.100
X41.085
X41.069
X41.051
X41.031
X41.010
X40.987
X40.962
X40.936
X40.908
X40.878
X40.847
X40.814
X40.780
X40.745
X40.708
X40.670
X40.630
X40.589
X40.547
X40.503
X40.458
X40.412
X40.365
X40.316
X40.266
X40.216
X40.164
X40.111
X40.057
X40.002
X39.946
X39.889
X39.831
X39.772
X39.713
X39.652
X39.591
X39.529
X39.466
X39.402
X39.338
X39.273
X39.207
X39.141
X39.074
X39.006
X38.938
X38.870
X38.731
X38.591
X38.449
X38.306
X38.162
X38.017
X37.871
X37.578
X37.286
X37.140
X36.995
X36.850
X36.707
X36.565
X36.425
X36.287
X36.218
X36.150
X36.082
X36.016
X35.949
X35.884
X35.819
X35.754
X35.691
X35.628
X35.566
X35.504
X35.444
X35.384
X35.325
X35.267
X35.211
X35.155
X35.100
X35.046
X34.993
X34.941
X34.890
X34.840
X34.792
X34.744
X34.698
X34.653
X34.610
X34.567
X34.526
X34.487
X34.448
X34.411
X34.376
X34.342
X34.309
X34.278
X34.249
X34.221
X34.194
X34.170
X34.146
X34.125
X34.105
X34.087
X34.071
X34.056
X34.044
X34.033
X34.024
X34.017
X34.014
X34.012
X34.010
X34.008
X34.007
X34.007Y-65.981
Y-65.978
Y-65.973
Y-65.967
Y-65.960
Y-65.951
Y-65.941
Y-65.930
Y-65.917
Y-65.903
Y-65.888
Y-65.871
Y-65.853
Y-65.833
Y-65.813
Y-65.791
Y-65.768
Y-65.743
Y-65.718
Y-65.691
Y-65.663
Y-65.633
Y-65.603
Y-65.571
Y-65.538
Y-65.504
Y-65.469
Y-65.432
Y-65.395
Y-65.356
Y-65.316
Y-65.275
Y-65.233
Y-65.190
Y-65.145
Y-65.100
Y-65.054
Y-65.006
Y-64.958
Y-64.908
Y-64.857
Y-64.806
Y-64.753
Y-64.699
Y-64.645
Y-64.589
Y-64.533
Y-64.475
Y-64.416
Y-64.357
Y-64.297
Y-64.235
Y-64.173
Y-64.110
Y-64.046
Y-63.981
Y-63.915
Y-63.848
Y-63.781
Y-63.713
Y-63.643
Y-63.573
Y-63.502
Y-63.431
Y-63.358
Y-63.285
Y-63.211
Y-63.136
Y-63.061
Y-62.984
Y-62.907
Y-62.830
Y-62.751
Y-62.672
Y-62.592
Y-62.512
Y-62.430
Y-62.348
Y-62.266
Y-62.183
Y-62.099
Y-62.014
Y-61.929
Y-61.843
Y-61.757
Y-61.670
Y-61.582
Y-61.494
Y-61.406
Y-61.317
Y-61.227
Y-61.137
Y-61.046
Y-60.954
Y-60.863
Y-60.770
Y-60.677
Y-60.490
Y-60.302
Y-60.111
Y-59.919
Y-59.725
Y-59.530
Y-59.333
Y-59.135
Y-58.935
Y-58.735
Y-58.533
Y-58.330
Y-58.127
Y-57.922
Y-57.717
Y-57.510
Y-57.304
Y-57.096
Y-56.680
Y-56.263
Y-55.427
Y-55.009
Y-54.592
Y-54.385
Y-54.178
Y-53.971
Y-53.765
Y-53.560
Y-53.356
Y-53.153
Y-52.950
Y-52.749
Y-52.549
Y-52.350
Y-52.153
Y-51.957
Y-51.762
Y-51.569
Y-51.377
Y-51.187
Y-50.999
Y-50.813
Y-50.721
Y-50.629
Y-50.537
Y-50.446
Y-50.356
Y-50.266
Y-50.177
Y-50.088
Y-50.000
Y-49.913
Y-49.825
Y-49.739
Y-49.653
Y-49.568
Y-49.483
Y-49.399
Y-49.316
Y-49.233
Y-49.151
Y-49.070
Y-48.989
Y-48.909
Y-48.830
Y-48.752
Y-48.674
Y-48.597
Y-48.520
Y-48.444
Y-48.370
Y-48.295
Y-48.222
Y-48.150
Y-48.078
Y-48.007
Y-47.937
Y-47.867
Y-47.799
Y-47.731
Y-47.664
Y-47.599
Y-47.533
Y-47.469
Y-47.406
Y-47.344
Y-47.282
Y-47.222
Y-47.162
Y-47.103
Y-47.046
Y-46.989
Y-46.933
Y-46.878
Y-46.825
Y-46.772
Y-46.720
Y-46.669
Y-46.619
Y-46.571
Y-46.523
Y-46.477
Y-46.431
Y-46.387
Y-46.343
Y-46.301
Y-46.260
Y-46.220
Y-46.181
Y-46.143
Y-46.107
Y-46.071
Y-46.037
Y-46.004
Y-45.972
Y-45.941
Y-45.912
Y-45.883
Y-45.856
Y-45.830
Y-45.806
Y-45.782
Y-45.760
Y-45.739
Y-45.720
Y-45.702
Y-45.685
Y-45.669
Y-45.655
Y-45.642
Y-45.630
Y-45.620
Y-45.611
Y-45.604
Y-45.598
Y-45.593
Y-45.590
Y-45.588
Y-45.587
Y-45.586
X34.007Y-45.576
X34.008Y-45.495
X34.011Y-45.415
X34.016Y-45.336
X34.022Y-45.257
X34.030Y-45.178
X34.040Y-45.100
X34.052Y-45.023
X34.065Y-44.946
X34.080Y-44.870
X34.096Y-44.794
X34.114Y-44.718
X34.134Y-44.644
X34.155Y-44.570
X34.178Y-44.497
X34.203Y-44.424
X34.228Y-44.352
X34.256Y-44.281
X34.285Y-44.210
X34.315Y-44.140
X34.346Y-44.071
X34.380Y-44.003
X34.414Y-43.936
X34.450Y-43.869
X34.487Y-43.804
X34.526Y-43.739
X34.566Y-43.675
X34.607Y-43.612
X34.649Y-43.549
X34.693Y-43.488
X34.738Y-43.428
X34.784Y-43.369
X34.832Y-43.310
X34.880Y-43.253
X34.930Y-43.197
X34.981Y-43.142
X35.033Y-43.088
X35.086Y-43.035
X35.141Y-42.983
X35.196Y-42.932
X35.252Y-42.882
X35.310Y-42.834
X35.368Y-42.787
X35.428Y-42.740
X35.488Y-42.696
X35.549Y-42.652
X35.612Y-42.610
X35.675Y-42.569
X35.739Y-42.529
X35.804Y-42.491
X35.870Y-42.454
X35.937Y-42.418
X36.004Y-42.384
X36.072Y-42.351
X36.142Y-42.319
X36.211Y-42.289
X36.282Y-42.260
X36.353Y-42.233
X36.425Y-42.208
X36.498Y-42.184
X36.572Y-42.161
X36.646Y-42.140
X36.720Y-42.121
X36.796Y-42.103
X36.872Y-42.086
X36.948Y-42.072
X37.025Y-42.059
X37.103Y-42.047
X37.181Y-42.038
X37.259Y-42.030
X37.338Y-42.024
X37.418Y-42.019
X37.498Y-42.017
X37.578Y-42.016
X37.579
X37.582Y-42.016
X37.587Y-42.016
X37.607Y-42.016
X37.647Y-42.016
X37.727Y-42.019
X37.807Y-42.023
X37.886Y-42.029
X37.964Y-42.037
X38.043Y-42.046
X38.120Y-42.057
X38.197Y-42.070
X38.274Y-42.084
X38.350Y-42.100
X38.425Y-42.118
X38.500Y-42.137
X38.574Y-42.158
X38.648Y-42.180
X38.721Y-42.204
X38.793Y-42.230
X38.864Y-42.256
X38.935Y-42.285
X39.005Y-42.315
X39.074Y-42.346
X39.142Y-42.379
X39.210Y-42.413
X39.277Y-42.448
X39.343Y-42.485
X39.408Y-42.523
X39.472Y-42.563
X39.536Y-42.604
X39.598Y-42.646
X39.660Y-42.689
X39.720Y-42.734
X39.780Y-42.780
X39.838Y-42.827
X39.896Y-42.875
X39.952Y-42.925
X40.008Y-42.975
X40.062Y-43.027
X40.116Y-43.080
X40.168Y-43.134
X40.219Y-43.189
X40.269Y-43.245
X40.318Y-43.302
X40.365Y-43.360
X40.412Y-43.419
X40.457Y-43.480
X40.501Y-43.541
X40.543Y-43.603
X40.585Y-43.666
X40.625Y-43.729
X40.664Y-43.794
X40.701Y-43.860
X40.737Y-43.926
X40.772Y-43.994
X40.805Y-44.062
X40.837Y-44.131
X40.868Y-44.200
X40.897Y-44.271
X40.924Y-44.342
X40.950Y-44.414
X40.975Y-44.486
X40.998Y-44.559
X41.019Y-44.633
X41.039Y-44.708
X41.058Y-44.783
X41.074Y-44.859
X41.089Y-44.935
X41.103Y-45.012
X41.115Y-45.089
X41.125Y-45.167
X41.133Y-45.246
X41.140Y-45.325
X41.145Y-45.404
G1Z-2.500F304.8
G1X41.148Y-45.484F1016.0
X41.149Y-45.564
X41.149Y-45.584
Y-45.587
Y-45.588
Y-45.590
Y-45.593
Y-45.598
Y-45.604
Y-45.611
Y-45.620
Y-45.630
Y-45.642
Y-45.655
Y-45.669
Y-45.685
Y-45.702
Y-45.720
Y-45.739
Y-45.760
Y-45.782
Y-45.806
Y-45.830
Y-45.856
Y-45.883
Y-45.912
Y-45.941
Y-45.972
Y-46.004
Y-46.037
Y-46.071
Y-46.107
Y-46.143
Y-46.181
Y-46.220
Y-46.260
Y-46.301
Y-46.343
Y-46.387
Y-46.431
Y-46.477
Y-46.523
Y-46.571
Y-46.619
Y-46.669
Y-46.720
Y-46.772
Y-46.825
Y-46.878
Y-46.933
Y-46.989
Y-47.046
Y-47.103
Y-47.162
Y-47.222
Y-47.282
Y-47.344
Y-47.406
Y-47.469
Y-47.533
Y-47.599
Y-47.664
Y-47.731
Y-47.799
Y-47.867
Y-47.937
Y-48.007
Y-48.078
Y-48.150
Y-48.222
Y-48.295
Y-48.370
Y-48.444
Y-48.520
Y-48.597
Y-48.674
Y-48.752
Y-48.830
Y-48.909
Y-48.989
Y-49.070
Y-49.151
Y-49.233
Y-49.316
Y-49.399
Y-49.483
Y-49.568
Y-49.653
Y-49.739
Y-49.825
Y-49.913
Y-50.000
Y-50.088
Y-50.177
Y-50.266
Y-50.356
Y-50.446
Y-50.537
Y-50.629
Y-50.721
Y-50.813
Y-50.999
Y-51.187
Y-51.377
Y-51.569
Y-51.762
Y-51.957
Y-52.153
Y-52.350
Y-52.549
Y-52.749
Y-52.950
Y-53.153
Y-53.356
Y-53.560
Y-53.765
Y-53.971
Y-54.178
Y-54.385
Y-54.592
Y-55.009
Y-55.427
Y-56.263
Y-56.680
Y-57.096
Y-57.304
Y-57.510
Y-57.717
Y-57.922
Y-58.127
Y-58.330
Y-58.533
Y-58.735
Y-58.935
Y-59.135
Y-59.333
Y-59.530
Y-59.725
Y-59.919
Y-60.111
Y-60.302
Y-60.490
Y-60.677
Y-60.770
Y-60.863
Y-60.954
Y-61.046
Y-61.137
Y-61.227
Y-61.317
Y-61.406
Y-61.494
Y-61.582
Y-61.670
Y-61.757
Y-61.843
Y-61.929
Y-62.014
Y-62.099
Y-62.183
Y-62.266
Y-62.348
Y-62.430
Y-62.512
Y-62.592
Y-62.672
Y-62.751
Y-62.830
Y-62.907
Y-62.984
Y-63.061
Y-63.136
Y-63.211
Y-63.285
Y-63.358
Y-63.431
Y-63.502
Y-63.573
Y-63.643
Y-63.713
Y-63.781
Y-63.848
Y-63.915
Y-63.981
Y-64.046
Y-64.110
Y-64.173
Y-64.235
Y-64.297
Y-64.357
Y-64.416
Y-64.475
Y-64.533
Y-64.589
Y-64.645
Y-64.699
Y-64.753
Y-64.806
Y-64.857
Y-64.908
Y-64.958
Y-65.006
Y-65.054
Y-65.100
Y-65.145
Y-65.190
Y-65.233
Y-65.275
Y-65.316
Y-65.356
Y-65.395
Y-65.432
Y-65.469
Y-65.504
Y-65.538
Y-65.571
Y-65.603
Y-65.633
Y-65.663
Y-65.691
Y-65.718
Y-65.743
Y-65.768
Y-65.791
Y-65.813
Y-65.833
Y-65.853
Y-65.871
Y-65.888
Y-65.903
Y-65.917
Y-65.930
Y-65.941
Y-65.951
Y-65.960
Y-65.967
Y-65.973
Y-65.978
Y-65.981
Y-65.983
X41.148Y-65.983
X41.147
X41.145
X41.142
X41.140
X41.132
X41.123
X41.113
X41.100
X41.085
X41.069
X41.051
X41.031
X41.010
X40.987
X40.962
X40.936
X40.908
X40.878
X40.847
X40.814
X40.780
X40.745
X40.708
X40.670
X40.630
X40.589
X40.547
X40.503
X40.458
X40.412
X40.365
X40.316
X40.266
X40.216
X40.164
X40.111
X40.057
X40.002
X39.946
X39.889
X39.831
X39.772
X39.713
X39.652
X39.591
X39.529
X39.466
X39.402
X39.338
X39.273
X39.207
X39.141
X39.074
X39.006
X38.938
X38.870
X38.731
X38.591
X38.449
X38.306
X38.162
X38.017
X37.871
X37.578
X37.286
X37.140
X36.995
X36.850
X36.707
X36.565
X36.425
X36.287
X36.218
X36.150
X36.082
X36.016
X35.949
X35.884
X35.819
X35.754
X35.691
X35.628
X35.566
X35.504
X35.444
X35.384
X35.325
X35.267
X35.211
X35.155
X35.100
X35.046
X34.993
X34.941
X34.890
X34.840
X34.792
X34.744
X34.698
X34.653
X34.610
X34.567
X34.526
X34.487
X34.448
X34.411
X34.376
X34.342
X34.309
X34.278
X34.249
X34.221
X34.194
X34.170
X34.146
X34.125
X34.105
X34.087
X34.071
X34.056
X34.044
X34.033
X34.024
X34.017
X34.014
X34.012
X34.010
X34.008
X34.007
X34.007Y-65.981
Y-65.978
Y-65.973
Y-65.967
Y-65.960
Y-65.951
Y-65.941
Y-65.930
Y-65.917
Y-65.903
Y-65.888
Y-65.871
Y-65.853
Y-65.833
Y-65.813
Y-65.791
Y-65.768
Y-65.743
Y-65.718
Y-65.691
Y-65.663
Y-65.633
Y-65.603
Y-65.571
Y-65.538
Y-65.504
Y-65.469
Y-65.432
Y-65.395
Y-65.356
Y-65.316
Y-65.275
Y-65.233
Y-65.190
Y-65.145
Y-65.100
Y-65.054
Y-65.006
Y-64.958
Y-64.908
Y-64.857
Y-64.806
Y-64.753
Y-64.699
Y-64.645
Y-64.589
Y-64.533
Y-64.475
Y-64.416
Y-64.357
Y-64.297
Y-64.235
Y-64.173
Y-64.110
Y-64.046
Y-63.981
Y-63.915
Y-63.848
Y-63.781
Y-63.713
Y-63.643
Y-63.573
Y-63.502
Y-63.431
Y-63.358
Y-63.285
Y-63.211
Y-63.136
Y-63.061
Y-62.984
Y-62.907
Y-62.830
Y-62.751
Y-62.672
Y-62.592
Y-62.512
Y-62.430
Y-62.348
Y-62.266
Y-62.183
Y-62.099
Y-62.014
Y-61.929
Y-61.843
Y-61.757
Y-61.670
Y-61.582
Y-61.494
Y-61.406
Y-61.317
Y-61.227
Y-61.137
Y-61.046
Y-60.954
Y-60.863
Y-60.770
Y-60.677
Y-60.490
Y-60.302
Y-60.111
Y-59.919
Y-59.725
Y-59.530
Y-59.333
Y-59.135
Y-58.935
Y-58.735
Y-58.533
Y-58.330
Y-58.127
Y-57.922
Y-57.717
Y-57.510
Y-57.304
Y-57.096
Y-56.680
Y-56.263
Y-55.427
Y-55.009
Y-54.592
Y-54.385
Y-54.178
Y-53.971
Y-53.765
Y-53.560
Y-53.356
Y-53.153
Y-52.950
Y-52.749
Y-52.549
Y-52.350
Y-52.153
Y-51.957
Y-51.762
Y-51.569
Y-51.377
Y-51.187
Y-50.999
Y-50.813
Y-50.721
Y-50.629
Y-50.537
Y-50.446
Y-50.356
Y-50.266
Y-50.177
Y-50.088
Y-50.000
Y-49.913
Y-49.825
Y-49.739
Y-49.653
Y-49.568
Y-49.483
Y-49.399
Y-49.316
Y-49.233
Y-49.151
Y-49.070
Y-48.989
Y-48.909
Y-48.830
Y-48.752
Y-48.674
Y-48.597
Y-48.520
Y-48.444
Y-48.370
Y-48.295
Y-48.222
Y-48.150
Y-48.078
Y-48.007
Y-47.937
Y-47.867
Y-47.799
Y-47.731
Y-47.664
Y-47.599
Y-47.533
Y-47.469
Y-47.406
Y-47.344
Y-47.282
Y-47.222
Y-47.162
Y-47.103
Y-47.046
Y-46.989
Y-46.933
Y-46.878
Y-46.825
Y-46.772
Y-46.720
Y-46.669
Y-46.619
Y-46.571
Y-46.523
Y-46.477
Y-46.431
Y-46.387
Y-46.343
Y-46.301
Y-46.260
Y-46.220
Y-46.181
Y-46.143
Y-46.107
Y-46.071
Y-46.037
Y-46.004
Y-45.972
Y-45.941
Y-45.912
Y-45.883
Y-45.856
Y-45.830
Y-45.806
Y-45.782
Y-45.760
Y-45.739
Y-45.720
Y-45.702
Y-45.685
Y-45.669
Y-45.655
Y-45.642
Y-45.630
Y-45.620
Y-45.611
Y-45.604
Y-45.598
Y-45.593
Y-45.590
Y-45.588
Y-45.587
Y-45.586
X34.007Y-45.576
X34.008Y-45.495
X34.011Y-45.415
X34.016Y-45.336
X34.022Y-45.257
X34.030Y-45.178
X34.040Y-45.100
X34.052Y-45.023
X34.065Y-44.946
X34.080Y-44.870
X34.096Y-44.794
X34.114Y-44.718
X34.134Y-44.644
X34.155Y-44.570
X34.178Y-44.497
X34.203Y-44.424
X34.228Y-44.352
X34.256Y-44.281
X34.285Y-44.210
X34.315Y-44.140
X34.346Y-44.071
X34.380Y-44.003
X34.414Y-43.936
X34.450Y-43.869
X34.487Y-43.804
X34.526Y-43.739
X34.566Y-43.675
X34.607Y-43.612
X34.649Y-43.549
X34.693Y-43.488
X34.738Y-43.428
X34.784Y-43.369
X34.832Y-43.310
X34.880Y-43.253
X34.930Y-43.197
X34.981Y-43.142
X35.033Y-43.088
X35.086Y-43.035
X35.141Y-42.983
X35.196Y-42.932
X35.252Y-42.882
X35.310Y-42.834
X35.368Y-42.787
X35.428Y-42.740
X35.488Y-42.696
X35.549Y-42.652
X35.612Y-42.610
X35.675Y-42.569
X35.739Y-42.529
X35.804Y-42.491
X35.870Y-42.454
X35.937Y-42.418
X36.004Y-42.384
X36.072Y-42.351
X36.142Y-42.319
X36.211Y-42.289
X36.282Y-42.260
X36.353Y-42.233
X36.425Y-42.208
X36.498Y-42.184
X36.572Y-42.161
X36.646Y-42.140
X36.720Y-42.121
X36.796Y-42.103
X36.872Y-42.086
X36.948Y-42.072
X37.025Y-42.059
X37.103Y-42.047
X37.181Y-42.038
X37.259Y-42.030
X37.338Y-42.024
X37.418Y-42.019
X37.498Y-42.017
X37.578Y-42.016
X37.579
X37.582Y-42.016
X37.587Y-42.016
X37.607Y-42.016
X37.647Y-42.016
X37.727Y-42.019
X37.807Y-42.023
X37.886Y-42.029
X37.964Y-42.037
X38.043Y-42.046
X38.120Y-42.057
X38.197Y-42.070
X38.274Y-42.084
X38.350Y-42.100
X38.425Y-42.118
X38.500Y-42.137
X38.574Y-42.158
X38.648Y-42.180
X38.721Y-42.204
X38.793Y-42.230
X38.864Y-42.256
X38.935Y-42.285
X39.005Y-42.315
X39.074Y-42.346
X39.142Y-42.379
X39.210Y-42.413
X39.277Y-42.448
X39.343Y-42.485
X39.408Y-42.523
X39.472Y-42.563
X39.536Y-42.604
X39.598Y-42.646
X39.660Y-42.689
X39.720Y-42.734
X39.780Y-42.780
X39.838Y-42.827
X39.896Y-42.875
X39.952Y-42.925
X40.008Y-42.975
X40.062Y-43.027
X40.116Y-43.080
X40.168Y-43.134
X40.219Y-43.189
X40.269Y-43.245
X40.318Y-43.302
X40.365Y-43.360
X40.412Y-43.419
X40.457Y-43.480
X40.501Y-43.541
X40.543Y-43.603
X40.585Y-43.666
X40.625Y-43.729
X40.664Y-43.794
X40.701Y-43.860
X40.737Y-43.926
X40.772Y-43.994
X40.805Y-44.062
X40.837Y-44.131
X40.868Y-44.200
X40.897Y-44.271
X40.924Y-44.342
X40.950Y-44.414
X40.975Y-44.486
X40.998Y-44.559
X41.019Y-44.633
X41.039Y-44.708
X41.058Y-44.783
X41.074Y-44.859
X41.089Y-44.935
X41.103Y-45.012
X41.115Y-45.089
X41.125Y-45.167
X41.133Y-45.246
X41.140Y-45.325
X41.145Y-45.404
G1Z-3.750F304.8
G1X41.148Y-45.484F1016.0
X41.149Y-45.564
X41.149Y-45.584
Y-45.587
Y-45.588
Y-45.590
Y-45.593
Y-45.598
Y-45.604
Y-45.611
Y-45.620
Y-45.630
Y-45.642
Y-45.655
Y-45.669
Y-45.685
Y-45.702
Y-45.720
Y-45.739
Y-45.760
Y-45.782
Y-45.806
Y-45.830
Y-45.856
Y-45.883
Y-45.912
Y-45.941
Y-45.972
Y-46.004
Y-46.037
Y-46.071
Y-46.107
Y-46.143
Y-46.181
Y-46.220
Y-46.260
Y-46.301
Y-46.343
Y-46.387
Y-46.431
Y-46.477
Y-46.523
Y-46.571
Y-46.619
Y-46.669
Y-46.720
Y-46.772
Y-46.825
Y-46.878
Y-46.933
Y-46.989
Y-47.046
Y-47.103
Y-47.162
Y-47.222
Y-47.282
Y-47.344
Y-47.406
Y-47.469
Y-47.533
Y-47.599
Y-47.664
Y-47.731
Y-47.799
Y-47.867
Y-47.937
Y-48.007
Y-48.078
Y-48.150
Y-48.222
Y-48.295
Y-48.370
Y-48.444
Y-48.520
Y-48.597
Y-48.674
Y-48.752
Y-48.830
Y-48.909
Y-48.989
Y-49.070
Y-49.151
Y-49.233
Y-49.316
Y-49.399
Y-49.483
Y-49.568
Y-49.653
Y-49.739
Y-49.825
Y-49.913
Y-50.000
Y-50.088
Y-50.177
Y-50.266
Y-50.356
Y-50.446
Y-50.537
Y-50.629
Y-50.721
Y-50.813
Y-50.999
Y-51.187
Y-51.377
Y-51.569
Y-51.762
Y-51.957
Y-52.153
Y-52.350
Y-52.549
Y-52.749
Y-52.950
Y-53.153
Y-53.356
Y-53.560
Y-53.765
Y-53.971
Y-54.178
Y-54.385
Y-54.592
Y-55.009
Y-55.427
Y-56.263
Y-56.680
Y-57.096
Y-57.304
Y-57.510
Y-57.717
Y-57.922
Y-58.127
Y-58.330
Y-58.533
Y-58.735
Y-58.935
Y-59.135
Y-59.333
Y-59.530
Y-59.725
Y-59.919
Y-60.111
Y-60.302
Y-60.490
Y-60.677
Y-60.770
Y-60.863
Y-60.954
Y-61.046
Y-61.137
Y-61.227
Y-61.317
Y-61.406
Y-61.494
Y-61.582
Y-61.670
Y-61.757
Y-61.843
Y-61.929
Y-62.014
Y-62.099
Y-62.183
Y-62.266
Y-62.348
Y-62.430
Y-62.512
Y-62.592
Y-62.672
Y-62.751
Y-62.830
Y-62.907
Y-62.984
Y-63.061
Y-63.136
Y-63.211
Y-63.285
Y-63.358
Y-63.431
Y-63.502
Y-63.573
Y-63.643
Y-63.713
Y-63.781
Y-63.848
Y-63.915
Y-63.981
Y-64.046
Y-64.110
Y-64.173
Y-64.235
Y-64.297
Y-64.357
Y-64.416
Y-64.475
Y-64.533
Y-64.589
Y-64.645
Y-64.699
Y-64.753
Y-64.806
Y-64.857
Y-64.908
Y-64.958
Y-65.006
Y-65.054
Y-65.100
Y-65.145
Y-65.190
Y-65.233
Y-65.275
Y-65.316
Y-65.356
Y-65.395
Y-65.432
Y-65.469
Y-65.504
Y-65.538
Y-65.571
Y-65.603
Y-65.633
Y-65.663
Y-65.691
Y-65.718
Y-65.743
Y-65.768
Y-65.791
Y-65.813
Y-65.833
Y-65.853
Y-65.871
Y-65.888
Y-65.903
Y-65.917
Y-65.930
Y-65.941
Y-65.951
Y-65.960
Y-65.967
Y-65.973
Y-65.978
Y-65.981
Y-65.983
X41.148Y-65.983
X41.147
X41.145
X41.142
X41.140
X41.132
X41.123
X41.113
X41.100
X41.085
X41.069
X41.051
X41.031
X41.010
X40.987
X40.962
X40.936
X40.908
X40.878
X40.847
X40.814
X40.780
X40.745
X40.708
X40.670
X40.630
X40.589
X40.547
X40.503
X40.458
X40.412
X40.365
X40.316
X40.266
X40.216
X40.164
X40.111
X40.057
X40.002
X39.946
X39.889
X39.831
X39.772
X39.713
X39.652
X39.591
X39.529
X39.466
X39.402
X39.338
X39.273
X39.207
X39.141
X39.074
X39.006
X38.938
X38.870
X38.731
X38.591
X38.449
X38.306
X38.162
X38.017
X37.871
X37.578
X37.286
X37.140
X36.995
X36.850
X36.707
X36.565
X36.425
X36.287
X36.218
X36.150
X36.082
X36.016
X35.949
X35.884
X35.819
X35.754
X35.691
X35.628
X35.566
X35.504
X35.444
X35.384
X35.325
X35.267
X35.211
X35.155
X35.100
X35.046
X34.993
X34.941
X34.890
X34.840
X34.792
X34.744
X34.698
X34.653
X34.610
X34.567
X34.526
X34.487
X34.448
X34.411
X34.376
X34.342
X34.309
X34.278
X34.249
X34.221
X34.194
X34.170
X34.146
X34.125
X34.105
X34.087
X34.071
X34.056
X34.044
X34.033
X34.024
X34.017
X34.014
X34.012
X34.010
X34.008
X34.007
X34.007Y-65.981
Y-65.978
Y-65.973
Y-65.967
Y-65.960
Y-65.951
Y-65.941
Y-65.930
Y-65.917
Y-65.903
Y-65.888
Y-65.871
Y-65.853
Y-65.833
Y-65.813
Y-65.791
Y-65.768
Y-65.743
Y-65.718
Y-65.691
Y-65.663
Y-65.633
Y-65.603
Y-65.571
Y-65.538
Y-65.504
Y-65.469
Y-65.432
Y-65.395
Y-65.356
Y-65.316
Y-65.275
Y-65.233
Y-65.190
Y-65.145
Y-65.100
Y-65.054
Y-65.006
Y-64.958
Y-64.908
Y-64.857
Y-64.806
Y-64.753
Y-64.699
Y-64.645
Y-64.589
Y-64.533
Y-64.475
Y-64.416
Y-64.357
Y-64.297
Y-64.235
Y-64.173
Y-64.110
Y-64.046
Y-63.981
Y-63.915
Y-63.848
Y-63.781
Y-63.713
Y-63.643
Y-63.573
Y-63.502
Y-63.431
Y-63.358
Y-63.285
Y-63.211
Y-63.136
Y-63.061
Y-62.984
Y-62.907
Y-62.830
Y-62.751
Y-62.672
Y-62.592
Y-62.512
Y-62.430
Y-62.348
Y-62.266
Y-62.183
Y-62.099
Y-62.014
Y-61.929
Y-61.843
Y-61.757
Y-61.670
Y-61.582
Y-61.494
Y-61.406
Y-61.317
Y-61.227
Y-61.137
Y-61.046
Y-60.954
Y-60.863
Y-60.770
Y-60.677
Y-60.490
Y-60.302
Y-60.111
Y-59.919
Y-59.725
Y-59.530
Y-59.333
Y-59.135
Y-58.935
Y-58.735
Y-58.533
Y-58.330
Y-58.127
Y-57.922
Y-57.717
Y-57.510
Y-57.304
Y-57.096
Y-56.680
Y-56.263
Y-55.427
Y-55.009
Y-54.592
Y-54.385
Y-54.178
Y-53.971
Y-53.765
Y-53.560
Y-53.356
Y-53.153
Y-52.950
Y-52.749
Y-52.549
Y-52.350
Y-52.153
Y-51.957
Y-51.762
Y-51.569
Y-51.377
Y-51.187
Y-50.999
Y-50.813
Y-50.721
Y-50.629
Y-50.537
Y-50.446
Y-50.356
Y-50.266
Y-50.177
Y-50.088
Y-50.000
Y-49.913
Y-49.825
Y-49.739
Y-49.653
Y-49.568
Y-49.483
Y-49.399
Y-49.316
Y-49.233
Y-49.151
Y-49.070
Y-48.989
Y-48.909
Y-48.830
Y-48.752
Y-48.674
Y-48.597
Y-48.520
Y-48.444
Y-48.370
Y-48.295
Y-48.222
Y-48.150
Y-48.078
Y-48.007
Y-47.937
Y-47.867
Y-47.799
Y-47.731
Y-47.664
Y-47.599
Y-47.533
Y-47.469
Y-47.406
Y-47.344
Y-47.282
Y-47.222
Y-47.162
Y-47.103
Y-47.046
Y-46.989
Y-46.933
Y-46.878
Y-46.825
Y-46.772
Y-46.720
Y-46.669
Y-46.619
Y-46.571
Y-46.523
Y-46.477
Y-46.431
Y-46.387
Y-46.343
Y-46.301
Y-46.260
Y-46.220
Y-46.181
Y-46.143
Y-46.107
Y-46.071
Y-46.037
Y-46.004
Y-45.972
Y-45.941
Y-45.912
Y-45.883
Y-45.856
Y-45.830
Y-45.806
Y-45.782
Y-45.760
Y-45.739
Y-45.720
Y-45.702
Y-45.685
Y-45.669
Y-45.655
Y-45.642
Y-45.630
Y-45.620
Y-45.611
Y-45.604
Y-45.598
Y-45.593
Y-45.590
Y-45.588
Y-45.587
Y-45.586
X34.007Y-45.576
X34.008Y-45.495
X34.011Y-45.415
X34.016Y-45.336
X34.022Y-45.257
X34.030Y-45.178
X34.040Y-45.100
X34.052Y-45.023
X34.065Y-44.946
X34.080Y-44.870
X34.096Y-44.794
X34.114Y-44.718
X34.134Y-44.644
X34.155Y-44.570
X34.178Y-44.497
X34.203Y-44.424
X34.228Y-44.352
X34.256Y-44.281
X34.285Y-44.210
X34.315Y-44.140
X34.346Y-44.071
X34.380Y-44.003
X34.414Y-43.936
X34.450Y-43.869
X34.487Y-43.804
X34.526Y-43.739
X34.566Y-43.675
X34.607Y-43.612
X34.649Y-43.549
X34.693Y-43.488
X34.738Y-43.428
X34.784Y-43.369
X34.832Y-43.310
X34.880Y-43.253
X34.930Y-43.197
X34.981Y-43.142
X35.033Y-43.088
X35.086Y-43.035
X35.141Y-42.983
X35.196Y-42.932
X35.252Y-42.882
X35.310Y-42.834
X35.368Y-42.787
X35.428Y-42.740
X35.488Y-42.696
X35.549Y-42.652
X35.612Y-42.610
X35.675Y-42.569
X35.739Y-42.529
X35.804Y-42.491
X35.870Y-42.454
X35.937Y-42.418
X36.004Y-42.384
X36.072Y-42.351
X36.142Y-42.319
X36.211Y-42.289
X36.282Y-42.260
X36.353Y-42.233
X36.425Y-42.208
X36.498Y-42.184
X36.572Y-42.161
X36.646Y-42.140
X36.720Y-42.121
X36.796Y-42.103
X36.872Y-42.086
X36.948Y-42.072
X37.025Y-42.059
X37.103Y-42.047
X37.181Y-42.038
X37.259Y-42.030
X37.338Y-42.024
X37.418Y-42.019
X37.498Y-42.017
X37.578Y-42.016
X37.579
X37.582Y-42.016
X37.587Y-42.016
X37.607Y-42.016
X37.647Y-42.016
X37.727Y-42.019
X37.807Y-42.023
X37.886Y-42.029
X37.964Y-42.037
X38.043Y-42.046
X38.120Y-42.057
X38.197Y-42.070
X38.274Y-42.084
X38.350Y-42.100
X38.425Y-42.118
X38.500Y-42.137
X38.574Y-42.158
X38.648Y-42.180
X38.721Y-42.204
X38.793Y-42.230
X38.864Y-42.256
X38.935Y-42.285
X39.005Y-42.315
X39.074Y-42.346
X39.142Y-42.379
X39.210Y-42.413
X39.277Y-42.448
X39.343Y-42.485
X39.408Y-42.523
X39.472Y-42.563
X39.536Y-42.604
X39.598Y-42.646
X39.660Y-42.689
X39.720Y-42.734
X39.780Y-42.780
X39.838Y-42.827
X39.896Y-42.875
X39.952Y-42.925
X40.008Y-42.975
X40.062Y-43.027
X40.116Y-43.080
X40.168Y-43.134
X40.219Y-43.189
X40.269Y-43.245
X40.318Y-43.302
X40.365Y-43.360
X40.412Y-43.419
X40.457Y-43.480
X40.501Y-43.541
X40.543Y-43.603
X40.585Y-43.666
X40.625Y-43.729
X40.664Y-43.794
X40.701Y-43.860
X40.737Y-43.926
X40.772Y-43.994
X40.805Y-44.062
X40.837Y-44.131
X40.868Y-44.200
X40.897Y-44.271
X40.924Y-44.342
X40.950Y-44.414
X40.975Y-44.486
X40.998Y-44.559
X41.019Y-44.633
X41.039Y-44.708
X41.058Y-44.783
X41.074Y-44.859
X41.089Y-44.935
X41.103Y-45.012
X41.115Y-45.089
X41.125Y-45.167
X41.133Y-45.246
X41.140Y-45.325
X41.145Y-45.404
G0Z5.080
G0X51.586Y-35.673
G1Z-1.250F304.8
G1X51.682Y-35.607F1016.0
X51.780Y-35.543
X51.880Y-35.481
X51.981Y-35.422
X52.083Y-35.364
X52.187Y-35.309
X52.291Y-35.255
X52.344Y-35.230
X52.397Y-35.204
X52.451Y-35.180
X52.505Y-35.155
X52.559Y-35.132
X52.613Y-35.109
X52.668Y-35.086
X52.723Y-35.064
X52.778Y-35.043
X52.833Y-35.022
X52.889Y-35.002
X52.945Y-34.982
X53.001Y-34.963
X53.058Y-34.945
X53.115Y-34.927
X53.172Y-34.910
X53.229Y-34.893
X53.287Y-34.877
X53.345Y-34.862
X53.403Y-34.847
X53.461Y-34.833
X53.519Y-34.819
X53.578Y-34.806
X53.637Y-34.794
X53.696Y-34.782
X53.756Y-34.771
X53.815Y-34.761
X53.875Y-34.751
X53.935Y-34.742
X53.995Y-34.733
X54.056Y-34.725
X54.116Y-34.718
X54.177Y-34.712
X54.238Y-34.706
X54.299Y-34.701
X54.361Y-34.696
X54.422Y-34.693
X54.484Y-34.689
X54.546Y-34.687
X54.608Y-34.685
X54.670Y-34.684
X54.733Y-34.684
X54.734
X54.738Y-34.684
X54.746Y-34.684
X54.777Y-34.684
X54.840Y-34.685
X54.902Y-34.686
X54.964Y-34.689
X55.026Y-34.692
X55.088Y-34.695
X55.149Y-34.699
X55.211Y-34.704
X55.272Y-34.710
X55.333Y-34.716
X55.394Y-34.723
X55.454Y-34.731
X55.515Y-34.739
X55.575Y-34.748
X55.635Y-34.758
X55.695Y-34.768
X55.754Y-34.779
X55.814Y-34.790
X55.873Y-34.802
X55.932Y-34.815
X55.990Y-34.829
X56.049Y-34.843
X56.107Y-34.857
X56.165Y-34.872
X56.223Y-34.888
X56.280Y-34.905
X56.337Y-34.922
X56.394Y-34.940
X56.451Y-34.958
X56.508Y-34.977
X56.564Y-34.996
X56.620Y-35.016
X56.675Y-35.037
X56.731Y-35.058
X56.786Y-35.080
X56.841Y-35.102
X56.895Y-35.125
X56.949Y-35.149
X57.003Y-35.173
X57.057Y-35.197
X57.110Y-35.222
X57.163Y-35.248
X57.268Y-35.301
X57.372Y-35.356
X57.475Y-35.413
X57.576Y-35.473
X57.676Y-35.534
X57.774Y-35.598
X57.871Y-35.663
X57.967Y-35.730
X58.061Y-35.800
X58.153Y-35.871
X58.245Y-35.944
X58.334Y-36.019
X58.422Y-36.096
X58.508Y-36.175
X58.593Y-36.255
X58.676Y-36.337
X58.757Y-36.421
X58.836Y-36.506
X58.914Y-36.593
X58.990Y-36.682
X59.064Y-36.772
X59.136Y-36.864
X59.206Y-36.957
X59.274Y-37.052
X59.341Y-37.149
X59.405Y-37.246
X59.467Y-37.345
X59.527Y-37.446
X59.586Y-37.548
X59.642Y-37.651
X59.696Y-37.755
X59.722Y-37.808
X59.747Y-37.861
X59.773Y-37.914
X59.797Y-37.968
X59.821Y-38.022
X59.844Y-38.076
X59.867Y-38.130
X59.890Y-38.185
X59.911Y-38.240
X59.932Y-38.296
X59.953Y-38.351
X59.973Y-38.407
X59.992Y-38.463
X60.011Y-38.520
X60.029Y-38.576
X60.047Y-38.633
X60.064Y-38.690
X60.080Y-38.748
X60.096Y-38.806
X60.111Y-38.863
X60.126Y-38.922
X60.140Y-38.980
X60.153Y-39.039
X60.166Y-39.097
X60.178Y-39.156
X60.189Y-39.216
X60.200Y-39.275
X60.210Y-39.335
X60.219Y-39.395
X60.228Y-39.455
X60.236Y-39.515
X60.244Y-39.576
X60.251Y-39.637
X60.257Y-39.697
X60.263Y-39.759
X60.267Y-39.820
X60.272Y-39.881
X60.275Y-39.943
X60.278Y-40.005
X60.280Y-40.067
X60.282Y-40.129
X60.282Y-40.191
X60.282Y-40.222
Y-40.226
Y-40.227
Y-40.230
Y-40.234
Y-40.240
Y-40.248
Y-40.257
Y-40.268
Y-40.281
Y-40.296
Y-40.312
Y-40.330
Y-40.350
Y-40.372
Y-40.395
Y-40.419
Y-40.445
Y-40.473
Y-40.503
Y-40.534
Y-40.566
Y-40.601
Y-40.636
Y-40.674
Y-40.713
Y-40.753
Y-40.795
Y-40.838
Y-40.883
Y-40.929
Y-40.977
Y-41.026
Y-41.076
Y-41.128
Y-41.182
Y-41.236
Y-41.292
Y-41.350
Y-41.409
Y-41.469
Y-41.530
Y-41.593
Y-41.657
Y-41.723
Y-41.789
Y-41.857
Y-41.927
Y-41.997
Y-42.069
Y-42.142
Y-42.216
Y-42.291
Y-42.367
Y-42.445
Y-42.524
Y-42.604
Y-42.685
Y-42.767
Y-42.850
Y-42.934
Y-43.020
Y-43.106
Y-43.194
Y-43.282
Y-43.372
Y-43.463
Y-43.554
Y-43.647
Y-43.741
Y-43.835
Y-43.931
Y-44.027
Y-44.125
Y-44.223
Y-44.322
Y-44.422
Y-44.523
Y-44.625
Y-44.728
Y-44.831
Y-44.936
Y-45.041
Y-45.147
Y-45.254
Y-45.361
Y-45.470
Y-45.579
Y-45.689
Y-45.800
Y-45.911
Y-46.023
Y-46.136
Y-46.249
Y-46.363
Y-46.478
Y-46.593
Y-46.826
Y-47.061
Y-47.299
Y-47.538
Y-47.780
Y-48.024
Y-48.270
Y-48.518
Y-48.767
Y-49.018
Y-49.271
Y-49.525
Y-49.781
Y-50.038
Y-50.295
Y-50.554
Y-50.814
Y-51.075
Y-51.337
Y-51.599
Y-52.125
Y-52.652
Y-53.708
Y-54.235
Y-54.761
Y-55.023
Y-55.284
Y-55.544
Y-55.803
Y-56.062
Y-56.319
Y-56.575
Y-56.830
Y-57.083
Y-57.335
Y-57.585
Y-57.834
Y-58.080
Y-58.325
Y-58.568
Y-58.808
Y-59.047
Y-59.283
Y-59.517
Y-59.633
Y-59.748
Y-59.863
Y-59.977
Y-60.090
Y-60.203
Y-60.315
Y-60.426
Y-60.536
Y-60.646
Y-60.755
Y-60.864
Y-60.971
Y-61.078
Y-61.184
Y-61.289
Y-61.393
Y-61.497
Y-61.599
Y-61.701
Y-61.802
Y-61.902
Y-62.001
Y-62.099
Y-62.196
Y-62.293
Y-62.388
Y-62.483
Y-62.576
Y-62.669
Y-62.760
Y-62.851
Y-62.940
Y-63.028
Y-63.116
Y-63.202
Y-63.287
Y-63.372
Y-63.455
Y-63.537
Y-63.618
Y-63.697
Y-63.776
Y-63.853
Y-63.930
Y-64.005
Y-64.079
Y-64.151
Y-64.223
Y-64.293
Y-64.362
Y-64.430
Y-64.496
Y-64.562
Y-64.625
Y-64.688
Y-64.749
Y-64.809
Y-64.868
Y-64.925
Y-64.981
Y-65.036
Y-65.089
Y-65.141
Y-65.191
Y-65.240
Y-65.287
Y-65.333
Y-65.378
Y-65.421
Y-65.463
Y-65.503
Y-65.541
Y-65.578
Y-65.614
Y-65.648
Y-65.680
Y-65.711
Y-65.740
Y-65.768
Y-65.794
Y-65.819
Y-65.841
Y-65.862
Y-65.882
Y-65.900
Y-65.916
Y-65.930
Y-65.943
Y-65.954
Y-65.963
Y-65.971
Y-65.976
Y-65.980
Y-65.983
X60.280Y-65.983
X60.278
X60.275
X60.272
X60.267
X60.262
X60.256
X60.250
X60.242
X60.234
X60.225
X60.216
X60.206
X60.195
X60.183
X60.171
X60.158
X60.144
X60.130
X60.115
X60.099
X60.083
X60.066
X60.048
X60.030
X60.011
X59.991
X59.950
X59.907
X59.861
X59.813
X59.762
X59.709
X59.654
X59.597
X59.537
X59.476
X59.412
X59.346
X59.278
X59.209
X59.137
X59.064
X58.988
X58.911
X58.832
X58.752
X58.669
X58.586
X58.500
X58.413
X58.325
X58.235
X58.144
X58.051
X57.957
X57.862
X57.765
X57.668
X57.569
X57.469
X57.368
X57.266
X57.163
X57.059
X56.954
X56.849
X56.742
X56.635
X56.527
X56.418
X56.309
X56.089
X55.866
X55.642
X55.417
X55.191
X54.736
X54.282
X54.055
X53.830
X53.606
X53.384
X53.163
X53.054
X52.945
X52.837
X52.730
X52.624
X52.518
X52.413
X52.309
X52.206
X52.104
X52.003
X51.903
X51.805
X51.707
X51.611
X51.515
X51.421
X51.329
X51.237
X51.148
X51.059
X50.972
X50.887
X50.803
X50.721
X50.640
X50.561
X50.484
X50.409
X50.335
X50.264
X50.194
X50.126
X50.060
X49.997
X49.935
X49.875
X49.818
X49.763
X49.710
X49.659
X49.611
X49.565
X49.522
X49.481
X49.461
X49.442
X49.424
X49.407
X49.390
X49.373
X49.358
X49.343
X49.328
X49.315
X49.302
X49.289
X49.278
X49.267
X49.256
X49.247
X49.238
X49.230
X49.223
X49.216
X49.210
X49.205
X49.201
X49.197
X49.194
X49.192
X49.191
X49.190
X49.190Y-65.980
Y-65.976
Y-65.971
Y-65.963
Y-65.954
Y-65.943
Y-65.930
Y-65.916
Y-65.900
Y-65.882
Y-65.862
Y-65.841
Y-65.819
Y-65.794
Y-65.768
Y-65.740
Y-65.711
Y-65.680
Y-65.648
Y-65.614
Y-65.578
Y-65.541
Y-65.503
Y-65.463
Y-65.421
Y-65.378
Y-65.333
Y-65.287
Y-65.240
Y-65.191
Y-65.141
Y-65.089
Y-65.036
Y-64.981
Y-64.925
Y-64.868
Y-64.809
Y-64.749
Y-64.688
Y-64.625
Y-64.562
Y-64.496
Y-64.430
Y-64.362
Y-64.293
Y-64.223
Y-64.151
Y-64.079
Y-64.005
Y-63.930
Y-63.853
Y-63.776
Y-63.697
Y-63.618
Y-63.537
Y-63.455
Y-63.372
Y-63.287
Y-63.202
Y-63.116
Y-63.028
Y-62.940
Y-62.851
Y-62.760
Y-62.669
Y-62.576
Y-62.483
Y-62.388
Y-62.293
Y-62.196
Y-62.099
Y-62.001
Y-61.902
Y-61.802
Y-61.701
Y-61.599
Y-61.497
Y-61.393
Y-61.289
Y-61.184
Y-61.078
Y-60.971
Y-60.864
Y-60.755
Y-60.646
Y-60.536
Y-60.426
Y-60.315
Y-60.203
Y-60.090
Y-59.977
Y-59.863
Y-59.748
Y-59.633
Y-59.517
Y-59.283
Y-59.047
Y-58.808
Y-58.568
Y-58.325
Y-58.080
Y-57.834
Y-57.585
Y-57.335
Y-57.083
Y-56.830
Y-56.575
Y-56.319
Y-56.062
Y-55.803
Y-55.544
Y-55.284
Y-55.023
Y-54.761
Y-54.235
Y-53.708
Y-52.652
Y-52.125
Y-51.599
Y-51.337
Y-51.075
Y-50.814
Y-50.554
Y-50.295
Y-50.038
Y-49.781
Y-49.525
Y-49.271
Y-49.018
Y-48.767
Y-48.518
Y-48.270
Y-48.024
Y-47.780
Y-47.539
Y-47.299
Y-47.061
Y-46.826
Y-46.593
Y-46.478
Y-46.363
Y-46.249
Y-46.136
Y-46.023
Y-45.911
Y-45.800
Y-45.689
Y-45.579
Y-45.470
Y-45.361
Y-45.254
Y-45.147
Y-45.041
Y-44.936
Y-44.831
Y-44.728
Y-44.625
Y-44.523
Y-44.422
Y-44.322
Y-44.223
Y-44.125
Y-44.027
Y-43.931
Y-43.835
Y-43.741
Y-43.647
Y-43.554
Y-43.463
Y-43.372
Y-43.282
Y-43.194
Y-43.106
Y-43.020
Y-42.934
Y-42.850
Y-42.767
Y-42.685
Y-42.604
Y-42.524
Y-42.445
Y-42.367
Y-42.291
Y-42.216
Y-42.142
Y-42.069
Y-41.997
Y-41.927
Y-41.857
Y-41.789
Y-41.723
Y-41.657
Y-41.593
Y-41.530
Y-41.469
Y-41.409
Y-41.350
Y-41.292
Y-41.236
Y-41.182
Y-41.128
Y-41.076
Y-41.026
Y-40.977
Y-40.929
Y-40.883
Y-40.838
Y-40.795
Y-40.753
Y-40.713
Y-40.674
Y-40.636
Y-40.601
Y-40.566
Y-40.534
Y-40.503
Y-40.473
Y-40.445
Y-40.419
Y-40.395
Y-40.372
Y-40.350
Y-40.330
Y-40.312
Y-40.296
Y-40.281
Y-40.268
Y-40.257
Y-40.248
Y-40.240
Y-40.234
Y-40.230
Y-40.227
Y-40.226
Y-40.224
X49.190Y-40.209
X49.191Y-40.146
X49.192Y-40.084
X49.194Y-40.022
X49.196Y-39.960
X49.200Y-39.899
X49.204Y-39.837
X49.208Y-39.776
X49.214Y-39.715
X49.220Y-39.654
X49.226Y-39.593
X49.234Y-39.533
X49.242Y-39.472
X49.250Y-39.412
X49.260Y-39.352
X49.270Y-39.292
X49.280Y-39.233
X49.291Y-39.173
X49.303Y-39.114
X49.316Y-39.055
X49.329Y-38.997
X49.343Y-38.938
X49.357Y-38.880
X49.372Y-38.822
X49.388Y-38.764
X49.404Y-38.707
X49.421Y-38.650
X49.438Y-38.593
X49.456Y-38.536
X49.475Y-38.479
X49.494Y-38.423
X49.514Y-38.367
X49.534Y-38.311
X49.555Y-38.256
X49.576Y-38.201
X49.599Y-38.146
X49.621Y-38.092
X49.644Y-38.037
X49.668Y-37.983
X49.693Y-37.930
X49.717Y-37.876
X49.743Y-37.823
X49.769Y-37.770
X49.823Y-37.666
X49.878Y-37.562
X49.936Y-37.460
X49.996Y-37.360
X50.058Y-37.260
X50.122Y-37.162
X50.188Y-37.066
X50.256Y-36.971
X50.326Y-36.877
X50.398Y-36.785
X50.471Y-36.695
X50.547Y-36.606
X50.624Y-36.519
X50.703Y-36.433
X50.784Y-36.349
X50.867Y-36.267
X50.951Y-36.186
X51.037Y-36.107
X51.125Y-36.030
X51.214Y-35.955
X51.304Y-35.881
X51.397Y-35.810
X51.490Y-35.740
X51.586Y-35.673
G1Z-2.500F304.8
G1X51.682Y-35.607F1016.0
X51.780Y-35.543
X51.880Y-35.481
X51.981Y-35.422
X52.083Y-35.364
X52.187Y-35.309
X52.291Y-35.255
X52.344Y-35.230
X52.397Y-35.204
X52.451Y-35.180
X52.505Y-35.155
X52.559Y-35.132
X52.613Y-35.109
X52.668Y-35.086
X52.723Y-35.064
X52.778Y-35.043
X52.833Y-35.022
X52.889Y-35.002
X52.945Y-34.982
X53.001Y-34.963
X53.058Y-34.945
X53.115Y-34.927
X53.172Y-34.910
X53.229Y-34.893
X53.287Y-34.877
X53.345Y-34.862
X53.403Y-34.847
X53.461Y-34.833
X53.519Y-34.819
X53.578Y-34.806
X53.637Y-34.794
X53.696Y-34.782
X53.756Y-34.771
X53.815Y-34.761
X53.875Y-34.751
X53.935Y-34.742
X53.995Y-34.733
X54.056Y-34.725
X54.116Y-34.718
X54.177Y-34.712
X54.238Y-34.706
X54.299Y-34.701
X54.361Y-34.696
X54.422Y-34.693
X54.484Y-34.689
X54.546Y-34.687
X54.608Y-34.685
X54.670Y-34.684
X54.733Y-34.684
X54.734
X54.738Y-34.684
X54.746Y-34.684
X54.777Y-34.684
X54.840Y-34.685
X54.902Y-34.686
X54.964Y-34.689
X55.026Y-34.692
X55.088Y-34.695
X55.149Y-34.699
X55.211Y-34.704
X55.272Y-34.710
X55.333Y-34.716
X55.394Y-34.723
X55.454Y-34.731
X55.515Y-34.739
X55.575Y-34.748
X55.635Y-34.758
X55.695Y-34.768
X55.754Y-34.779
X55.814Y-34.790
X55.873Y-34.802
X55.932Y-34.815
X55.990Y-34.829
X56.049Y-34.843
X56.107Y-34.857
X56.165Y-34.872
X56.223Y-34.888
X56.280Y-34.905
X56.337Y-34.922
X56.394Y-34.940
X56.451Y-34.958
X56.508Y-34.977
X56.564Y-34.996
X56.620Y-35.016
X56.675Y-35.037
X56.731Y-35.058
X56.786Y-35.080
X56.841Y-35.102
X56.895Y-35.125
X56.949Y-35.149
X57.003Y-35.173
X57.057Y-35.197
X57.110Y-35.222
X57.163Y-35.248
X57.268Y-35.301
X57.372Y-35.356
X57.475Y-35.413
X57.576Y-35.473
X57.676Y-35.534
X57.774Y-35.598
X57.871Y-35.663
X57.967Y-35.730
X58.061Y-35.800
X58.153Y-35.871
X58.245Y-35.944
X58.334Y-36.019
X58.422Y-36.096
X58.508Y-36.175
X58.593Y-36.255
X58.676Y-36.337
X58.757Y-36.421
X58.836Y-36.506
X58.914Y-36.593
X58.990Y-36.682
X59.064Y-36.772
X59.136Y-36.864
X59.206Y-36.957
X59.274Y-37.052
X59.341Y-37.149
X59.405Y-37.246
X59.467Y-37.345
X59.527Y-37.446
X59.586Y-37.548
X59.642Y-37.651
X59.696Y-37.755
X59.722Y-37.808
X59.747Y-37.861
X59.773Y-37.914
X59.797Y-37.968
X59.821Y-38.022
X59.844Y-38.076
X59.867Y-38.130
X59.890Y-38.185
X59.911Y-38.240
X59.932Y-38.296
X59.953Y-38.351
X59.973Y-38.407
X59.992Y-38.463
X60.011Y-38.520
X60.029Y-38.576
X60.047Y-38.633
X60.064Y-38.690
X60.080Y-38.748
X60.096Y-38.806
X60.111Y-38.863
X60.126Y-38.922
X60.140Y-38.980
X60.153Y-39.039
X60.166Y-39.097
X60.178Y-39.156
X60.189Y-39.216
X60.200Y-39.275
X60.210Y-39.335
X60.219Y-39.395
X60.228Y-39.455
X60.236Y-39.515
X60.244Y-39.576
X60.251Y-39.637
X60.257Y-39.697
X60.263Y-39.759
X60.267Y-39.820
X60.272Y-39.881
X60.275Y-39.943
X60.278Y-40.005
X60.280Y-40.067
X60.282Y-40.129
X60.282Y-40.191
X60.282Y-40.222
Y-40.226
Y-40.227
Y-40.230
Y-40.234
Y-40.240
Y-40.248
Y-40.257
Y-40.268
Y-40.281
Y-40.296
Y-40.312
Y-40.330
Y-40.350
Y-40.372
Y-40.395
Y-40.419
Y-40.445
Y-40.473
Y-40.503
Y-40.534
Y-40.566
Y-40.601
Y-40.636
Y-40.674
Y-40.713
Y-40.753
Y-40.795
Y-40.838
Y-40.883
Y-40.929
Y-40.977
Y-41.026
Y-41.076
Y-41.128
Y-41.182
Y-41.236
Y-41.292
Y-41.350
Y-41.409
Y-41.469
Y-41.530
Y-41.593
Y-41.657
Y-41.723
Y-41.789
Y-41.857
Y-41.927
Y-41.997
Y-42.069
Y-42.142
Y-42.216
Y-42.291
Y-42.367
Y-42.445
Y-42.524
Y-42.604
Y-42.685
Y-42.767
Y-42.850
Y-42.934
Y-43.020
Y-43.106
Y-43.194
Y-43.282
Y-43.372
Y-43.463
Y-43.554
Y-43.647
Y-43.741
Y-43.835
Y-43.931
Y-44.027
Y-44.125
Y-44.223
Y-44.322
Y-44.422
Y-44.523
Y-44.625
Y-44.728
Y-44.831
Y-44.936
Y-45.041
Y-45.147
Y-45.254
Y-45.361
Y-45.470
Y-45.579
Y-45.689
Y-45.800
Y-45.911
Y-46.023
Y-46.136
Y-46.249
Y-46.363
Y-46.478
Y-46.593
Y-46.826
Y-47.061
Y-47.299
Y-47.538
Y-47.780
Y-48.024
Y-48.270
Y-48.518
Y-48.767
Y-49.018
Y-49.271
Y-49.525
Y-49.781
Y-50.038
Y-50.295
Y-50.554
Y-50.814
Y-51.075
Y-51.337
Y-51.599
Y-52.125
Y-52.652
Y-53.708
Y-54.235
Y-54.761
Y-55.023
Y-55.284
Y-55.544
Y-55.803
Y-56.062
Y-56.319
Y-56.575
Y-56.830
Y-57.083
Y-57.335
Y-57.585
Y-57.834
Y-58.080
Y-58.325
Y-58.568
Y-58.808
Y-59.047
Y-59.283
Y-59.517
Y-59.633
Y-59.748
Y-59.863
Y-59.977
Y-60.090
Y-60.203
Y-60.315
Y-60.426
Y-60.536
Y-60.646
Y-60.755
Y-60.864
Y-60.971
Y-61.078
Y-61.184
Y-61.289
Y-61.393
Y-61.497
Y-61.599
Y-61.701
Y-61.802
Y-61.902
Y-62.001
Y-62.099
Y-62.196
Y-62.293
Y-62.388
Y-62.483
Y-62.576
Y-62.669
Y-62.760
Y-62.851
Y-62.940
Y-63.028
Y-63.116
Y-63.202
Y-63.287
Y-63.372
Y-63.455
Y-63.537
Y-63.618
Y-63.697
Y-63.776
Y-63.853
Y-63.930
Y-64.005
Y-64.079
Y-64.151
Y-64.223
Y-64.293
Y-64.362
Y-64.430
Y-64.496
Y-64.562
Y-64.625
Y-64.688
Y-64.749
Y-64.809
Y-64.868
Y-64.925
Y-64.981
Y-65.036
Y-65.089
Y-65.141
Y-65.191
Y-65.240
Y-65.287
Y-65.333
Y-65.378
Y-65.421
Y-65.463
Y-65.503
Y-65.541
Y-65.578
Y-65.614
Y-65.648
Y-65.680
Y-65.711
Y-65.740
Y-65.768
Y-65.794
Y-65.819
Y-65.841
Y-65.862
Y-65.882
Y-65.900
Y-65.916
Y-65.930
Y-65.943
Y-65.954
Y-65.963
Y-65.971
Y-65.976
Y-65.980
Y-65.983
X60.280Y-65.983
X60.278
X60.275
X60.272
X60.267
X60.262
X60.256
X60.250
X60.242
X60.234
X60.225
X60.216
X60.206
X60.195
X60.183
X60.171
X60.158
X60.144
X60.130
X60.115
X60.099
X60.083
X60.066
X60.048
X60.030
X60.011
X59.991
X59.950
X59.907
X59.861
X59.813
X59.762
X59.709
X59.654
X59.597
X59.537
X59.476
X59.412
X59.346
X59.278
X59.209
X59.137
X59.064
X58.988
X58.911
X58.832
X58.752
X58.669
X58.586
X58.500
X58.413
X58.325
X58.235
X58.144
X58.051
X57.957
X57.862
X57.765
X57.668
X57.569
X57.469
X57.368
X57.266
X57.163
X57.059
X56.954
X56.849
X56.742
X56.635
X56.527
X56.418
X56.309
X56.089
X55.866
X55.642
X55.417
X55.191
X54.736
X54.282
X54.055
X53.830
X53.606
X53.384
X53.163
X53.054
X52.945
X52.837
X52.730
X52.624
X52.518
X52.413
X52.309
X52.206
X52.104
X52.003
X51.903
X51.805
X51.707
X51.611
X51.515
X51.421
X51.329
X51.237
X51.148
X51.059
X50.972
X50.887
X50.803
X50.721
X50.640
X50.561
X50.484
X50.409
X50.335
X50.264
X50.194
X50.126
X50.060
X49.997
X49.935
X49.875
X49.818
X49.763
X49.710
X49.659
X49.611
X49.565
X49.522
X49.481
X49.461
X49.442
X49.424
X49.407
X49.390
X49.373
X49.358
X49.343
X49.328
X49.315
X49.302
X49.289
X49.278
X49.267
X49.256
X49.247
X49.238
X49.230
X49.223
X49.216
X49.210
X49.205
X49.201
X49.197
X49.194
X49.192
X49.191
X49.190
X49.190Y-65.980
Y-65.976
Y-65.971
Y-65.963
Y-65.954
Y-65.943
Y-65.930
Y-65.916
Y-65.900
Y-65.882
Y-65.862
Y-65.841
Y-65.819
Y-65.794
Y-65.768
Y-65.740
Y-65.711
Y-65.680
Y-65.648
Y-65.614
Y-65.578
Y-65.541
Y-65.503
Y-65.463
Y-65.421
Y-65.378
Y-65.333
Y-65.287
Y-65.240
Y-65.191
Y-65.141
Y-65.089
Y-65.036
Y-64.981
Y-64.925
Y-64.868
Y-64.809
Y-64.749
Y-64.688
Y-64.625
Y-64.562
Y-64.496
Y-64.430
Y-64.362
Y-64.293
Y-64.223
Y-64.151
Y-64.079
Y-64.005
Y-63.930
Y-63.853
Y-63.776
Y-63.697
Y-63.618
Y-63.537
Y-63.455
Y-63.372
Y-63.287
Y-63.202
Y-63.116
Y-63.028
Y-62.940
Y-62.851
Y-62.760
Y-62.669
Y-62.576
Y-62.483
Y-62.388
Y-62.293
Y-62.196
Y-62.099
Y-62.001
Y-61.902
Y-61.802
Y-61.701
Y-61.599
Y-61.497
Y-61.393
Y-61.289
Y-61.184
Y-61.078
Y-60.971
Y-60.864
Y-60.755
Y-60.646
Y-60.536
Y-60.426
Y-60.315
Y-60.203
Y-60.090
Y-59.977
Y-59.863
Y-59.748
Y-59.633
Y-59.517
Y-59.283
Y-59.047
Y-58.808
Y-58.568
Y-58.325
Y-58.080
Y-57.834
Y-57.585
Y-57.335
Y-57.083
Y-56.830
Y-56.575
Y-56.319
Y-56.062
Y-55.803
Y-55.544
Y-55.284
Y-55.023
Y-54.761
Y-54.235
Y-53.708
Y-52.652
Y-52.125
Y-51.599
Y-51.337
Y-51.075
Y-50.814
Y-50.554
Y-50.295
Y-50.038
Y-49.781
Y-49.525
Y-49.271
Y-49.018
Y-48.767
Y-48.518
Y-48.270
Y-48.024
Y-47.780
Y-47.539
Y-47.299
Y-47.061
Y-46.826
Y-46.593
Y-46.478
Y-46.363
Y-46.249
Y-46.136
Y-46.023
Y-45.911
Y-45.800
Y-45.689
Y-45.579
Y-45.470
Y-45.361
Y-45.254
Y-45.147
Y-45.041
Y-44.936
Y-44.831
Y-44.728
Y-44.625
Y-44.523
Y-44.422
Y-44.322
Y-44.223
Y-44.125
Y-44.027
Y-43.931
Y-43.835
Y-43.741
Y-43.647
Y-43.554
Y-43.463
Y-43.372
Y-43.282
Y-43.194
Y-43.106
Y-43.020
Y-42.934
Y-42.850
Y-42.767
Y-42.685
Y-42.604
Y-42.524
Y-42.445
Y-42.367
Y-42.291
Y-42.216
Y-42.142
Y-42.069
Y-41.997
Y-41.927
Y-41.857
Y-41.789
Y-41.723
Y-41.657
Y-41.593
Y-41.530
Y-41.469
Y-41.409
Y-41.350
Y-41.292
Y-41.236
Y-41.182
Y-41.128
Y-41.076
Y-41.026
Y-40.977
Y-40.929
Y-40.883
Y-40.838
Y-40.795
Y-40.753
Y-40.713
Y-40.674
Y-40.636
Y-40.601
Y-40.566
Y-40.534
Y-40.503
Y-40.473
Y-40.445
Y-40.419
Y-40.395
Y-40.372
Y-40.350
Y-40.330
Y-40.312
Y-40.296
Y-40.281
Y-40.268
Y-40.257
Y-40.248
Y-40.240
Y-40.234
Y-40.230
Y-40.227
Y-40.226
Y-40.224
X49.190Y-40.209
X49.191Y-40.146
X49.192Y-40.084
X49.194Y-40.022
X49.196Y-39.960
X49.200Y-39.899
X49.204Y-39.837
X49.208Y-39.776
X49.214Y-39.715
X49.220Y-39.654
X49.226Y-39.593
X49.234Y-39.533
X49.242Y-39.472
X49.250Y-39.412
X49.260Y-39.352
X49.270Y-39.292
X49.280Y-39.233
X49.291Y-39.173
X49.303Y-39.114
X49.316Y-39.055
X49.329Y-38.997
X49.343Y-38.938
X49.357Y-38.880
X49.372Y-38.822
X49.388Y-38.764
X49.404Y-38.707
X49.421Y-38.650
X49.438Y-38.593
X49.456Y-38.536
X49.475Y-38.479
X49.494Y-38.423
X49.514Y-38.367
X49.534Y-38.311
X49.555Y-38.256
X49.576Y-38.201
X49.599Y-38.146
X49.621Y-38.092
X49.644Y-38.037
X49.668Y-37.983
X49.693Y-37.930
X49.717Y-37.876
X49.743Y-37.823
X49.769Y-37.770
X49.823Y-37.666
X49.878Y-37.562
X49.936Y-37.460
X49.996Y-37.360
X50.058Y-37.260
X50.122Y-37.162
X50.188Y-37.066
X50.256Y-36.971
X50.326Y-36.877
X50.398Y-36.785
X50.471Y-36.695
X50.547Y-36.606
X50.624Y-36.519
X50.703Y-36.433
X50.784Y-36.349
X50.867Y-36.267
X50.951Y-36.186
X51.037Y-36.107
X51.125Y-36.030
X51.214Y-35.955
X51.304Y-35.881
X51.397Y-35.810
X51.490Y-35.740
X51.586Y-35.673
G1Z-3.750F304.8
G1X51.682Y-35.607F1016.0
X51.780Y-35.543
X51.880Y-35.481
X51.981Y-35.422
X52.083Y-35.364
X52.187Y-35.309
X52.291Y-35.255
X52.344Y-35.230
X52.397Y-35.204
X52.451Y-35.180
X52.505Y-35.155
X52.559Y-35.132
X52.613Y-35.109
X52.668Y-35.086
X52.723Y-35.064
X52.778Y-35.043
X52.833Y-35.022
X52.889Y-35.002
X52.945Y-34.982
X53.001Y-34.963
X53.058Y-34.945
X53.115Y-34.927
X53.172Y-34.910
X53.229Y-34.893
X53.287Y-34.877
X53.345Y-34.862
X53.403Y-34.847
X53.461Y-34.833
X53.519Y-34.819
X53.578Y-34.806
X53.637Y-34.794
X53.696Y-34.782
X53.756Y-34.771
X53.815Y-34.761
X53.875Y-34.751
X53.935Y-34.742
X53.995Y-34.733
X54.056Y-34.725
X54.116Y-34.718
X54.177Y-34.712
X54.238Y-34.706
X54.299Y-34.701
X54.361Y-34.696
X54.422Y-34.693
X54.484Y-34.689
X54.546Y-34.687
X54.608Y-34.685
X54.670Y-34.684
X54.733Y-34.684
X54.734
X54.738Y-34.684
X54.746Y-34.684
X54.777Y-34.684
X54.840Y-34.685
X54.902Y-34.686
X54.964Y-34.689
X55.026Y-34.692
X55.088Y-34.695
X55.149Y-34.699
X55.211Y-34.704
X55.272Y-34.710
X55.333Y-34.716
X55.394Y-34.723
X55.454Y-34.731
X55.515Y-34.739
X55.575Y-34.748
X55.635Y-34.758
X55.695Y-34.768
X55.754Y-34.779
X55.814Y-34.790
X55.873Y-34.802
X55.932Y-34.815
X55.990Y-34.829
X56.049Y-34.843
X56.107Y-34.857
X56.165Y-34.872
X56.223Y-34.888
X56.280Y-34.905
X56.337Y-34.922
X56.394Y-34.940
X56.451Y-34.958
X56.508Y-34.977
X56.564Y-34.996
X56.620Y-35.016
X56.675Y-35.037
X56.731Y-35.058
X56.786Y-35.080
X56.841Y-35.102
X56.895Y-35.125
X56.949Y-35.149
X57.003Y-35.173
X57.057Y-35.197
X57.110Y-35.222
X57.163Y-35.248
X57.268Y-35.301
X57.372Y-35.356
X57.475Y-35.413
X57.576Y-35.473
X57.676Y-35.534
X57.774Y-35.598
X57.871Y-35.663
X57.967Y-35.730
X58.061Y-35.800
X58.153Y-35.871
X58.245Y-35.944
X58.334Y-36.019
X58.422Y-36.096
X58.508Y-36.175
X58.593Y-36.255
X58.676Y-36.337
X58.757Y-36.421
X58.836Y-36.506
X58.914Y-36.593
X58.990Y-36.682
X59.064Y-36.772
X59.136Y-36.864
X59.206Y-36.957
X59.274Y-37.052
X59.341Y-37.149
X59.405Y-37.246
X59.467Y-37.345
X59.527Y-37.446
X59.586Y-37.548
X59.642Y-37.651
X59.696Y-37.755
X59.722Y-37.808
X59.747Y-37.861
X59.773Y-37.914
X59.797Y-37.968
X59.821Y-38.022
X59.844Y-38.076
X59.867Y-38.130
X59.890Y-38.185
X59.911Y-38.240
X59.932Y-38.296
X59.953Y-38.351
X59.973Y-38.407
X59.992Y-38.463
X60.011Y-38.520
X60.029Y-38.576
X60.047Y-38.633
X60.064Y-38.690
X60.080Y-38.748
X60.096Y-38.806
X60.111Y-38.863
X60.126Y-38.922
X60.140Y-38.980
X60.153Y-39.039
X60.166Y-39.097
X60.178Y-39.156
X60.189Y-39.216
X60.200Y-39.275
X60.210Y-39.335
X60.219Y-39.395
X60.228Y-39.455
X60.236Y-39.515
X60.244Y-39.576
X60.251Y-39.637
X60.257Y-39.697
X60.263Y-39.759
X60.267Y-39.820
X60.272Y-39.881
X60.275Y-39.943
X60.278Y-40.005
X60.280Y-40.067
X60.282Y-40.129
X60.282Y-40.191
X60.282Y-40.222
Y-40.226
Y-40.227
Y-40.230
Y-40.234
Y-40.240
Y-40.248
Y-40.257
Y-40.268
Y-40.281
Y-40.296
Y-40.312
Y-40.330
Y-40.350
Y-40.372
Y-40.395
Y-40.419
Y-40.445
Y-40.473
Y-40.503
Y-40.534
Y-40.566
Y-40.601
Y-40.636
Y-40.674
Y-40.713
Y-40.753
Y-40.795
Y-40.838
Y-40.883
Y-40.929
Y-40.977
Y-41.026
Y-41.076
Y-41.128
Y-41.182
Y-41.236
Y-41.292
Y-41.350
Y-41.409
Y-41.469
Y-41.530
Y-41.593
Y-41.657
Y-41.723
Y-41.789
Y-41.857
Y-41.927
Y-41.997
Y-42.069
Y-42.142
Y-42.216
Y-42.291
Y-42.367
Y-42.445
Y-42.524
Y-42.604
Y-42.685
Y-42.767
Y-42.850
Y-42.934
Y-43.020
Y-43.106
Y-43.194
Y-43.282
Y-43.372
Y-43.463
Y-43.554
Y-43.647
Y-43.741
Y-43.835
Y-43.931
Y-44.027
Y-44.125
Y-44.223
Y-44.322
Y-44.422
Y-44.523
Y-44.625
Y-44.728
Y-44.831
Y-44.936
Y-45.041
Y-45.147
Y-45.254
Y-45.361
Y-45.470
Y-45.579
Y-45.689
Y-45.800
Y-45.911
Y-46.023
Y-46.136
Y-46.249
Y-46.363
Y-46.478
Y-46.593
Y-46.826
Y-47.061
Y-47.299
Y-47.538
Y-47.780
Y-48.024
Y-48.270
Y-48.518
Y-48.767
Y-49.018
Y-49.271
Y-49.525
Y-49.781
Y-50.038
Y-50.295
Y-50.554
Y-50.814
Y-51.075
Y-51.337
Y-51.599
Y-52.125
Y-52.652
Y-53.708
Y-54.235
Y-54.761
Y-55.023
Y-55.284
Y-55.544
Y-55.803
Y-56.062
Y-56.319
Y-56.575
Y-56.830
Y-57.083
Y-57.335
Y-57.585
Y-57.834
Y-58.080
Y-58.325
Y-58.568
Y-58.808
Y-59.047
Y-59.283
Y-59.517
Y-59.633
Y-59.748
Y-59.863
Y-59.977
Y-60.090
Y-60.203
Y-60.315
Y-60.426
Y-60.536
Y-60.646
Y-60.755
Y-60.864
Y-60.971
Y-61.078
Y-61.184
Y-61.289
Y-61.393
Y-61.497
Y-61.599
Y-61.701
Y-61.802
Y-61.902
Y-62.001
Y-62.099
Y-62.196
Y-62.293
Y-62.388
Y-62.483
Y-62.576
Y-62.669
Y-62.760
Y-62.851
Y-62.940
Y-63.028
Y-63.116
Y-63.202
Y-63.287
Y-63.372
Y-63.455
Y-63.537
Y-63.618
Y-63.697
Y-63.776
Y-63.853
Y-63.930
Y-64.005
Y-64.079
Y-64.151
Y-64.223
Y-64.293
Y-64.362
Y-64.430
Y-64.496
Y-64.562
Y-64.625
Y-64.688
Y-64.749
Y-64.809
Y-64.868
Y-64.925
Y-64.981
Y-65.036
Y-65.089
Y-65.141
Y-65.191
Y-65.240
Y-65.287
Y-65.333
Y-65.378
Y-65.421
Y-65.463
Y-65.503
Y-65.541
Y-65.578
Y-65.614
Y-65.648
Y-65.680
Y-65.711
Y-65.740
Y-65.768
Y-65.794
Y-65.819
Y-65.841
Y-65.862
Y-65.882
Y-65.900
Y-65.916
Y-65.930
Y-65.943
Y-65.954
Y-65.963
Y-65.971
Y-65.976
Y-65.980
Y-65.983
X60.280Y-65.983
X60.278
X60.275
X60.272
X60.267
X60.262
X60.256
X60.250
X60.242
X60.234
X60.225
X60.216
X60.206
X60.195
X60.183
X60.171
X60.158
X60.144
X60.130
X60.115
X60.099
X60.083
X60.066
X60.048
X60.030
X60.011
X59.991
X59.950
X59.907
X59.861
X59.813
X59.762
X59.709
X59.654
X59.597
X59.537
X59.476
X59.412
X59.346
X59.278
X59.209
X59.137
X59.064
X58.988
X58.911
X58.832
X58.752
X58.669
X58.586
X58.500
X58.413
X58.325
X58.235
X58.144
X58.051
X57.957
X57.862
X57.765
X57.668
X57.569
X57.469
X57.368
X57.266
X57.163
X57.059
X56.954
X56.849
X56.742
X56.635
X56.527
X56.418
X56.309
X56.089
X55.866
X55.642
X55.417
X55.191
X54.736
X54.282
X54.055
X53.830
X53.606
X53.384
X53.163
X53.054
X52.945
X52.837
X52.730
X52.624
X52.518
X52.413
X52.309
X52.206
X52.104
X52.003
X51.903
X51.805
X51.707
X51.611
X51.515
X51.421
X51.329
X51.237
X51.148
X51.059
X50.972
X50.887
X50.803
X50.721
X50.640
X50.561
X50.484
X50.409
X50.335
X50.264
X50.194
X50.126
X50.060
X49.997
X49.935
X49.875
X49.818
X49.763
X49.710
X49.659
X49.611
X49.565
X49.522
X49.481
X49.461
X49.442
X49.424
X49.407
X49.390
X49.373
X49.358
X49.343
X49.328
X49.315
X49.302
X49.289
X49.278
X49.267
X49.256
X49.247
X49.238
X49.230
X49.223
X49.216
X49.210
X49.205
X49.201
X49.197
X49.194
X49.192
X49.191
X49.190
X49.190Y-65.980
Y-65.976
Y-65.971
Y-65.963
Y-65.954
Y-65.943
Y-65.930
Y-65.916
Y-65.900
Y-65.882
Y-65.862
Y-65.841
Y-65.819
Y-65.794
Y-65.768
Y-65.740
Y-65.711
Y-65.680
Y-65.648
Y-65.614
Y-65.578
Y-65.541
Y-65.503
Y-65.463
Y-65.421
Y-65.378
Y-65.333
Y-65.287
Y-65.240
Y-65.191
Y-65.141
Y-65.089
Y-65.036
Y-64.981
Y-64.925
Y-64.868
Y-64.809
Y-64.749
Y-64.688
Y-64.625
Y-64.562
Y-64.496
Y-64.430
Y-64.362
Y-64.293
Y-64.223
Y-64.151
Y-64.079
Y-64.005
Y-63.930
Y-63.853
Y-63.776
Y-63.697
Y-63.618
Y-63.537
Y-63.455
Y-63.372
Y-63.287
Y-63.202
Y-63.116
Y-63.028
Y-62.940
Y-62.851
Y-62.760
Y-62.669
Y-62.576
Y-62.483
Y-62.388
Y-62.293
Y-62.196
Y-62.099
Y-62.001
Y-61.902
Y-61.802
Y-61.701
Y-61.599
Y-61.497
Y-61.393
Y-61.289
Y-61.184
Y-61.078
Y-60.971
Y-60.864
Y-60.755
Y-60.646
Y-60.536
Y-60.426
Y-60.315
Y-60.203
Y-60.090
Y-59.977
Y-59.863
Y-59.748
Y-59.633
Y-59.517
Y-59.283
Y-59.047
Y-58.808
Y-58.568
Y-58.325
Y-58.080
Y-57.834
Y-57.585
Y-57.335
Y-57.083
Y-56.830
Y-56.575
Y-56.319
Y-56.062
Y-55.803
Y-55.544
Y-55.284
Y-55.023
Y-54.761
Y-54.235
Y-53.708
Y-52.652
Y-52.125
Y-51.599
Y-51.337
Y-51.075
Y-50.814
Y-50.554
Y-50.295
Y-50.038
Y-49.781
Y-49.525
Y-49.271
Y-49.018
Y-48.767
Y-48.518
Y-48.270
Y-48.024
Y-47.780
Y-47.539
Y-47.299
Y-47.061
Y-46.826
Y-46.593
Y-46.478
Y-46.363
Y-46.249
Y-46.136
Y-46.023
Y-45.911
Y-45.800
Y-45.689
Y-45.579
Y-45.470
Y-45.361
Y-45.254
Y-45.147
Y-45.041
Y-44.936
Y-44.831
Y-44.728
Y-44.625
Y-44.523
Y-44.422
Y-44.322
Y-44.223
Y-44.125
Y-44.027
Y-43.931
Y-43.835
Y-43.741
Y-43.647
Y-43.554
Y-43.463
Y-43.372
Y-43.282
Y-43.194
Y-43.106
Y-43.020
Y-42.934
Y-42.850
Y-42.767
Y-42.685
Y-42.604
Y-42.524
Y-42.445
Y-42.367
Y-42.291
Y-42.216
Y-42.142
Y-42.069
Y-41.997
Y-41.927
Y-41.857
Y-41.789
Y-41.723
Y-41.657
Y-41.593
Y-41.530
Y-41.469
Y-41.409
Y-41.350
Y-41.292
Y-41.236
Y-41.182
Y-41.128
Y-41.076
Y-41.026
Y-40.977
Y-40.929
Y-40.883
Y-40.838
Y-40.795
Y-40.753
Y-40.713
Y-40.674
Y-40.636
Y-40.601
Y-40.566
Y-40.534
Y-40.503
Y-40.473
Y-40.445
Y-40.419
Y-40.395
Y-40.372
Y-40.350
Y-40.330
Y-40.312
Y-40.296
Y-40.281
Y-40.268
Y-40.257
Y-40.248
Y-40.240
Y-40.234
Y-40.230
Y-40.227
Y-40.226
Y-40.224
X49.190Y-40.209
X49.191Y-40.146
X49.192Y-40.084
X49.194Y-40.022
X49.196Y-39.960
X49.200Y-39.899
X49.204Y-39.837
X49.208Y-39.776
X49.214Y-39.715
X49.220Y-39.654
X49.226Y-39.593
X49.234Y-39.533
X49.242Y-39.472
X49.250Y-39.412
X49.260Y-39.352
X49.270Y-39.292
X49.280Y-39.233
X49.291Y-39.173
X49.303Y-39.114
X49.316Y-39.055
X49.329Y-38.997
X49.343Y-38.938
X49.357Y-38.880
X49.372Y-38.822
X49.388Y-38.764
X49.404Y-38.707
X49.421Y-38.650
X49.438Y-38.593
X49.456Y-38.536
X49.475Y-38.479
X49.494Y-38.423
X49.514Y-38.367
X49.534Y-38.311
X49.555Y-38.256
X49.576Y-38.201
X49.599Y-38.146
X49.621Y-38.092
X49.644Y-38.037
X49.668Y-37.983
X49.693Y-37.930
X49.717Y-37.876
X49.743Y-37.823
X49.769Y-37.770
X49.823Y-37.666
X49.878Y-37.562
X49.936Y-37.460
X49.996Y-37.360
X50.058Y-37.260
X50.122Y-37.162
X50.188Y-37.066
X50.256Y-36.971
X50.326Y-36.877
X50.398Y-36.785
X50.471Y-36.695
X50.547Y-36.606
X50.624Y-36.519
X50.703Y-36.433
X50.784Y-36.349
X50.867Y-36.267
X50.951Y-36.186
X51.037Y-36.107
X51.125Y-36.030
X51.214Y-35.955
X51.304Y-35.881
X51.397Y-35.810
X51.490Y-35.740
X51.586Y-35.673
G0Z5.080
G0X68.696Y-44.003
G1Z-1.250F304.8
G1X68.730Y-43.936F1016.0
X68.766Y-43.869
X68.803Y-43.804
X68.842Y-43.739
X68.882Y-43.675
X68.923Y-43.612
X68.965Y-43.549
X69.009Y-43.488
X69.054Y-43.428
X69.100Y-43.369
X69.148Y-43.310
X69.196Y-43.253
X69.246Y-43.197
X69.297Y-43.142
X69.349Y-43.088
X69.402Y-43.035
X69.457Y-42.983
X69.512Y-42.932
X69.568Y-42.882
X69.626Y-42.834
X69.684Y-42.787
X69.744Y-42.740
X69.804Y-42.696
X69.865Y-42.652
X69.928Y-42.610
X69.991Y-42.569
X70.055Y-42.529
X70.120Y-42.491
X70.186Y-42.454
X70.253Y-42.418
X70.320Y-42.384
X70.388Y-42.351
X70.458Y-42.319
X70.527Y-42.289
X70.598Y-42.260
X70.669Y-42.233
X70.741Y-42.208
X70.814Y-42.184
X70.888Y-42.161
X70.962Y-42.140
X71.036Y-42.121
X71.112Y-42.103
X71.188Y-42.086
X71.264Y-42.072
X71.341Y-42.059
X71.419Y-42.047
X71.497Y-42.038
X71.575Y-42.030
X71.654Y-42.024
X71.734Y-42.019
X71.814Y-42.017
X71.894Y-42.016
X71.895
X71.898Y-42.016
X71.903Y-42.016
X71.923Y-42.016
X71.963Y-42.016
X72.043Y-42.019
X72.123Y-42.023
X72.202Y-42.029
X72.280Y-42.037
X72.359Y-42.046
X72.436Y-42.057
X72.513Y-42.070
X72.590Y-42.084
X72.666Y-42.100
X72.741Y-42.118
X72.816Y-42.137
X72.890Y-42.158
X72.964Y-42.180
X73.036Y-42.204
X73.109Y-42.230
X73.180Y-42.256
X73.251Y-42.285
X73.321Y-42.315
X73.390Y-42.346
X73.458Y-42.379
X73.526Y-42.413
X73.593Y-42.448
X73.659Y-42.485
X73.724Y-42.523
X73.788Y-42.563
X73.852Y-42.604
X73.914Y-42.646
X73.976Y-42.689
X74.036Y-42.734
X74.096Y-42.780
X74.154Y-42.827
X74.212Y-42.875
X74.268Y-42.925
X74.324Y-42.975
X74.378Y-43.027
X74.432Y-43.080
X74.484Y-43.134
X74.535Y-43.189
X74.585Y-43.245
X74.634Y-43.302
X74.681Y-43.360
X74.728Y-43.419
X74.773Y-43.480
X74.817Y-43.541
X74.859Y-43.603
X74.901Y-43.666
X74.941Y-43.729
X74.980Y-43.794
X75.017Y-43.860
X75.053Y-43.926
X75.088Y-43.994
X75.121Y-44.062
X75.153Y-44.131
X75.184Y-44.200
X75.213Y-44.271
X75.240Y-44.342
X75.266Y-44.414
X75.291Y-44.486
X75.314Y-44.559
X75.335Y-44.633
X75.355Y-44.708
X75.373Y-44.783
X75.390Y-44.859
X75.405Y-44.935
X75.419Y-45.012
X75.431Y-45.089
X75.441Y-45.167
X75.449Y-45.246
X75.456Y-45.325
X75.461Y-45.404
X75.464Y-45.484
X75.465Y-45.564
X75.465Y-45.584
Y-45.587
Y-45.588
Y-45.590
Y-45.593
Y-45.598
Y-45.604
Y-45.611
Y-45.620
Y-45.630
Y-45.642
Y-45.655
Y-45.669
Y-45.685
Y-45.702
Y-45.720
Y-45.739
Y-45.760
Y-45.782
Y-45.806
Y-45.830
Y-45.856
Y-45.883
Y-45.912
Y-45.941
Y-45.972
Y-46.004
Y-46.037
Y-46.071
Y-46.107
Y-46.143
Y-46.181
Y-46.220
Y-46.260
Y-46.301
Y-46.343
Y-46.387
Y-46.431
Y-46.477
Y-46.523
Y-46.571
Y-46.619
Y-46.669
Y-46.720
Y-46.772
Y-46.825
Y-46.878
Y-46.933
Y-46.989
Y-47.046
Y-47.103
Y-47.162
Y-47.222
Y-47.282
Y-47.344
Y-47.406
Y-47.469
Y-47.533
Y-47.599
Y-47.664
Y-47.731
Y-47.799
Y-47.867
Y-47.937
Y-48.007
Y-48.078
Y-48.150
Y-48.222
Y-48.295
Y-48.370
Y-48.444
Y-48.520
Y-48.597
Y-48.674
Y-48.752
Y-48.830
Y-48.909
Y-48.989
Y-49.070
Y-49.151
Y-49.233
Y-49.316
Y-49.399
Y-49.483
Y-49.568
Y-49.653
Y-49.739
Y-49.825
Y-49.913
Y-50.000
Y-50.088
Y-50.177
Y-50.266
Y-50.356
Y-50.446
Y-50.537
Y-50.629
Y-50.721
Y-50.813
Y-50.999
Y-51.187
Y-51.377
Y-51.569
Y-51.762
Y-51.957
Y-52.153
Y-52.350
Y-52.549
Y-52.749
Y-52.950
Y-53.153
Y-53.356
Y-53.560
Y-53.765
Y-53.971
Y-54.178
Y-54.385
Y-54.592
Y-55.009
Y-55.427
Y-56.263
Y-56.680
Y-57.096
Y-57.304
Y-57.510
Y-57.717
Y-57.922
Y-58.127
Y-58.330
Y-58.533
Y-58.735
Y-58.935
Y-59.135
Y-59.333
Y-59.530
Y-59.725
Y-59.919
Y-60.111
Y-60.302
Y-60.490
Y-60.677
Y-60.770
Y-60.863
Y-60.954
Y-61.046
Y-61.137
Y-61.227
Y-61.317
Y-61.406
Y-61.494
Y-61.582
Y-61.670
Y-61.757
Y-61.843
Y-61.929
Y-62.014
Y-62.099
Y-62.183
Y-62.266
Y-62.348
Y-62.430
Y-62.512
Y-62.592
Y-62.672
Y-62.751
Y-62.830
Y-62.907
Y-62.984
Y-63.061
Y-63.136
Y-63.211
Y-63.285
Y-63.358
Y-63.431
Y-63.502
Y-63.573
Y-63.643
Y-63.713
Y-63.781
Y-63.848
Y-63.915
Y-63.981
Y-64.046
Y-64.110
Y-64.173
Y-64.235
Y-64.297
Y-64.357
Y-64.416
Y-64.475
Y-64.533
Y-64.589
Y-64.645
Y-64.699
Y-64.753
Y-64.806
Y-64.857
Y-64.908
Y-64.958
Y-65.006
Y-65.054
Y-65.100
Y-65.145
Y-65.190
Y-65.233
Y-65.275
Y-65.316
Y-65.356
Y-65.395
Y-65.432
Y-65.469
Y-65.504
Y-65.538
Y-65.571
Y-65.603
Y-65.633
Y-65.663
Y-65.691
Y-65.718
Y-65.743
Y-65.768
Y-65.791
Y-65.813
Y-65.833
Y-65.853
Y-65.871
Y-65.888
Y-65.903
Y-65.917
Y-65.930
Y-65.941
Y-65.951
Y-65.960
Y-65.967
Y-65.973
Y-65.978
Y-65.981
Y-65.983
X75.464Y-65.983
X75.463
X75.461
X75.458
X75.456
X75.448
X75.439
X75.429
X75.416
X75.401
X75.385
X75.367
X75.347
X75.326
X75.303
X75.278
X75.252
X75.224
X75.194
X75.163
X75.130
X75.096
X75.061
X75.024
X74.986
X74.946
X74.905
X74.863
X74.819
X74.774
X74.728
X74.681
X74.632
X74.582
X74.532
X74.480
X74.427
X74.373
X74.318
X74.262
X74.205
X74.147
X74.088
X74.029
X73.968
X73.907
X73.845
X73.782
X73.718
X73.654
X73.589
X73.523
X73.457
X73.390
X73.322
X73.254
X73.186
X73.047
X72.907
X72.765
X72.622
X72.478
X72.333
X72.187
X71.894
X71.601
X71.456
X71.311
X71.166
X71.023
X70.881
X70.741
X70.603
X70.534
X70.466
X70.398
X70.332
X70.265
X70.200
X70.135
X70.070
X70.007
X69.944
X69.882
X69.820
X69.760
X69.700
X69.641
X69.583
X69.527
X69.471
X69.416
X69.362
X69.309
X69.257
X69.206
X69.156
X69.108
X69.060
X69.014
X68.969
X68.926
X68.883
X68.842
X68.803
X68.764
X68.727
X68.692
X68.658
X68.625
X68.594
X68.565
X68.537
X68.510
X68.486
X68.462
X68.441
X68.421
X68.403
X68.387
X68.372
X68.360
X68.349
X68.340
X68.333
X68.330
X68.328
X68.326
X68.324
X68.323
X68.323Y-65.981
Y-65.978
Y-65.973
Y-65.967
Y-65.960
Y-65.951
Y-65.941
Y-65.930
Y-65.917
Y-65.903
Y-65.888
Y-65.871
Y-65.853
Y-65.833
Y-65.813
Y-65.791
Y-65.768
Y-65.743
Y-65.718
Y-65.691
Y-65.663
Y-65.633
Y-65.603
Y-65.571
Y-65.538
Y-65.504
Y-65.469
Y-65.432
Y-65.395
Y-65.356
Y-65.316
Y-65.275
Y-65.233
Y-65.190
Y-65.145
Y-65.100
Y-65.054
Y-65.006
Y-64.958
Y-64.908
Y-64.857
Y-64.806
Y-64.753
Y-64.699
Y-64.645
Y-64.589
Y-64.533
Y-64.475
Y-64.416
Y-64.357
Y-64.297
Y-64.235
Y-64.173
Y-64.110
Y-64.046
Y-63.981
Y-63.915
Y-63.848
Y-63.781
Y-63.713
Y-63.643
Y-63.573
Y-63.502
Y-63.431
Y-63.358
Y-63.285
Y-63.211
Y-63.136
Y-63.061
Y-62.984
Y-62.907
Y-62.830
Y-62.751
Y-62.672
Y-62.592
Y-62.512
Y-62.430
Y-62.348
Y-62.266
Y-62.183
Y-62.099
Y-62.014
Y-61.929
Y-61.843
Y-61.757
Y-61.670
Y-61.582
Y-61.494
Y-61.406
Y-61.317
Y-61.227
Y-61.137
Y-61.046
Y-60.954
Y-60.863
Y-60.770
Y-60.677
Y-60.490
Y-60.302
Y-60.111
Y-59.919
Y-59.725
Y-59.530
Y-59.333
Y-59.135
Y-58.935
Y-58.735
Y-58.533
Y-58.330
Y-58.127
Y-57.922
Y-57.717
Y-57.510
Y-57.304
Y-57.096
Y-56.680
Y-56.263
Y-55.427
Y-55.009
Y-54.592
Y-54.385
Y-54.178
Y-53.971
Y-53.765
Y-53.560
Y-53.356
Y-53.153
Y-52.950
Y-52.749
Y-52.549
Y-52.350
Y-52.153
Y-51.957
Y-51.762
Y-51.569
Y-51.377
Y-51.187
Y-50.999
Y-50.813
Y-50.721
Y-50.629
Y-50.537
Y-50.446
Y-50.356
Y-50.266
Y-50.177
Y-50.088
Y-50.000
Y-49.913
Y-49.825
Y-49.739
Y-49.653
Y-49.568
Y-49.483
Y-49.399
Y-49.316
Y-49.233
Y-49.151
Y-49.070
Y-48.989
Y-48.909
Y-48.830
Y-48.752
Y-48.674
Y-48.597
Y-48.520
Y-48.444
Y-48.370
Y-48.295
Y-48.222
Y-48.150
Y-48.078
Y-48.007
Y-47.937
Y-47.867
Y-47.799
Y-47.731
Y-47.664
Y-47.599
Y-47.533
Y-47.469
Y-47.406
Y-47.344
Y-47.282
Y-47.222
Y-47.162
Y-47.103
Y-47.046
Y-46.989
Y-46.933
Y-46.878
Y-46.825
Y-46.772
Y-46.720
Y-46.669
Y-46.619
Y-46.571
Y-46.523
Y-46.477
Y-46.431
Y-46.387
Y-46.343
Y-46.301
Y-46.260
Y-46.220
Y-46.181
Y-46.143
Y-46.107
Y-46.071
Y-46.037
Y-46.004
Y-45.972
Y-45.941
Y-45.912
Y-45.883
Y-45.856
Y-45.830
Y-45.806
Y-45.782
Y-45.760
Y-45.739
Y-45.720
Y-45.702
Y-45.685
Y-45.669
Y-45.655
Y-45.642
Y-45.630
Y-45.620
Y-45.611
Y-45.604
Y-45.598
Y-45.593
Y-45.590
Y-45.588
Y-45.587
Y-45.586
X68.323Y-45.576
X68.324Y-45.495
X68.327Y-45.415
X68.332Y-45.336
X68.338Y-45.257
X68.346Y-45.178
X68.356Y-45.100
X68.368Y-45.023
X68.381Y-44.946
X68.396Y-44.870
X68.412Y-44.794
X68.430Y-44.718
X68.450Y-44.644
X68.471Y-44.570
X68.494Y-44.497
X68.518Y-44.424
X68.544Y-44.352
X68.572Y-44.281
X68.600Y-44.210
X68.631Y-44.140
X68.662Y-44.071
X68.696Y-44.003
G1Z-2.500F304.8
G1X68.730Y-43.936F1016.0
X68.766Y-43.869
X68.803Y-43.804
X68.842Y-43.739
X68.882Y-43.675
X68.923Y-43.612
X68.965Y-43.549
X69.009Y-43.488
X69.054Y-43.428
X69.100Y-43.369
X69.148Y-43.310
X69.196Y-43.253
X69.246Y-43.197
X69.297Y-43.142
X69.349Y-43.088
X69.402Y-43.035
X69.457Y-42.983
X69.512Y-42.932
X69.568Y-42.882
X69.626Y-42.834
X69.684Y-42.787
X69.744Y-42.740
X69.804Y-42.696
X69.865Y-42.652
X69.928Y-42.610
X69.991Y-42.569
X70.055Y-42.529
X70.120Y-42.491
X70.186Y-42.454
X70.253Y-42.418
X70.320Y-42.384
X70.388Y-42.351
X70.458Y-42.319
X70.527Y-42.289
X70.598Y-42.260
X70.669Y-42.233
X70.741Y-42.208
X70.814Y-42.184
X70.888Y-42.161
X70.962Y-42.140
X71.036Y-42.121
X71.112Y-42.103
X71.188Y-42.086
X71.264Y-42.072
X71.341Y-42.059
X71.419Y-42.047
X71.497Y-42.038
X71.575Y-42.030
X71.654Y-42.024
X71.734Y-42.019
X71.814Y-42.017
X71.894Y-42.016
X71.895
X71.898Y-42.016
X71.903Y-42.016
X71.923Y-42.016
X71.963Y-42.016
X72.043Y-42.019
X72.123Y-42.023
X72.202Y-42.029
X72.280Y-42.037
X72.359Y-42.046
X72.436Y-42.057
X72.513Y-42.070
X72.590Y-42.084
