(VECTRIC POST REV.)
(82074C4DCA892683619619E26FA56BD3)

G20 G21
G0Z20.320
G0X0.000Y0.000S18000M3
G0X2.792Y0.355
G0Z5.080
G1Z-1.250F304.8
G1Y2.888F1016.0
Y5.451
Y8.041
Y10.659
Y13.301
Y15.967
Y18.655
Y21.363
Y24.091
Y26.837
Y29.598
Y32.375
Y35.164
Y37.966
Y43.598
Y49.259
Y54.938
Y66.301
Y71.962
Y77.593
Y80.394
Y83.182
Y85.958
Y88.719
Y91.463
Y94.190
Y96.897
Y99.584
Y102.248
Y104.889
Y107.505
Y110.094
Y112.655
Y115.186
Y117.687
Y120.155
Y122.588
Y124.987
Y126.172
Y127.348
Y128.515
Y129.671
Y130.818
Y131.955
Y133.081
Y134.196
Y135.301
Y136.395
Y137.478
Y138.550
Y139.610
Y140.659
Y141.695
Y142.720
Y143.733
Y144.733
Y145.721
Y146.695
Y147.657
Y148.606
Y149.542
Y150.464
Y151.372
Y152.267
Y153.147
Y154.014
Y154.866
Y155.703
Y156.525
Y157.333
Y158.125
Y158.903
Y159.664
Y160.410
Y161.140
Y161.854
Y162.552
Y163.233
Y163.898
Y164.546
Y165.177
Y165.790
Y166.387
Y166.966
Y167.527
Y168.070
Y168.595
Y169.102
Y169.590
Y170.060
Y170.511
Y170.943
Y171.355
Y171.748
Y172.122
Y172.476
Y172.810
Y173.124
Y173.418
Y173.691
Y173.943
Y174.175
Y174.385
Y174.575
Y174.742
Y174.889
Y175.013
Y175.116
Y175.196
Y175.254
Y175.290
Y175.302
X2.774Y175.302
X2.740
X2.671
X2.532
X2.256
X-15.446
X-50.849
X-59.699
X-64.125
X-65.231
X-65.784
X-65.853
X-65.877
X-65.892Y175.302
X-65.955Y175.303
X-66.080Y175.304
X-66.576Y175.316
X-67.070Y175.341
X-67.560Y175.378
X-68.047Y175.429
X-68.530Y175.491
X-69.009Y175.566
X-69.484Y175.653
X-69.955Y175.752
X-70.422Y175.863
X-70.884Y175.985
X-71.342Y176.119
X-71.795Y176.264
X-72.242Y176.420
X-72.685Y176.587
X-73.122Y176.765
X-73.554Y176.954
X-73.980Y177.153
X-74.400Y177.362
X-74.814Y177.581
X-75.223Y177.811
X-75.625Y178.050
X-76.020Y178.298
X-76.409Y178.557
X-76.791Y178.824
X-77.166Y179.101
X-77.533Y179.387
X-77.894Y179.681
X-78.247Y179.984
X-78.593Y180.296
X-78.930Y180.616
X-79.260Y180.944
X-79.582Y181.280
X-79.895Y181.624
X-80.200Y181.976
X-80.496Y182.335
X-80.784Y182.701
X-81.062Y183.075
X-81.332Y183.456
X-81.592Y183.843
X-81.843Y184.237
X-82.084Y184.638
X-82.316Y185.045
X-82.537Y185.459
X-82.748Y185.878
X-82.950Y186.303
X-83.140Y186.734
X-83.321Y187.171
X-83.490Y187.613
X-83.649Y188.060
X-83.796Y188.512
X-83.932Y188.969
X-84.057Y189.431
X-84.170Y189.898
X-84.272Y190.368
X-84.362Y190.843
X-84.439Y191.323
X-84.505Y191.806
X-84.558Y192.292
X-84.598Y192.783
X-84.626Y193.277
X-84.640Y193.774
X-84.643Y194.023
X-84.643Y194.086
X-84.653Y194.095
X-84.669Y194.099
X-84.701Y194.108
X-84.827Y194.145
X-85.329Y194.298
X-85.826Y194.462
X-86.319Y194.636
X-86.807Y194.820
X-87.290Y195.013
X-87.768Y195.217
X-88.240Y195.430
X-88.708Y195.653
X-89.170Y195.885
X-89.627Y196.126
X-90.078Y196.377
X-90.523Y196.636
X-90.963Y196.905
X-91.396Y197.182
X-91.824Y197.468
X-92.245Y197.762
X-92.660Y198.065
X-93.068Y198.376
X-93.470Y198.696
X-93.865Y199.023
X-94.253Y199.358
X-94.634Y199.701
X-95.008Y200.052
X-95.375Y200.411
X-95.735Y200.776
X-96.087Y201.149
X-96.431Y201.530
X-96.768Y201.917
X-97.097Y202.311
X-97.418Y202.713
X-97.731Y203.120
X-98.036Y203.535
X-98.332Y203.956
X-98.620Y204.383
X-98.900Y204.816
X-99.170Y205.256
X-99.432Y205.701
X-99.685Y206.153
X-99.929Y206.610
X-100.164Y207.072
X-100.390Y207.540
X-100.606Y208.014
X-100.813Y208.492
X-101.010Y208.976
X-101.197Y209.465
X-101.374Y209.958
X-101.541Y210.457
X-101.699Y210.960
X-101.845Y211.467
X-101.982Y211.979
X-102.108Y212.495
X-102.223Y213.015
X-102.328Y213.539
X-102.422Y214.067
X-102.504Y214.599
X-102.576Y215.135
X-102.636Y215.674
X-102.685Y216.216
X-102.723Y216.762
X-102.749Y217.310
X-102.763Y217.862
X-102.765Y218.416
X-102.756Y218.969
X-102.734Y219.519
X-102.701Y220.066
X-102.657Y220.610
X-102.601Y221.150
X-102.534Y221.687
X-102.455Y222.220
X-102.366Y222.750
X-102.266Y223.275
X-102.155Y223.797
X-102.033Y224.315
X-101.900Y224.828
X-101.758Y225.337
X-101.605Y225.842
X-101.441Y226.342
X-101.268Y226.838
X-101.085Y227.329
X-100.891Y227.814
X-100.689Y228.295
X-100.476Y228.770
X-100.254Y229.241
X-100.023Y229.705
X-99.783Y230.165
X-99.533Y230.618
X-99.275Y231.066
X-99.007Y231.508
X-98.731Y231.944
X-98.447Y232.373
X-98.153Y232.797
X-97.852Y233.214
X-97.542Y233.624
X-97.224Y234.028
X-96.898Y234.425
X-96.565Y234.815
X-96.223Y235.198
X-95.874Y235.574
X-95.518Y235.943
X-95.154Y236.304
X-94.782Y236.658
X-94.404Y237.004
X-94.018Y237.342
X-93.626Y237.673
X-93.227Y237.995
X-92.821Y238.310
X-92.409Y238.616
X-91.991Y238.914
X-91.566Y239.203
X-91.134Y239.484
X-90.697Y239.756
X-90.254Y240.019
X-89.805Y240.273
X-89.351Y240.518
X-88.891Y240.753
X-88.425Y240.980
X-87.954Y241.197
X-87.478Y241.404
X-86.997Y241.602
X-86.511Y241.789
X-86.021Y241.967
X-85.525Y242.135
X-85.025Y242.292
X-84.773Y242.367
X-84.647Y242.404
X-84.643Y242.527
X-84.633Y243.027
X-84.610Y243.524
X-84.575Y244.018
X-84.527Y244.507
X-84.466Y244.994
X-84.394Y245.476
X-84.309Y245.954
X-84.212Y246.428
X-84.103Y246.898
X-83.983Y247.362
X-83.851Y247.823
X-83.708Y248.278
X-83.554Y248.728
X-83.389Y249.173
X-83.213Y249.613
X-83.026Y250.047
X-82.829Y250.475
X-82.622Y250.898
X-82.404Y251.314
X-82.176Y251.724
X-81.939Y252.128
X-81.692Y252.526
X-81.435Y252.916
X-81.170Y253.300
X-80.895Y253.677
X-80.611Y254.047
X-80.318Y254.409
X-80.016Y254.764
X-79.706Y255.111
X-79.388Y255.451
X-79.061Y255.782
X-78.727Y256.106
X-78.384Y256.421
X-78.034Y256.727
X-77.676Y257.025
X-77.311Y257.315
X-76.939Y257.595
X-76.560Y257.866
X-76.174Y258.128
X-75.781Y258.380
X-75.382Y258.623
X-74.976Y258.856
X-74.564Y259.079
X-74.146Y259.293
X-73.722Y259.495
X-73.293Y259.688
X-72.858Y259.870
X-72.417Y260.041
X-71.972Y260.201
X-71.521Y260.351
X-71.065Y260.489
X-70.605Y260.615
X-70.140Y260.731
X-69.670Y260.834
X-69.197Y260.926
X-68.719Y261.005
X-68.238Y261.073
X-67.752Y261.128
X-67.263Y261.171
X-66.771Y261.201
X-66.276Y261.218
X-66.027Y261.221
X-65.902Y261.222
X-65.871Y261.222
X-65.868
X-65.867
X-65.853
X-65.823
X-65.778
X-65.717
X-65.641
X-65.550
X-65.445
X-65.325
X-65.192
X-65.044
X-64.883
X-64.709
X-64.521
X-64.321
X-64.109
X-63.884
X-63.647
X-63.399
X-63.139
X-62.868
X-62.586
X-62.294
X-61.991
X-61.678
X-61.355
X-61.022
X-60.329
X-59.601
X-58.839
X-58.047
X-57.225
X-56.377
X-55.504
X-54.608
X-53.691
X-52.756
X-51.805
X-50.839
X-49.861
X-47.876
X-45.868
X-43.852
X-41.846
X-39.867
X-38.892
X-37.930
X-36.984
X-36.054
X-35.143
X-34.254
X-33.388
X-32.548
X-31.735
X-30.951
X-30.200
X-29.482
X-28.800
X-28.473
X-28.156
X-27.849
X-27.553
X-27.267
X-26.991
X-26.727
X-26.474
X-26.233
X-26.003
X-25.786
X-25.581
X-25.388
X-25.209
X-25.043
X-24.890
X-24.751
X-24.625
X-24.514
X-24.418
X-24.336
X-24.269
X-24.218
X-24.182
X-24.162
X-24.158
X-24.157
X-24.136Y261.268
X-23.791Y262.010
X-23.436Y262.740
X-23.072Y263.458
X-22.698Y264.164
X-22.316Y264.857
X-21.925Y265.539
X-21.525Y266.208
X-21.116Y266.865
X-20.699Y267.510
X-20.274Y268.144
X-19.841Y268.765
X-19.400Y269.375
X-18.950Y269.973
X-18.494Y270.559
X-18.029Y271.134
X-17.557Y271.697
X-17.078Y272.248
X-16.592Y272.788
X-16.098Y273.317
X-15.598Y273.834
X-15.091Y274.340
X-14.578Y274.835
X-14.058Y275.319
X-13.532Y275.791
X-13.000Y276.253
X-12.461Y276.703
X-11.917Y277.142
X-11.367Y277.571
X-10.812Y277.989
X-10.251Y278.396
X-9.685Y278.792
X-9.113Y279.178
X-8.537Y279.552
X-7.956Y279.917
X-7.370Y280.271
X-6.780Y280.614
X-6.185Y280.947
X-5.586Y281.270
X-4.982Y281.583
X-4.375Y281.885
X-3.764Y282.177
X-3.149Y282.459
X-2.530Y282.731
X-1.908Y282.993
X-1.283Y283.245
X-0.655Y283.487
X-0.024Y283.720
X0.611Y283.942
X1.248Y284.155
X1.887Y284.359
X2.529Y284.552
X3.173Y284.737
X3.820Y284.911
X4.468Y285.076
X5.118Y285.232
X5.770Y285.379
X6.424Y285.516
X7.079Y285.645
X8.392Y285.873
X9.710Y286.066
Y286.077
Y286.108
Y286.158
Y286.229
Y286.319
Y286.429
Y286.557
Y286.703
Y286.868
Y287.051
Y287.251
Y287.468
Y287.701
Y287.952
Y288.218
Y288.500
Y288.798
Y289.111
Y289.438
Y289.780
Y290.136
Y290.506
Y290.889
Y291.285
Y291.694
Y292.116
Y292.549
Y292.995
Y293.451
Y293.919
Y294.398
Y294.887
Y295.386
Y295.894
Y296.940
Y298.020
Y299.133
Y300.275
Y301.444
Y302.638
Y303.852
Y305.086
Y306.336
Y307.599
Y308.874
Y311.444
Y314.025
Y316.596
Y317.870
Y319.134
Y320.385
Y321.620
Y322.836
Y324.031
Y325.201
Y326.345
Y327.460
Y328.542
Y329.590
Y330.100
Y330.600
Y331.090
Y331.570
Y332.039
Y332.497
Y332.944
Y333.379
Y333.802
Y334.213
Y334.610
Y334.995
Y335.367
Y335.724
Y336.068
Y336.397
Y336.712
Y337.011
Y337.295
Y337.564
Y337.816
Y338.052
Y338.271
Y338.473
Y338.657
Y338.824
Y338.973
Y339.103
Y339.215
Y339.308
Y339.381
Y339.434
Y339.467
Y339.480
Y339.481
X9.710Y339.507
X9.710Y339.559
X9.711Y339.663
X9.715Y339.870
X9.730Y340.281
X9.757Y340.691
X9.794Y341.097
X9.841Y341.500
X9.899Y341.900
X9.966Y342.297
X10.044Y342.691
X10.132Y343.081
X10.229Y343.467
X10.336Y343.850
X10.452Y344.229
X10.578Y344.603
X10.713Y344.974
X10.857Y345.340
X11.010Y345.702
X11.172Y346.059
X11.342Y346.411
X11.521Y346.758
X11.708Y347.100
X11.903Y347.438
X12.107Y347.769
X12.318Y348.096
X12.537Y348.417
X12.764Y348.732
X12.999Y349.041
X13.240Y349.344
X13.489Y349.641
X13.746Y349.932
X14.009Y350.217
X14.279Y350.494
X14.556Y350.766
X14.839Y351.030
X15.129Y351.287
X15.425Y351.538
X15.727Y351.781
X16.035Y352.017
X16.350Y352.245
X16.669Y352.465
X16.995Y352.678
X17.326Y352.883
X17.662Y353.080
X18.004Y353.268
X18.350Y353.449
X18.702Y353.621
X19.058Y353.784
X19.419Y353.938
X19.785Y354.084
X20.155Y354.220
X20.529Y354.348
X20.907Y354.466
X21.289Y354.575
X21.675Y354.674
X22.065Y354.763
X22.458Y354.843
X22.855Y354.912
X23.255Y354.972
X23.658Y355.021
X24.064Y355.060
X24.473Y355.088
X24.884Y355.105
X25.299Y355.112
X25.349Y355.112
X25.351
X25.356
X25.380
X25.418
X25.470
X25.534
X25.610
X25.697
X25.792
X26.008
X26.248
X26.504
X27.027
X27.277
X27.507
X27.710
X27.798
X27.875
X27.942
X27.996
X28.036
X28.061
X28.071
X28.072Y355.115
X28.074Y355.148
X28.085Y355.280
X28.110Y355.544
X28.171Y356.068
X28.249Y356.589
X28.341Y357.105
X28.449Y357.617
X28.572Y358.125
X28.710Y358.628
X28.862Y359.127
X29.029Y359.621
X29.210Y360.110
X29.405Y360.594
X29.614Y361.072
X29.836Y361.545
X30.072Y362.013
X30.322Y362.474
X30.584Y362.930
X30.859Y363.380
X31.147Y363.823
X31.447Y364.260
X31.760Y364.691
X32.085Y365.114
X32.422Y365.531
X32.770Y365.941
X33.130Y366.343
X33.501Y366.739
X33.884Y367.126
X34.277Y367.506
X34.681Y367.878
X35.095Y368.242
X35.520Y368.598
X35.955Y368.946
X36.400Y369.285
X36.855Y369.615
X37.319Y369.937
X37.793Y370.249
X38.275Y370.553
X38.767Y370.847
X39.267Y371.132
X39.777Y371.407
X40.294Y371.672
X40.820Y371.928
X41.353Y372.173
X41.895Y372.408
X42.444Y372.633
X43.000Y372.847
X43.564Y373.051
X44.134Y373.243
X44.712Y373.424
X45.296Y373.595
X45.886Y373.754
X46.483Y373.901
X47.086Y374.037
X47.694Y374.160
X48.309Y374.272
X48.928Y374.372
X49.553Y374.459
X50.183Y374.534
X50.818Y374.596
X51.458Y374.645
X52.102Y374.682
X52.750Y374.705
X53.402Y374.715
X54.056Y374.712
X54.707Y374.695
X55.353Y374.665
X55.994Y374.622
X56.631Y374.566
X57.264Y374.497
X57.891Y374.416
X58.513Y374.322
X59.130Y374.216
X59.741Y374.098
X60.347Y373.968
X60.946Y373.827
X61.540Y373.673
X62.127Y373.508
X62.708Y373.332
X63.281Y373.145
X63.848Y372.947
X64.408Y372.738
X64.961Y372.519
X65.506Y372.288
X66.043Y372.048
X66.572Y371.797
X67.094Y371.537
X67.607Y371.266
X68.111Y370.986
X68.607Y370.697
X69.094Y370.398
X69.572Y370.089
X70.041Y369.772
X70.500Y369.446
X70.950Y369.111
X71.389Y368.768
X71.819Y368.416
X72.239Y368.056
X72.648Y367.687
X73.046Y367.311
X73.434Y366.927
X73.810Y366.536
X74.176Y366.137
X74.530Y365.731
X74.872Y365.317
X75.203Y364.897
X75.521Y364.470
X75.828Y364.036
X76.122Y363.596
X76.403Y363.149
X76.672Y362.696
X76.928Y362.237
X77.170Y361.773
X77.399Y361.302
X77.615Y360.826
X77.817Y360.345
X78.005Y359.859
X78.179Y359.367
X78.338Y358.871
X78.483Y358.370
X78.614Y357.864
X78.729Y357.354
X78.829Y356.839
X78.914Y356.321
X78.984Y355.799
X79.037Y355.272
X79.048Y355.140
X79.051Y355.112
X79.052
X79.057
X79.078
X79.115
X79.166
X79.229
X79.304
X79.390
X79.588
X79.816
X80.064
X80.587
X80.844
X81.086
X81.305
X81.492
X81.570
X81.638
X81.693
X81.734
X81.761
X81.773
X81.778
X81.830Y355.112
X82.037Y355.110
X82.450Y355.098
X82.860Y355.075
X83.268Y355.041
X83.672Y354.997
X84.074Y354.942
X84.472Y354.878
X84.867Y354.803
X85.258Y354.718
X85.646Y354.624
X86.030Y354.520
X86.410Y354.406
X86.786Y354.283
X87.158Y354.151
X87.526Y354.010
X87.889Y353.860
X88.248Y353.701
X88.602Y353.533
X88.951Y353.357
X89.295Y353.172
X89.633Y352.979
X89.967Y352.778
X90.295Y352.570
X90.618Y352.353
X90.935Y352.128
X91.246Y351.896
X91.551Y351.657
X91.850Y351.410
X92.143Y351.156
X92.430Y350.895
X92.710Y350.627
X92.983Y350.352
X93.249Y350.071
X93.509Y349.783
X93.762Y349.489
X94.007Y349.189
X94.245Y348.882
X94.476Y348.570
X94.699Y348.252
X94.914Y347.928
X95.121Y347.599
X95.320Y347.265
X95.512Y346.925
X95.694Y346.580
X95.869Y346.230
X96.035Y345.875
X96.192Y345.516
X96.340Y345.152
X96.479Y344.784
X96.610Y344.411
X96.731Y344.034
X96.842Y343.654
X96.944Y343.269
X97.037Y342.881
X97.119Y342.489
X97.192Y342.093
X97.254Y341.695
X97.307Y341.293
X97.349Y340.888
X97.380Y340.480
X97.401Y340.070
X97.411Y339.656
X97.412Y339.553
X97.412Y339.501
X97.412Y339.480
Y339.467
Y339.433
Y339.380
Y339.307
Y339.215
Y339.105
Y338.975
Y338.828
Y338.663
Y338.480
Y338.280
Y338.063
Y337.830
Y337.581
Y337.315
Y337.035
Y336.739
Y336.428
Y336.102
Y335.763
Y335.409
Y335.042
Y334.662
Y334.269
Y333.863
Y333.446
Y333.016
Y332.575
Y332.122
Y331.659
Y331.185
Y330.701
Y330.207
Y329.190
Y328.138
Y327.053
Y325.938
Y324.795
Y323.627
Y322.437
Y321.227
Y319.999
Y318.758
Y317.504
Y314.973
Y309.884
Y308.623
Y307.370
Y306.130
Y304.904
Y303.696
Y302.507
Y301.341
Y300.201
Y299.088
Y298.006
Y296.957
Y296.446
Y295.944
Y295.452
Y294.969
Y294.497
Y294.036
Y293.586
Y293.146
Y292.719
Y292.303
Y291.900
Y291.509
Y291.131
Y290.767
Y290.416
Y290.079
Y289.756
Y289.448
Y289.155
Y288.876
Y288.614
Y288.367
Y288.137
Y287.923
Y287.727
Y287.547
Y287.385
Y287.241
Y287.115
Y287.008
Y286.919
Y286.850
Y286.800
Y286.771
X97.414Y286.761
X97.483Y286.749
X97.622Y286.726
X97.900Y286.678
X98.457Y286.574
X99.016Y286.462
X99.575Y286.340
X100.136Y286.209
X100.699Y286.068
X101.262Y285.917
X101.827Y285.757
X102.393Y285.587
X102.959Y285.406
X103.527Y285.215
X104.095Y285.014
X104.664Y284.803
X105.234Y284.580
X105.805Y284.347
X106.090Y284.226
X106.162Y284.196
X106.166Y284.194
X106.178Y284.189
X106.214Y284.174
X106.285Y284.143
X106.428Y284.081
X106.995Y283.831
X108.112Y283.317
X109.208Y282.785
X110.282Y282.233
X111.334Y281.664
X112.363Y281.077
X113.371Y280.472
X114.357Y279.849
X115.321Y279.210
X116.262Y278.555
X117.182Y277.883
X118.079Y277.195
X118.953Y276.491
X119.806Y275.772
X120.636Y275.038
X121.443Y274.289
X122.228Y273.526
X122.991Y272.749
X123.731Y271.958
X124.448Y271.154
X125.143Y270.336
X125.815Y269.505
X126.464Y268.663
X127.091Y267.807
X127.694Y266.940
X128.275Y266.062
X128.833Y265.172
X129.368Y264.271
X129.879Y263.360
X130.368Y262.438
X130.834Y261.506
X130.946Y261.272
X130.960Y261.243
X130.967Y261.228
X130.970Y261.222
X130.971
X130.975
X130.996
X131.033
X131.085
X131.153
X131.236
X131.333
X131.446
X131.572
X131.713
X131.867
X132.035
X132.216
X132.410
X132.617
X132.837
X133.068
X133.312
X133.567
X133.834
X134.111
X134.400
X134.699
X135.009
X135.328
X135.658
X135.997
X136.703
X137.444
X138.218
X139.022
X139.856
X140.716
X141.601
X142.508
X143.435
X144.381
X145.343
X146.319
X147.306
X148.304
X150.320
X152.349
X154.376
X156.383
X157.373
X158.352
X159.318
X160.269
X161.201
X162.114
X163.005
X163.872
X164.713
X165.526
X166.309
X167.059
X167.774
X168.118
X168.453
X168.778
X169.093
X169.398
X169.693
X169.976
X170.249
X170.511
X170.760
X170.999
X171.225
X171.438
X171.639
X171.828
X172.003
X172.165
X172.313
X172.447
X172.567
X172.673
X172.764
X172.840
X172.901
X172.946
X172.975
X172.989
X172.990
X173.000
X173.032Y261.222
X173.156Y261.221
X173.653Y261.211
X174.147Y261.187
X174.638Y261.150
X175.125Y261.101
X175.608Y261.040
X176.088Y260.966
X176.563Y260.880
X177.034Y260.782
X177.501Y260.673
X177.964Y260.552
X178.422Y260.419
X178.875Y260.275
X179.323Y260.120
X179.766Y259.954
X180.203Y259.777
X180.636Y259.590
X181.062Y259.392
X181.483Y259.184
X181.897Y258.966
X182.306Y258.737
X182.708Y258.499
X183.104Y258.251
X183.493Y257.994
X183.876Y257.727
X184.251Y257.452
X184.619Y257.167
X184.981Y256.873
X185.334Y256.570
X185.680Y256.260
X186.018Y255.940
X186.349Y255.613
X186.671Y255.277
X186.985Y254.934
X187.290Y254.582
X187.587Y254.224
X187.875Y253.857
X188.155Y253.484
X188.425Y253.103
X188.686Y252.716
X188.937Y252.322
X189.179Y251.921
X189.411Y251.514
X189.634Y251.100
X189.846Y250.681
X190.048Y250.255
X190.240Y249.824
X190.421Y249.387
X190.591Y248.945
X190.750Y248.497
X190.899Y248.044
X191.036Y247.586
X191.162Y247.124
X191.276Y246.656
X191.378Y246.184
X191.469Y245.708
X191.548Y245.228
X191.614Y244.744
X191.668Y244.256
X191.710Y243.764
X191.739Y243.268
X191.755Y242.770
X191.758Y242.519
X191.758Y242.456
X191.758Y242.425
X191.758Y242.409
X191.770Y242.402
X191.896Y242.365
X192.398Y242.213
X192.897Y242.050
X193.390Y241.877
X193.879Y241.694
X194.362Y241.501
X194.841Y241.298
X195.315Y241.086
X195.783Y240.864
X196.246Y240.633
X196.704Y240.393
X197.155Y240.143
X197.602Y239.884
X198.042Y239.617
X198.476Y239.340
X198.904Y239.055
X199.326Y238.761
X199.742Y238.459
X200.151Y238.149
X200.553Y237.830
X200.949Y237.504
X201.338Y237.169
X201.720Y236.827
X202.095Y236.477
X202.462Y236.119
X202.823Y235.754
X203.175Y235.381
X203.521Y235.002
X203.858Y234.615
X204.188Y234.221
X204.510Y233.821
X204.824Y233.413
X205.129Y233.000
X205.427Y232.579
X205.715Y232.153
X205.996Y231.720
X206.267Y231.281
X206.530Y230.836
X206.784Y230.385
X207.029Y229.929
X207.265Y229.467
X207.491Y228.999
X207.708Y228.526
X207.916Y228.048
X208.114Y227.565
X208.302Y227.076
X208.480Y226.583
X208.648Y226.085
X208.806Y225.583
X208.954Y225.076
X209.092Y224.564
X209.219Y224.049
X209.335Y223.529
X209.441Y223.005
X209.535Y222.477
X209.619Y221.946
X209.692Y221.411
X209.753Y220.872
X209.803Y220.330
X209.842Y219.785
X209.869Y219.236
X209.884Y218.685
X209.887Y218.131
X209.879Y217.577
X209.859Y217.027
X209.827Y216.480
X209.783Y215.936
X209.729Y215.396
X209.662Y214.858
X209.585Y214.325
X209.497Y213.795
X209.397Y213.269
X209.287Y212.747
X209.166Y212.229
X209.035Y211.715
X208.893Y211.205
X208.741Y210.700
X208.578Y210.199
X208.406Y209.704
X208.223Y209.212
X208.031Y208.726
X207.829Y208.245
X207.617Y207.769
X207.396Y207.298
X207.166Y206.833
X206.926Y206.373
X206.678Y205.919
X206.420Y205.471
X206.153Y205.029
X205.878Y204.592
X205.594Y204.162
X205.302Y203.738
X205.001Y203.321
X204.692Y202.910
X204.374Y202.505
X204.049Y202.107
X203.716Y201.717
X203.375Y201.333
X203.027Y200.956
X202.671Y200.587
X202.307Y200.225
X201.936Y199.871
X201.559Y199.524
X201.174Y199.185
X200.782Y198.853
X200.383Y198.530
X199.978Y198.215
X199.566Y197.908
X199.148Y197.610
X198.723Y197.319
X198.293Y197.038
X197.856Y196.765
X197.413Y196.501
X196.964Y196.247
X196.510Y196.001
X196.050Y195.764
X195.585Y195.537
X195.114Y195.319
X194.639Y195.111
X194.158Y194.912
X193.672Y194.724
X193.181Y194.545
X192.686Y194.376
X192.186Y194.218
X191.934Y194.143
X191.808Y194.106
X191.776Y194.097
X191.760Y194.092
X191.758Y194.078
X191.758Y194.016
X191.749Y193.517
X191.728Y193.022
X191.694Y192.530
X191.647Y192.041
X191.587Y191.556
X191.516Y191.075
X191.432Y190.598
X191.336Y190.125
X191.229Y189.657
X191.110Y189.193
X190.979Y188.733
X190.837Y188.279
X190.684Y187.829
X190.520Y187.385
X190.345Y186.945
X190.160Y186.512
X189.964Y186.084
X189.757Y185.661
X189.541Y185.245
X189.314Y184.835
X189.078Y184.431
X188.832Y184.033
X188.576Y183.643
X188.311Y183.259
X188.037Y182.882
X187.754Y182.511
X187.462Y182.149
X187.162Y181.793
X186.853Y181.446
X186.535Y181.106
X186.210Y180.774
X185.876Y180.450
X185.534Y180.134
X185.185Y179.827
X184.828Y179.528
X184.464Y179.238
X184.093Y178.957
X183.714Y178.685
X183.329Y178.422
X182.937Y178.169
X182.538Y177.925
X182.133Y177.691
X181.722Y177.467
X181.305Y177.253
X180.882Y177.049
X180.453Y176.855
X180.018Y176.672
X179.579Y176.500
X179.133Y176.339
X178.683Y176.188
X178.228Y176.049
X177.768Y175.921
X177.304Y175.805
X176.835Y175.700
X176.362Y175.607
X175.885Y175.526
X175.403Y175.458
X174.919Y175.401
X174.430Y175.357
X173.938Y175.326
X173.443Y175.308
X173.194Y175.304
X173.069Y175.303
X173.007Y175.302
X172.991
X172.990
X172.989
X172.971
X172.927
X172.857
X172.761
X172.641
X172.496
X172.327
X172.134
X171.918
X171.680
X171.419
X171.136
X170.831
X170.506
X170.160
X169.793
X169.407
X169.002
X168.577
X168.135
X167.674
X167.195
X166.700
X166.187
X165.658
X165.114
X164.554
X163.979
X163.389
X162.785
X162.167
X161.536
X160.893
X160.236
X159.568
X158.888
X158.197
X157.496
X156.784
X156.062
X154.590
X153.084
X151.548
X149.984
X148.396
X146.788
X145.162
X143.523
X141.874
X135.245
X133.597
X131.960
X130.336
X128.730
X127.145
X125.584
X124.051
X122.549
X121.082
X120.363
X119.653
X118.954
X118.266
X117.589
X116.923
X116.270
X115.629
X115.001
X114.387
X113.787
X113.200
X112.629
X112.073
X111.532
X111.007
X110.499
X110.007
X109.533
X109.076
X108.638
X108.218
X107.817
X107.436
X107.074
X106.733
X106.413
X106.114
X105.836
X105.580
X105.347
X105.137
X104.950
X104.786
X104.647
X104.533
X104.444
X104.380
X104.342
X104.330Y175.302
Y175.288
Y175.251
Y175.192
Y175.110
Y175.006
Y174.880
Y174.733
Y174.564
Y174.373
Y174.161
Y173.928
Y173.675
Y173.400
Y173.106
Y172.791
Y172.455
Y172.100
Y171.725
Y171.331
Y170.917
Y170.484
Y170.032
Y169.561
Y169.072
Y168.564
Y168.037
Y167.493
Y166.931
Y166.351
Y165.754
Y165.139
Y164.507
Y163.858
Y163.192
Y162.510
Y161.811
Y161.096
Y160.365
Y159.619
Y158.856
Y158.078
Y157.285
Y156.476
Y155.653
Y154.814
Y153.962
Y153.094
Y152.213
Y151.318
Y150.408
Y149.486
Y148.549
Y147.599
Y146.637
Y145.661
Y144.673
Y143.672
Y142.658
Y141.633
Y140.595
Y139.546
Y138.485
Y137.413
Y136.329
Y135.235
Y134.129
Y133.013
Y131.886
Y130.749
Y129.602
Y128.444
Y127.277
Y126.101
Y124.915
Y122.515
Y120.080
Y117.611
Y115.110
Y112.578
Y110.016
Y107.426
Y104.809
Y102.168
Y99.503
Y96.815
Y94.107
Y91.380
Y88.635
Y85.874
Y83.098
Y80.309
Y77.508
Y74.697
Y69.049
Y63.377
Y57.694
Y52.011
Y46.340
Y40.692
Y37.881
Y35.080
Y32.290
Y29.514
Y26.753
Y24.008
Y21.281
Y18.573
Y15.886
Y13.221
Y10.579
Y7.962
Y5.373
Y2.811
Y0.278
Y-2.223
Y-4.692
Y-7.127
Y-9.526
Y-10.712
Y-11.889
Y-13.056
Y-14.213
Y-15.360
Y-16.498
Y-17.624
Y-18.741
Y-19.846
Y-20.941
Y-22.024
Y-23.097
Y-24.158
Y-25.207
Y-26.245
Y-27.270
Y-28.283
Y-29.284
Y-30.273
Y-31.248
Y-32.211
Y-33.161
Y-34.097
Y-35.020
Y-35.929
Y-36.825
Y-37.706
Y-38.573
Y-39.426
Y-40.264
Y-41.088
Y-41.896
Y-42.689
Y-43.468
Y-44.230
Y-44.977
Y-45.708
Y-46.423
Y-47.122
Y-47.804
Y-48.470
Y-49.119
Y-49.750
Y-50.365
Y-50.963
Y-51.543
Y-52.105
Y-52.649
Y-53.175
Y-53.683
Y-54.173
Y-54.643
Y-55.096
Y-55.529
Y-55.942
Y-56.337
Y-56.712
Y-57.067
Y-57.402
Y-57.717
Y-58.012
Y-58.286
Y-58.540
Y-58.773
Y-58.985
Y-59.175
Y-59.344
Y-59.492
Y-59.618
Y-59.722
Y-59.803
Y-59.863
Y-59.900
Y-59.914
Y-59.915
X104.330Y-59.933
X104.330Y-59.971
X104.329Y-60.045
X104.328Y-60.195
X104.322Y-60.493
X104.299Y-61.085
X104.261Y-61.674
X104.208Y-62.259
X104.139Y-62.840
X104.056Y-63.416
X103.958Y-63.987
X103.845Y-64.554
X103.719Y-65.116
X103.578Y-65.672
X103.424Y-66.222
X103.256Y-66.767
X103.074Y-67.307
X102.880Y-67.840
X102.672Y-68.366
X102.452Y-68.887
X102.219Y-69.401
X101.973Y-69.907
X101.715Y-70.407
X101.446Y-70.900
X101.164Y-71.385
X100.871Y-71.862
X100.566Y-72.332
X100.250Y-72.793
X99.923Y-73.246
X99.586Y-73.691
X99.237Y-74.127
X98.878Y-74.555
X98.509Y-74.973
X98.130Y-75.382
X97.741Y-75.782
X97.342Y-76.172
X96.934Y-76.552
X96.517Y-76.922
X96.090Y-77.282
X95.655Y-77.632
X95.211Y-77.970
X94.759Y-78.299
X94.298Y-78.616
X93.829Y-78.921
X93.353Y-79.216
X92.869Y-79.499
X92.377Y-79.770
X91.878Y-80.029
X91.372Y-80.276
X90.859Y-80.510
X90.339Y-80.732
X89.813Y-80.941
X89.280Y-81.137
X88.742Y-81.320
X88.197Y-81.490
X87.647Y-81.646
X87.092Y-81.788
X86.531Y-81.916
X85.965Y-82.030
X85.394Y-82.130
X84.818Y-82.215
X84.238Y-82.285
X83.654Y-82.340
X83.065Y-82.381
X82.473Y-82.405
X81.876Y-82.415
X81.839Y-82.415
X81.822Y-82.415
X81.821
X81.809
X81.786
X81.752
X81.656
X81.527
X81.372
X81.197
X81.009
X80.619
X80.430
X80.254
X80.098
X79.967
X79.869
X79.834
X79.810
X79.796
X79.794Y-82.418
Y-82.432
Y-82.455
Y-82.529
Y-82.638
Y-82.778
Y-82.948
Y-83.145
Y-83.366
Y-83.608
Y-83.869
Y-84.146
Y-84.436
Y-84.738
Y-85.362
Y-85.998
Y-86.625
Y-86.927
Y-87.220
Y-87.500
Y-87.764
Y-88.010
Y-88.234
Y-88.436
Y-88.611
Y-88.757
Y-88.871
Y-88.952
Y-88.978
Y-88.996
Y-89.003
X79.789Y-89.003
X79.762
X79.551
X79.128
X77.437
X74.055
X47.003
X33.477
X30.095
X28.404
X27.558
X27.347
X27.334
X27.328
Y-89.000
Y-88.988
Y-88.966
Y-88.894
Y-88.788
Y-88.649
Y-88.481
Y-88.285
Y-88.066
Y-87.825
Y-87.565
Y-87.289
Y-86.999
Y-86.699
Y-86.075
Y-85.439
Y-84.812
Y-84.508
Y-84.215
Y-83.935
Y-83.670
Y-83.423
Y-83.196
Y-82.994
Y-82.817
Y-82.669
Y-82.552
Y-82.470
Y-82.442
Y-82.424
X27.327Y-82.415
X27.317
X27.295
X27.262
X27.168
X27.041
X26.888
X26.714
X26.526
X26.136
X25.947
X25.770
X25.612
X25.480
X25.379
X25.343
X25.317
X25.303
X25.300
X25.293
X25.274Y-82.415
X25.236Y-82.415
X24.938Y-82.412
X24.344Y-82.395
X23.753Y-82.362
X23.167Y-82.314
X22.584Y-82.251
X22.007Y-82.173
X21.433Y-82.080
X20.865Y-81.973
X20.302Y-81.852
X19.743Y-81.716
X19.191Y-81.567
X18.643Y-81.404
X18.102Y-81.228
X17.567Y-81.038
X17.037Y-80.835
X16.514Y-80.619
X15.998Y-80.391
X15.489Y-80.150
X14.986Y-79.897
X14.491Y-79.632
X14.003Y-79.355
X13.523Y-79.066
X13.050Y-78.765
X12.585Y-78.454
X12.129Y-78.131
X11.681Y-77.797
X11.241Y-77.453
X10.811Y-77.098
X10.389Y-76.733
X9.976Y-76.357
X9.573Y-75.972
X9.179Y-75.577
X8.795Y-75.173
X8.421Y-74.759
X8.057Y-74.336
X7.704Y-73.904
X7.361Y-73.463
X7.029Y-73.014
X6.708Y-72.556
X6.397Y-72.091
X6.099Y-71.617
X5.811Y-71.136
X5.536Y-70.647
X5.272Y-70.151
X5.021Y-69.647
X4.782Y-69.137
X4.555Y-68.620
X4.341Y-68.096
X4.140Y-67.566
X3.952Y-67.030
X3.778Y-66.487
X3.617Y-65.939
X3.470Y-65.386
X3.336Y-64.827
X3.217Y-64.263
X3.112Y-63.694
X3.022Y-63.120
X2.946Y-62.541
X2.885Y-61.959
X2.839Y-61.371
X2.809Y-60.780
X2.794Y-60.186
X2.792Y-60.036
X2.792Y-59.962
X2.792Y-59.924
X2.792Y-59.914
Y-59.898
Y-59.860
Y-59.799
Y-59.716
Y-59.611
Y-59.484
Y-59.335
Y-59.164
Y-58.972
Y-58.759
Y-58.525
Y-58.270
Y-57.995
Y-57.699
Y-57.382
Y-57.046
Y-56.690
Y-56.313
Y-55.918
Y-55.503
Y-55.069
Y-54.615
Y-54.144
Y-53.653
Y-53.144
Y-52.617
Y-52.071
Y-51.508
Y-50.927
Y-50.328
Y-49.713
Y-49.080
Y-48.430
Y-47.763
Y-47.080
Y-46.380
Y-45.664
Y-44.932
Y-44.184
Y-43.421
Y-42.642
Y-41.848
Y-41.038
Y-40.214
Y-39.375
Y-38.521
Y-37.653
Y-36.771
Y-35.875
Y-34.964
Y-34.041
Y-33.104
Y-32.153
Y-31.190
Y-30.213
Y-29.224
Y-28.222
Y-27.208
Y-26.182
Y-25.144
Y-24.094
Y-23.032
Y-21.959
Y-20.875
Y-19.780
Y-18.673
Y-17.556
Y-16.429
Y-15.291
Y-14.143
Y-12.986
Y-11.818
Y-10.641
Y-9.454
Y-7.054
Y-4.618
Y-2.148
Y0.355
G1Z-2.500F304.8
G1Y2.888F1016.0
Y5.451
Y8.041
Y10.659
Y13.301
Y15.967
Y18.655
Y21.363
Y24.091
Y26.837
Y29.598
Y32.375
Y35.164
Y37.966
Y43.598
Y49.259
Y54.938
Y66.301
Y71.962
Y77.593
Y80.394
Y83.182
Y85.958
Y88.719
Y91.463
Y94.190
Y96.897
Y99.584
Y102.248
Y104.889
Y107.505
Y110.094
Y112.655
Y115.186
Y117.687
Y120.155
Y122.588
Y124.987
Y126.172
Y127.348
Y128.515
Y129.671
Y130.818
Y131.955
Y133.081
Y134.196
Y135.301
Y136.395
Y137.478
Y138.550
Y139.610
Y140.659
Y141.695
Y142.720
Y143.733
Y144.733
Y145.721
Y146.695
Y147.657
Y148.606
Y149.542
Y150.464
Y151.372
Y152.267
Y153.147
Y154.014
Y154.866
Y155.703
Y156.525
Y157.333
Y158.125
Y158.903
Y159.664
Y160.410
Y161.140
Y161.854
Y162.552
Y163.233
Y163.898
Y164.546
Y165.177
Y165.790
Y166.387
Y166.966
Y167.527
Y168.070
Y168.595
Y169.102
Y169.590
Y170.060
Y170.511
Y170.943
Y171.355
Y171.748
Y172.122
Y172.476
Y172.810
Y173.124
Y173.418
Y173.691
Y173.943
Y174.175
Y174.385
Y174.575
Y174.742
Y174.889
Y175.013
Y175.116
Y175.196
Y175.254
Y175.290
Y175.302
X2.774Y175.302
X2.740
X2.671
X2.532
X2.256
X-15.446
X-50.849
X-59.699
X-64.125
X-65.231
X-65.784
X-65.853
X-65.877
X-65.892Y175.302
X-65.955Y175.303
X-66.080Y175.304
X-66.576Y175.316
X-67.070Y175.341
X-67.560Y175.378
X-68.047Y175.429
X-68.530Y175.491
X-69.009Y175.566
X-69.484Y175.653
X-69.955Y175.752
X-70.422Y175.863
X-70.884Y175.985
X-71.342Y176.119
X-71.795Y176.264
X-72.242Y176.420
X-72.685Y176.587
X-73.122Y176.765
X-73.554Y176.954
X-73.980Y177.153
X-74.400Y177.362
X-74.814Y177.581
X-75.223Y177.811
X-75.625Y178.050
X-76.020Y178.298
X-76.409Y178.557
X-76.791Y178.824
X-77.166Y179.101
X-77.533Y179.387
X-77.894Y179.681
X-78.247Y179.984
X-78.593Y180.296
X-78.930Y180.616
X-79.260Y180.944
X-79.582Y181.280
X-79.895Y181.624
X-80.200Y181.976
X-80.496Y182.335
X-80.784Y182.701
X-81.062Y183.075
X-81.332Y183.456
X-81.592Y183.843
X-81.843Y184.237
X-82.084Y184.638
X-82.316Y185.045
X-82.537Y185.459
X-82.748Y185.878
X-82.950Y186.303
X-83.140Y186.734
X-83.321Y187.171
X-83.490Y187.613
X-83.649Y188.060
X-83.796Y188.512
X-83.932Y188.969
X-84.057Y189.431
X-84.170Y189.898
X-84.272Y190.368
X-84.362Y190.843
X-84.439Y191.323
X-84.505Y191.806
X-84.558Y192.292
X-84.598Y192.783
X-84.626Y193.277
X-84.640Y193.774
X-84.643Y194.023
X-84.643Y194.086
X-84.653Y194.095
X-84.669Y194.099
X-84.701Y194.108
X-84.827Y194.145
X-85.329Y194.298
X-85.826Y194.462
X-86.319Y194.636
X-86.807Y194.820
X-87.290Y195.013
X-87.768Y195.217
X-88.240Y195.430
X-88.708Y195.653
X-89.170Y195.885
X-89.627Y196.126
X-90.078Y196.377
X-90.523Y196.636
X-90.963Y196.905
X-91.396Y197.182
X-91.824Y197.468
X-92.245Y197.762
X-92.660Y198.065
X-93.068Y198.376
X-93.470Y198.696
X-93.865Y199.023
X-94.253Y199.358
X-94.634Y199.701
X-95.008Y200.052
X-95.375Y200.411
X-95.735Y200.776
X-96.087Y201.149
X-96.431Y201.530
X-96.768Y201.917
X-97.097Y202.311
X-97.418Y202.713
X-97.731Y203.120
X-98.036Y203.535
X-98.332Y203.956
X-98.620Y204.383
X-98.900Y204.816
X-99.170Y205.256
X-99.432Y205.701
X-99.685Y206.153
X-99.929Y206.610
X-100.164Y207.072
X-100.390Y207.540
X-100.606Y208.014
X-100.813Y208.492
X-101.010Y208.976
X-101.197Y209.465
X-101.374Y209.958
X-101.541Y210.457
X-101.699Y210.960
X-101.845Y211.467
X-101.982Y211.979
X-102.108Y212.495
X-102.223Y213.015
X-102.328Y213.539
X-102.422Y214.067
X-102.504Y214.599
X-102.576Y215.135
X-102.636Y215.674
X-102.685Y216.216
X-102.723Y216.762
X-102.749Y217.310
X-102.763Y217.862
X-102.765Y218.416
X-102.756Y218.969
X-102.734Y219.519
X-102.701Y220.066
X-102.657Y220.610
X-102.601Y221.150
X-102.534Y221.687
X-102.455Y222.220
X-102.366Y222.750
X-102.266Y223.275
X-102.155Y223.797
X-102.033Y224.315
X-101.900Y224.828
X-101.758Y225.337
X-101.605Y225.842
X-101.441Y226.342
X-101.268Y226.838
X-101.085Y227.329
X-100.891Y227.814
X-100.689Y228.295
X-100.476Y228.770
X-100.254Y229.241
X-100.023Y229.705
X-99.783Y230.165
X-99.533Y230.618
X-99.275Y231.066
X-99.007Y231.508
X-98.731Y231.944
X-98.447Y232.373
X-98.153Y232.797
X-97.852Y233.214
X-97.542Y233.624
X-97.224Y234.028
X-96.898Y234.425
X-96.565Y234.815
X-96.223Y235.198
X-95.874Y235.574
X-95.518Y235.943
X-95.154Y236.304
X-94.782Y236.658
X-94.404Y237.004
X-94.018Y237.342
X-93.626Y237.673
X-93.227Y237.995
X-92.821Y238.310
X-92.409Y238.616
X-91.991Y238.914
X-91.566Y239.203
X-91.134Y239.484
X-90.697Y239.756
X-90.254Y240.019
X-89.805Y240.273
X-89.351Y240.518
X-88.891Y240.753
X-88.425Y240.980
X-87.954Y241.197
X-87.478Y241.404
X-86.997Y241.602
X-86.511Y241.789
X-86.021Y241.967
X-85.525Y242.135
X-85.025Y242.292
X-84.773Y242.367
X-84.647Y242.404
X-84.643Y242.527
X-84.633Y243.027
X-84.610Y243.524
X-84.575Y244.018
X-84.527Y244.507
X-84.466Y244.994
X-84.394Y245.476
X-84.309Y245.954
X-84.212Y246.428
X-84.103Y246.898
X-83.983Y247.362
X-83.851Y247.823
X-83.708Y248.278
X-83.554Y248.728
X-83.389Y249.173
X-83.213Y249.613
X-83.026Y250.047
X-82.829Y250.475
X-82.622Y250.898
X-82.404Y251.314
X-82.176Y251.724
X-81.939Y252.128
X-81.692Y252.526
X-81.435Y252.916
X-81.170Y253.300
X-80.895Y253.677
X-80.611Y254.047
X-80.318Y254.409
X-80.016Y254.764
X-79.706Y255.111
X-79.388Y255.451
X-79.061Y255.782
X-78.727Y256.106
X-78.384Y256.421
X-78.034Y256.727
X-77.676Y257.025
X-77.311Y257.315
X-76.939Y257.595
X-76.560Y257.866
X-76.174Y258.128
X-75.781Y258.380
X-75.382Y258.623
X-74.976Y258.856
X-74.564Y259.079
X-74.146Y259.293
X-73.722Y259.495
X-73.293Y259.688
X-72.858Y259.870
X-72.417Y260.041
X-71.972Y260.201
X-71.521Y260.351
X-71.065Y260.489
X-70.605Y260.615
X-70.140Y260.731
X-69.670Y260.834
X-69.197Y260.926
X-68.719Y261.005
X-68.238Y261.073
X-67.752Y261.128
X-67.263Y261.171
X-66.771Y261.201
X-66.276Y261.218
X-66.027Y261.221
X-65.902Y261.222
X-65.871Y261.222
X-65.868
X-65.867
X-65.853
X-65.823
X-65.778
X-65.717
X-65.641
X-65.550
X-65.445
X-65.325
X-65.192
X-65.044
X-64.883
X-64.709
X-64.521
X-64.321
X-64.109
X-63.884
X-63.647
X-63.399
X-63.139
X-62.868
X-62.586
X-62.294
X-61.991
X-61.678
X-61.355
X-61.022
X-60.329
X-59.601
X-58.839
X-58.047
X-57.225
X-56.377
X-55.504
X-54.608
X-53.691
X-52.756
X-51.805
X-50.839
X-49.861
X-47.876
X-45.868
X-43.852
X-41.846
X-39.867
X-38.892
X-37.930
X-36.984
X-36.054
X-35.143
X-34.254
X-33.388
X-32.548
X-31.735
X-30.951
X-30.200
X-29.482
X-28.800
X-28.473
X-28.156
X-27.849
X-27.553
X-27.267
X-26.991
X-26.727
X-26.474
X-26.233
X-26.003
X-25.786
X-25.581
X-25.388
X-25.209
X-25.043
X-24.890
X-24.751
X-24.625
X-24.514
X-24.418
X-24.336
X-24.269
X-24.218
X-24.182
X-24.162
X-24.158
X-24.157
X-24.136Y261.268
X-23.791Y262.010
X-23.436Y262.740
X-23.072Y263.458
X-22.698Y264.164
X-22.316Y264.857
X-21.925Y265.539
X-21.525Y266.208
X-21.116Y266.865
X-20.699Y267.510
X-20.274Y268.144
X-19.841Y268.765
X-19.400Y269.375
X-18.950Y269.973
X-18.494Y270.559
X-18.029Y271.134
X-17.557Y271.697
X-17.078Y272.248
X-16.592Y272.788
X-16.098Y273.317
X-15.598Y273.834
X-15.091Y274.340
X-14.578Y274.835
X-14.058Y275.319
X-13.532Y275.791
X-13.000Y276.253
X-12.461Y276.703
X-11.917Y277.142
X-11.367Y277.571
X-10.812Y277.989
X-10.251Y278.396
X-9.685Y278.792
X-9.113Y279.178
X-8.537Y279.552
X-7.956Y279.917
X-7.370Y280.271
X-6.780Y280.614
X-6.185Y280.947
X-5.586Y281.270
X-4.982Y281.583
X-4.375Y281.885
X-3.764Y282.177
X-3.149Y282.459
X-2.530Y282.731
X-1.908Y282.993
X-1.283Y283.245
X-0.655Y283.487
X-0.024Y283.720
X0.611Y283.942
X1.248Y284.155
X1.887Y284.359
X2.529Y284.552
X3.173Y284.737
X3.820Y284.911
X4.468Y285.076
X5.118Y285.232
X5.770Y285.379
X6.424Y285.516
X7.079Y285.645
X8.392Y285.873
X9.710Y286.066
Y286.077
Y286.108
Y286.158
Y286.229
Y286.319
Y286.429
Y286.557
Y286.703
Y286.868
Y287.051
Y287.251
Y287.468
Y287.701
Y287.952
Y288.218
Y288.500
Y288.798
Y289.111
Y289.438
Y289.780
Y290.136
Y290.506
Y290.889
Y291.285
Y291.694
Y292.116
Y292.549
Y292.995
Y293.451
Y293.919
Y294.398
Y294.887
Y295.386
Y295.894
Y296.940
Y298.020
Y299.133
Y300.275
Y301.444
Y302.638
Y303.852
Y305.086
Y306.336
Y307.599
Y308.874
Y311.444
Y314.025
Y316.596
Y317.870
Y319.134
Y320.385
Y321.620
Y322.836
Y324.031
Y325.201
Y326.345
Y327.460
Y328.542
Y329.590
Y330.100
Y330.600
Y331.090
Y331.570
Y332.039
Y332.497
Y332.944
Y333.379
Y333.802
Y334.213
Y334.610
Y334.995
Y335.367
Y335.724
Y336.068
Y336.397
Y336.712
Y337.011
Y337.295
Y337.564
Y337.816
Y338.052
Y338.271
Y338.473
Y338.657
Y338.824
Y338.973
Y339.103
Y339.215
Y339.308
Y339.381
Y339.434
Y339.467
Y339.480
Y339.481
X9.710Y339.507
X9.710Y339.559
X9.711Y339.663
X9.715Y339.870
X9.730Y340.281
X9.757Y340.691
X9.794Y341.097
X9.841Y341.500
X9.899Y341.900
X9.966Y342.297
X10.044Y342.691
X10.132Y343.081
X10.229Y343.467
X10.336Y343.850
X10.452Y344.229
X10.578Y344.603
X10.713Y344.974
X10.857Y345.340
X11.010Y345.702
X11.172Y346.059
X11.342Y346.411
X11.521Y346.758
X11.708Y347.100
X11.903Y347.438
X12.107Y347.769
X12.318Y348.096
X12.537Y348.417
X12.764Y348.732
X12.999Y349.041
X13.240Y349.344
X13.489Y349.641
X13.746Y349.932
X14.009Y350.217
X14.279Y350.494
X14.556Y350.766
X14.839Y351.030
X15.129Y351.287
X15.425Y351.538
X15.727Y351.781
X16.035Y352.017
X16.350Y352.245
X16.669Y352.465
X16.995Y352.678
X17.326Y352.883
X17.662Y353.080
X18.004Y353.268
X18.350Y353.449
X18.702Y353.621
X19.058Y353.784
X19.419Y353.938
X19.785Y354.084
X20.155Y354.220
X20.529Y354.348
X20.907Y354.466
X21.289Y354.575
X21.675Y354.674
X22.065Y354.763
X22.458Y354.843
X22.855Y354.912
X23.255Y354.972
X23.658Y355.021
X24.064Y355.060
X24.473Y355.088
X24.884Y355.105
X25.299Y355.112
X25.349Y355.112
X25.351
X25.356
X25.380
X25.418
X25.470
X25.534
X25.610
X25.697
X25.792
X26.008
X26.248
X26.504
X27.027
X27.277
X27.507
X27.710
X27.798
X27.875
X27.942
X27.996
X28.036
X28.061
X28.071
X28.072Y355.115
X28.074Y355.148
X28.085Y355.280
X28.110Y355.544
X28.171Y356.068
X28.249Y356.589
X28.341Y357.105
X28.449Y357.617
X28.572Y358.125
X28.710Y358.628
X28.862Y359.127
X29.029Y359.621
X29.210Y360.110
X29.405Y360.594
X29.614Y361.072
X29.836Y361.545
X30.072Y362.013
X30.322Y362.474
X30.584Y362.930
X30.859Y363.380
X31.147Y363.823
X31.447Y364.260
X31.760Y364.691
X32.085Y365.114
X32.422Y365.531
X32.770Y365.941
X33.130Y366.343
X33.501Y366.739
X33.884Y367.126
X34.277Y367.506
X34.681Y367.878
X35.095Y368.242
X35.520Y368.598
X35.955Y368.946
X36.400Y369.285
X36.855Y369.615
X37.319Y369.937
X37.793Y370.249
X38.275Y370.553
X38.767Y370.847
X39.267Y371.132
X39.777Y371.407
X40.294Y371.672
X40.820Y371.928
X41.353Y372.173
X41.895Y372.408
X42.444Y372.633
X43.000Y372.847
X43.564Y373.051
X44.134Y373.243
X44.712Y373.424
X45.296Y373.595
X45.886Y373.754
X46.483Y373.901
X47.086Y374.037
X47.694Y374.160
X48.309Y374.272
X48.928Y374.372
X49.553Y374.459
X50.183Y374.534
X50.818Y374.596
X51.458Y374.645
X52.102Y374.682
X52.750Y374.705
X53.402Y374.715
X54.056Y374.712
X54.707Y374.695
X55.353Y374.665
X55.994Y374.622
X56.631Y374.566
X57.264Y374.497
X57.891Y374.416
X58.513Y374.322
X59.130Y374.216
X59.741Y374.098
X60.347Y373.968
X60.946Y373.827
X61.540Y373.673
X62.127Y373.508
X62.708Y373.332
X63.281Y373.145
X63.848Y372.947
X64.408Y372.738
X64.961Y372.519
X65.506Y372.288
X66.043Y372.048
X66.572Y371.797
X67.094Y371.537
X67.607Y371.266
X68.111Y370.986
X68.607Y370.697
X69.094Y370.398
X69.572Y370.089
X70.041Y369.772
X70.500Y369.446
X70.950Y369.111
X71.389Y368.768
X71.819Y368.416
X72.239Y368.056
X72.648Y367.687
X73.046Y367.311
X73.434Y366.927
X73.810Y366.536
X74.176Y366.137
X74.530Y365.731
X74.872Y365.317
X75.203Y364.897
X75.521Y364.470
X75.828Y364.036
X76.122Y363.596
X76.403Y363.149
X76.672Y362.696
X76.928Y362.237
X77.170Y361.773
X77.399Y361.302
X77.615Y360.826
X77.817Y360.345
X78.005Y359.859
X78.179Y359.367
X78.338Y358.871
X78.483Y358.370
X78.614Y357.864
X78.729Y357.354
X78.829Y356.839
X78.914Y356.321
X78.984Y355.799
X79.037Y355.272
X79.048Y355.140
X79.051Y355.112
X79.052
X79.057
X79.078
X79.115
X79.166
X79.229
X79.304
X79.390
X79.588
X79.816
X80.064
X80.587
X80.844
X81.086
X81.305
X81.492
X81.570
X81.638
X81.693
X81.734
X81.761
X81.773
X81.778
X81.830Y355.112
X82.037Y355.110
X82.450Y355.098
X82.860Y355.075
X83.268Y355.041
X83.672Y354.997
X84.074Y354.942
X84.472Y354.878
X84.867Y354.803
X85.258Y354.718
X85.646Y354.624
X86.030Y354.520
X86.410Y354.406
X86.786Y354.283
X87.158Y354.151
X87.526Y354.010
X87.889Y353.860
X88.248Y353.701
X88.602Y353.533
X88.951Y353.357
X89.295Y353.172
X89.633Y352.979
X89.967Y352.778
X90.295Y352.570
X90.618Y352.353
X90.935Y352.128
X91.246Y351.896
X91.551Y351.657
X91.850Y351.410
X92.143Y351.156
X92.430Y350.895
X92.710Y350.627
X92.983Y350.352
X93.249Y350.071
X93.509Y349.783
X93.762Y349.489
X94.007Y349.189
X94.245Y348.882
X94.476Y348.570
X94.699Y348.252
X94.914Y347.928
X95.121Y347.599
X95.320Y347.265
X95.512Y346.925
X95.694Y346.580
X95.869Y346.230
X96.035Y345.875
X96.192Y345.516
X96.340Y345.152
X96.479Y344.784
X96.610Y344.411
X96.731Y344.034
X96.842Y343.654
X96.944Y343.269
X97.037Y342.881
X97.119Y342.489
X97.192Y342.093
X97.254Y341.695
X97.307Y341.293
X97.349Y340.888
X97.380Y340.480
X97.401Y340.070
X97.411Y339.656
X97.412Y339.553
X97.412Y339.501
X97.412Y339.480
Y339.467
Y339.433
Y339.380
Y339.307
Y339.215
Y339.105
Y338.975
Y338.828
Y338.663
Y338.480
Y338.280
Y338.063
Y337.830
Y337.581
Y337.315
Y337.035
Y336.739
Y336.428
Y336.102
Y335.763
Y335.409
Y335.042
Y334.662
Y334.269
Y333.863
Y333.446
Y333.016
Y332.575
Y332.122
Y331.659
Y331.185
Y330.701
Y330.207
Y329.190
Y328.138
Y327.053
Y325.938
Y324.795
Y323.627
Y322.437
Y321.227
Y319.999
Y318.758
Y317.504
Y314.973
Y309.884
Y308.623
Y307.370
Y306.130
Y304.904
Y303.696
Y302.507
Y301.341
Y300.201
Y299.088
Y298.006
Y296.957
Y296.446
Y295.944
Y295.452
Y294.969
Y294.497
Y294.036
Y293.586
Y293.146
Y292.719
Y292.303
Y291.900
Y291.509
Y291.131
Y290.767
Y290.416
Y290.079
Y289.756
Y289.448
Y289.155
Y288.876
Y288.614
Y288.367
Y288.137
Y287.923
Y287.727
Y287.547
Y287.385
Y287.241
Y287.115
Y287.008
Y286.919
Y286.850
Y286.800
Y286.771
X97.414Y286.761
X97.483Y286.749
X97.622Y286.726
X97.900Y286.678
X98.457Y286.574
X99.016Y286.462
X99.575Y286.340
X100.136Y286.209
X100.699Y286.068
X101.262Y285.917
X101.827Y285.757
X102.393Y285.587
X102.959Y285.406
X103.527Y285.215
X104.095Y285.014
X104.664Y284.803
X105.234Y284.580
X105.805Y284.347
X106.090Y284.226
X106.162Y284.196
X106.166Y284.194
X106.178Y284.189
X106.214Y284.174
X106.285Y284.143
X106.428Y284.081
X106.995Y283.831
X108.112Y283.317
X109.208Y282.785
X110.282Y282.233
X111.334Y281.664
X112.363Y281.077
X113.371Y280.472
X114.357Y279.849
X115.321Y279.210
X116.262Y278.555
X117.182Y277.883
X118.079Y277.195
X118.953Y276.491
X119.806Y275.772
X120.636Y275.038
X121.443Y274.289
X122.228Y273.526
X122.991Y272.749
X123.731Y271.958
X124.448Y271.154
X125.143Y270.336
X125.815Y269.505
X126.464Y268.663
X127.091Y267.807
X127.694Y266.940
X128.275Y266.062
X128.833Y265.172
X129.368Y264.271
X129.879Y263.360
X130.368Y262.438
X130.834Y261.506
X130.946Y261.272
X130.960Y261.243
X130.967Y261.228
X130.970Y261.222
X130.971
X130.975
X130.996
X131.033
X131.085
X131.153
X131.236
X131.333
X131.446
X131.572
X131.713
X131.867
X132.035
X132.216
X132.410
X132.617
X132.837
X133.068
X133.312
X133.567
X133.834
X134.111
X134.400
X134.699
X135.009
X135.328
X135.658
X135.997
X136.703
X137.444
X138.218
X139.022
X139.856
X140.716
X141.601
X142.508
X143.435
X144.381
X145.343
X146.319
X147.306
X148.304
X150.320
X152.349
X154.376
X156.383
X157.373
X158.352
X159.318
X160.269
X161.201
X162.114
X163.005
X163.872
X164.713
X165.526
X166.309
X167.059
X167.774
X168.118
X168.453
X168.778
X169.093
X169.398
X169.693
X169.976
X170.249
X170.511
X170.760
X170.999
X171.225
X171.438
X171.639
X171.828
X172.003
X172.165
X172.313
X172.447
X172.567
X172.673
X172.764
X172.840
X172.901
X172.946
X172.975
X172.989
X172.990
X173.000
X173.032Y261.222
X173.156Y261.221
X173.653Y261.211
X174.147Y261.187
X174.638Y261.150
X175.125Y261.101
X175.608Y261.040
X176.088Y260.966
X176.563Y260.880
X177.034Y260.782
X177.501Y260.673
X177.964Y260.552
X178.422Y260.419
X178.875Y260.275
X179.323Y260.120
X179.766Y259.954
X180.203Y259.777
X180.636Y259.590
X181.062Y259.392
X181.483Y259.184
X181.897Y258.966
X182.306Y258.737
X182.708Y258.499
X183.104Y258.251
X183.493Y257.994
X183.876Y257.727
X184.251Y257.452
X184.619Y257.167
X184.981Y256.873
X185.334Y256.570
X185.680Y256.260
X186.018Y255.940
X186.349Y255.613
X186.671Y255.277
X186.985Y254.934
X187.290Y254.582
X187.587Y254.224
X187.875Y253.857
X188.155Y253.484
X188.425Y253.103
X188.686Y252.716
X188.937Y252.322
X189.179Y251.921
X189.411Y251.514
X189.634Y251.100
X189.846Y250.681
X190.048Y250.255
X190.240Y249.824
X190.421Y249.387
X190.591Y248.945
X190.750Y248.497
X190.899Y248.044
X191.036Y247.586
X191.162Y247.124
X191.276Y246.656
X191.378Y246.184
X191.469Y245.708
X191.548Y245.228
X191.614Y244.744
X191.668Y244.256
X191.710Y243.764
X191.739Y243.268
X191.755Y242.770
X191.758Y242.519
X191.758Y242.456
X191.758Y242.425
X191.758Y242.409
X191.770Y242.402
X191.896Y242.365
X192.398Y242.213
X192.897Y242.050
X193.390Y241.877
X193.879Y241.694
X194.362Y241.501
X194.841Y241.298
X195.315Y241.086
X195.783Y240.864
X196.246Y240.633
X196.704Y240.393
X197.155Y240.143
X197.602Y239.884
X198.042Y239.617
X198.476Y239.340
X198.904Y239.055
X199.326Y238.761
X199.742Y238.459
X200.151Y238.149
X200.553Y237.830
X200.949Y237.504
X201.338Y237.169
X201.720Y236.827
X202.095Y236.477
X202.462Y236.119
X202.823Y235.754
X203.175Y235.381
X203.521Y235.002
X203.858Y234.615
X204.188Y234.221
X204.510Y233.821
X204.824Y233.413
X205.129Y233.000
X205.427Y232.579
X205.715Y232.153
X205.996Y231.720
X206.267Y231.281
X206.530Y230.836
X206.784Y230.385
X207.029Y229.929
X207.265Y229.467
X207.491Y228.999
X207.708Y228.526
X207.916Y228.048
X208.114Y227.565
X208.302Y227.076
X208.480Y226.583
X208.648Y226.085
X208.806Y225.583
X208.954Y225.076
X209.092Y224.564
X209.219Y224.049
X209.335Y223.529
X209.441Y223.005
X209.535Y222.477
X209.619Y221.946
X209.692Y221.411
X209.753Y220.872
X209.803Y220.330
X209.842Y219.785
X209.869Y219.236
X209.884Y218.685
X209.887Y218.131
X209.879Y217.577
X209.859Y217.027
X209.827Y216.480
X209.783Y215.936
X209.729Y215.396
X209.662Y214.858
X209.585Y214.325
X209.497Y213.795
X209.397Y213.269
X209.287Y212.747
X209.166Y212.229
X209.035Y211.715
X208.893Y211.205
X208.741Y210.700
X208.578Y210.199
X208.406Y209.704
X208.223Y209.212
X208.031Y208.726
X207.829Y208.245
X207.617Y207.769
X207.396Y207.298
X207.166Y206.833
X206.926Y206.373
X206.678Y205.919
X206.420Y205.471
X206.153Y205.029
X205.878Y204.592
X205.594Y204.162
X205.302Y203.738
X205.001Y203.321
X204.692Y202.910
X204.374Y202.505
X204.049Y202.107
X203.716Y201.717
X203.375Y201.333
X203.027Y200.956
X202.671Y200.587
X202.307Y200.225
X201.936Y199.871
X201.559Y199.524
X201.174Y199.185
X200.782Y198.853
X200.383Y198.530
X199.978Y198.215
X199.566Y197.908
X199.148Y197.610
X198.723Y197.319
X198.293Y197.038
X197.856Y196.765
X197.413Y196.501
X196.964Y196.247
X196.510Y196.001
X196.050Y195.764
X195.585Y195.537
X195.114Y195.319
X194.639Y195.111
X194.158Y194.912
X193.672Y194.724
X193.181Y194.545
X192.686Y194.376
X192.186Y194.218
X191.934Y194.143
X191.808Y194.106
X191.776Y194.097
X191.760Y194.092
X191.758Y194.078
X191.758Y194.016
X191.749Y193.517
X191.728Y193.022
X191.694Y192.530
X191.647Y192.041
X191.587Y191.556
X191.516Y191.075
X191.432Y190.598
X191.336Y190.125
X191.229Y189.657
X191.110Y189.193
X190.979Y188.733
X190.837Y188.279
X190.684Y187.829
X190.520Y187.385
X190.345Y186.945
X190.160Y186.512
X189.964Y186.084
X189.757Y185.661
X189.541Y185.245
X189.314Y184.835
X189.078Y184.431
X188.832Y184.033
X188.576Y183.643
X188.311Y183.259
X188.037Y182.882
X187.754Y182.511
X187.462Y182.149
X187.162Y181.793
X186.853Y181.446
X186.535Y181.106
X186.210Y180.774
X185.876Y180.450
X185.534Y180.134
X185.185Y179.827
X184.828Y179.528
X184.464Y179.238
X184.093Y178.957
X183.714Y178.685
X183.329Y178.422
X182.937Y178.169
X182.538Y177.925
X182.133Y177.691
X181.722Y177.467
X181.305Y177.253
X180.882Y177.049
X180.453Y176.855
X180.018Y176.672
X179.579Y176.500
X179.133Y176.339
X178.683Y176.188
X178.228Y176.049
X177.768Y175.921
X177.304Y175.805
X176.835Y175.700
X176.362Y175.607
X175.885Y175.526
X175.403Y175.458
X174.919Y175.401
X174.430Y175.357
X173.938Y175.326
X173.443Y175.308
X173.194Y175.304
X173.069Y175.303
X173.007Y175.302
X172.991
X172.990
X172.989
X172.971
X172.927
X172.857
X172.761
X172.641
X172.496
X172.327
X172.134
X171.918
X171.680
X171.419
X171.136
X170.831
X170.506
X170.160
X169.793
X169.407
X169.002
X168.577
X168.135
X167.674
X167.195
X166.700
X166.187
X165.658
X165.114
X164.554
X163.979
X163.389
X162.785
X162.167
X161.536
X160.893
X160.236
X159.568
X158.888
X158.197
X157.496
X156.784
X156.062
X154.590
X153.084
X151.548
X149.984
X148.396
X146.788
X145.162
X143.523
X141.874
X135.245
X133.597
X131.960
X130.336
X128.730
X127.145
X125.584
X124.051
X122.549
X121.082
X120.363
X119.653
X118.954
X118.266
X117.589
X116.923
X116.270
X115.629
X115.001
X114.387
X113.787
X113.200
X112.629
X112.073
X111.532
X111.007
X110.499
X110.007
X109.533
X109.076
X108.638
X108.218
X107.817
X107.436
X107.074
X106.733
X106.413
X106.114
X105.836
X105.580
X105.347
X105.137
X104.950
X104.786
X104.647
X104.533
X104.444
X104.380
X104.342
X104.330Y175.302
Y175.288
Y175.251
Y175.192
Y175.110
Y175.006
Y174.880
Y174.733
Y174.564
Y174.373
Y174.161
Y173.928
Y173.675
Y173.400
Y173.106
Y172.791
Y172.455
Y172.100
Y171.725
Y171.331
Y170.917
Y170.484
Y170.032
Y169.561
Y169.072
Y168.564
Y168.037
Y167.493
Y166.931
Y166.351
Y165.754
Y165.139
Y164.507
Y163.858
Y163.192
Y162.510
Y161.811
Y161.096
Y160.365
Y159.619
Y158.856
Y158.078
Y157.285
Y156.476
Y155.653
Y154.814
Y153.962
Y153.094
Y152.213
Y151.318
Y150.408
Y149.486
Y148.549
Y147.599
Y146.637
Y145.661
Y144.673
Y143.672
Y142.658
Y141.633
Y140.595
Y139.546
Y138.485
Y137.413
Y136.329
Y135.235
Y134.129
Y133.013
Y131.886
Y130.749
Y129.602
Y128.444
Y127.277
Y126.101
Y124.915
Y122.515
Y120.080
Y117.611
Y115.110
Y112.578
Y110.016
Y107.426
Y104.809
Y102.168
Y99.503
Y96.815
Y94.107
Y91.380
Y88.635
Y85.874
Y83.098
Y80.309
Y77.508
Y74.697
Y69.049
Y63.377
Y57.694
Y52.011
Y46.340
Y40.692
Y37.881
Y35.080
Y32.290
Y29.514
Y26.753
Y24.008
Y21.281
Y18.573
Y15.886
Y13.221
Y10.579
Y7.962
Y5.373
Y2.811
Y0.278
Y-2.223
Y-4.692
Y-7.127
Y-9.526
Y-10.712
Y-11.889
Y-13.056
Y-14.213
Y-15.360
Y-16.498
Y-17.624
Y-18.741
Y-19.846
Y-20.941
Y-22.024
Y-23.097
Y-24.158
Y-25.207
Y-26.245
Y-27.270
Y-28.283
Y-29.284
Y-30.273
Y-31.248
Y-32.211
Y-33.161
Y-34.097
Y-35.020
Y-35.929
Y-36.825
Y-37.706
Y-38.573
Y-39.426
Y-40.264
Y-41.088
Y-41.896
Y-42.689
Y-43.468
Y-44.230
Y-44.977
Y-45.708
Y-46.423
Y-47.122
Y-47.804
Y-48.470
Y-49.119
Y-49.750
Y-50.365
Y-50.963
Y-51.543
Y-52.105
Y-52.649
Y-53.175
Y-53.683
Y-54.173
Y-54.643
Y-55.096
Y-55.529
Y-55.942
Y-56.337
Y-56.712
Y-57.067
Y-57.402
Y-57.717
Y-58.012
Y-58.286
Y-58.540
Y-58.773
Y-58.985
Y-59.175
Y-59.344
Y-59.492
Y-59.618
Y-59.722
Y-59.803
Y-59.863
Y-59.900
Y-59.914
Y-59.915
X104.330Y-59.933
X104.330Y-59.971
X104.329Y-60.045
X104.328Y-60.195
X104.322Y-60.493
X104.299Y-61.085
X104.261Y-61.674
X104.208Y-62.259
X104.139Y-62.840
X104.056Y-63.416
X103.958Y-63.987
X103.845Y-64.554
X103.719Y-65.116
X103.578Y-65.672
X103.424Y-66.222
X103.256Y-66.767
X103.074Y-67.307
X102.880Y-67.840
X102.672Y-68.366
X102.452Y-68.887
X102.219Y-69.401
X101.973Y-69.907
X101.715Y-70.407
X101.446Y-70.900
X101.164Y-71.385
X100.871Y-71.862
X100.566Y-72.332
X100.250Y-72.793
X99.923Y-73.246
X99.586Y-73.691
X99.237Y-74.127
X98.878Y-74.555
X98.509Y-74.973
X98.130Y-75.382
X97.741Y-75.782
X97.342Y-76.172
X96.934Y-76.552
X96.517Y-76.922
X96.090Y-77.282
X95.655Y-77.632
X95.211Y-77.970
X94.759Y-78.299
X94.298Y-78.616
X93.829Y-78.921
X93.353Y-79.216
X92.869Y-79.499
X92.377Y-79.770
X91.878Y-80.029
X91.372Y-80.276
X90.859Y-80.510
X90.339Y-80.732
X89.813Y-80.941
X89.280Y-81.137
X88.742Y-81.320
X88.197Y-81.490
X87.647Y-81.646
X87.092Y-81.788
X86.531Y-81.916
X85.965Y-82.030
X85.394Y-82.130
X84.818Y-82.215
X84.238Y-82.285
X83.654Y-82.340
X83.065Y-82.381
X82.473Y-82.405
X81.876Y-82.415
X81.839Y-82.415
X81.822Y-82.415
X81.821
X81.809
X81.786
X81.752
X81.656
X81.527
X81.372
X81.197
X81.009
X80.619
X80.430
X80.254
X80.098
X79.967
X79.869
X79.834
X79.810
X79.796
X79.794Y-82.418
Y-82.432
Y-82.455
Y-82.529
Y-82.638
Y-82.778
Y-82.948
Y-83.145
Y-83.366
Y-83.608
Y-83.869
Y-84.146
Y-84.436
Y-84.738
Y-85.362
Y-85.998
Y-86.625
Y-86.927
Y-87.220
Y-87.500
Y-87.764
Y-88.010
Y-88.234
Y-88.436
Y-88.611
Y-88.757
Y-88.871
Y-88.952
Y-88.978
Y-88.996
Y-89.003
X79.789Y-89.003
X79.762
X79.551
X79.128
X77.437
X74.055
X47.003
X33.477
X30.095
X28.404
X27.558
X27.347
X27.334
X27.328
Y-89.000
Y-88.988
Y-88.966
Y-88.894
Y-88.788
Y-88.649
Y-88.481
Y-88.285
Y-88.066
Y-87.825
Y-87.565
Y-87.289
Y-86.999
Y-86.699
Y-86.075
Y-85.439
Y-84.812
Y-84.508
Y-84.215
Y-83.935
Y-83.670
Y-83.423
Y-83.196
Y-82.994
Y-82.817
Y-82.669
Y-82.552
Y-82.470
Y-82.442
Y-82.424
X27.327Y-82.415
X27.317
X27.295
X27.262
X27.168
X27.041
X26.888
X26.714
X26.526
X26.136
X25.947
X25.770
X25.612
X25.480
X25.379
X25.343
X25.317
X25.303
X25.300
X25.293
X25.274Y-82.415
X25.236Y-82.415
X24.938Y-82.412
X24.344Y-82.395
X23.753Y-82.362
X23.167Y-82.314
X22.584Y-82.251
X22.007Y-82.173
X21.433Y-82.080
X20.865Y-81.973
X20.302Y-81.852
X19.743Y-81.716
X19.191Y-81.567
X18.643Y-81.404
X18.102Y-81.228
X17.567Y-81.038
X17.037Y-80.835
X16.514Y-80.619
X15.998Y-80.391
X15.489Y-80.150
X14.986Y-79.897
X14.491Y-79.632
X14.003Y-79.355
X13.523Y-79.066
X13.050Y-78.765
X12.585Y-78.454
X12.129Y-78.131
X11.681Y-77.797
X11.241Y-77.453
X10.811Y-77.098
X10.389Y-76.733
X9.976Y-76.357
X9.573Y-75.972
X9.179Y-75.577
X8.795Y-75.173
X8.421Y-74.759
X8.057Y-74.336
X7.704Y-73.904
X7.361Y-73.463
X7.029Y-73.014
X6.708Y-72.556
X6.397Y-72.091
X6.099Y-71.617
X5.811Y-71.136
X5.536Y-70.647
X5.272Y-70.151
X5.021Y-69.647
X4.782Y-69.137
X4.555Y-68.620
X4.341Y-68.096
X4.140Y-67.566
X3.952Y-67.030
X3.778Y-66.487
X3.617Y-65.939
X3.470Y-65.386
X3.336Y-64.827
X3.217Y-64.263
X3.112Y-63.694
X3.022Y-63.120
X2.946Y-62.541
X2.885Y-61.959
X2.839Y-61.371
X2.809Y-60.780
X2.794Y-60.186
X2.792Y-60.036
X2.792Y-59.962
X2.792Y-59.924
X2.792Y-59.914
Y-59.898
Y-59.860
Y-59.799
Y-59.716
Y-59.611
Y-59.484
Y-59.335
Y-59.164
Y-58.972
Y-58.759
Y-58.525
Y-58.270
Y-57.995
Y-57.699
Y-57.382
Y-57.046
Y-56.690
Y-56.313
Y-55.918
Y-55.503
Y-55.069
Y-54.615
Y-54.144
Y-53.653
Y-53.144
Y-52.617
Y-52.071
Y-51.508
Y-50.927
Y-50.328
Y-49.713
Y-49.080
Y-48.430
Y-47.763
Y-47.080
Y-46.380
Y-45.664
Y-44.932
Y-44.184
Y-43.421
Y-42.642
Y-41.848
Y-41.038
Y-40.214
Y-39.375
Y-38.521
Y-37.653
Y-36.771
Y-35.875
Y-34.964
Y-34.041
Y-33.104
Y-32.153
Y-31.190
Y-30.213
Y-29.224
Y-28.222
Y-27.208
Y-26.182
Y-25.144
Y-24.094
Y-23.032
Y-21.959
Y-20.875
Y-19.780
Y-18.673
Y-17.556
Y-16.429
Y-15.291
Y-14.143
Y-12.986
Y-11.818
Y-10.641
Y-9.454
Y-7.054
Y-4.618
Y-2.148
Y0.355
G1Z-3.750F304.8
G1Y2.888F1016.0
Y5.451
Y8.041
Y10.659
Y13.301
Y15.967
Y18.655
Y21.363
Y24.091
Y26.837
Y29.598
Y32.375
Y35.164
Y37.966
Y43.598
Y49.259
Y54.938
Y66.301
Y71.962
Y77.593
Y80.394
Y83.182
Y85.958
Y88.719
Y91.463
Y94.190
Y96.897
Y99.584
Y102.248
Y104.889
Y107.505
Y110.094
Y112.655
Y115.186
Y117.687
Y120.155
Y122.588
Y124.987
Y126.172
Y127.348
Y128.515
Y129.671
Y130.818
Y131.955
Y133.081
Y134.196
Y135.301
Y136.395
Y137.478
Y138.550
Y139.610
Y140.659
Y141.695
Y142.720
Y143.733
Y144.733
Y145.721
Y146.695
Y147.657
Y148.606
Y149.542
Y150.464
Y151.372
Y152.267
Y153.147
Y154.014
Y154.866
Y155.703
Y156.525
Y157.333
Y158.125
Y158.903
Y159.664
Y160.410
Y161.140
Y161.854
Y162.552
Y163.233
Y163.898
Y164.546
Y165.177
Y165.790
Y166.387
Y166.966
Y167.527
Y168.070
Y168.595
Y169.102
Y169.590
Y170.060
Y170.511
Y170.943
Y171.355
Y171.748
Y172.122
Y172.476
Y172.810
Y173.124
Y173.418
Y173.691
Y173.943
Y174.175
Y174.385
Y174.575
Y174.742
Y174.889
Y175.013
Y175.116
Y175.196
Y175.254
Y175.290
Y175.302
X2.774Y175.302
X2.740
X2.671
X2.532
X2.256
X-15.446
X-50.849
X-59.699
X-64.125
X-65.231
X-65.784
X-65.853
X-65.877
X-65.892Y175.302
X-65.955Y175.303
X-66.080Y175.304
X-66.576Y175.316
X-67.070Y175.341
X-67.560Y175.378
X-68.047Y175.429
X-68.530Y175.491
X-69.009Y175.566
X-69.484Y175.653
X-69.955Y175.752
X-70.422Y175.863
X-70.884Y175.985
X-71.342Y176.119
X-71.795Y176.264
X-72.242Y176.420
X-72.685Y176.587
X-73.122Y176.765
X-73.554Y176.954
X-73.980Y177.153
X-74.400Y177.362
X-74.814Y177.581
X-75.223Y177.811
X-75.625Y178.050
X-76.020Y178.298
X-76.409Y178.557
X-76.791Y178.824
X-77.166Y179.101
X-77.533Y179.387
X-77.894Y179.681
X-78.247Y179.984
X-78.593Y180.296
X-78.930Y180.616
X-79.260Y180.944
X-79.582Y181.280
X-79.895Y181.624
X-80.200Y181.976
X-80.496Y182.335
X-80.784Y182.701
X-81.062Y183.075
X-81.332Y183.456
X-81.592Y183.843
X-81.843Y184.237
X-82.084Y184.638
X-82.316Y185.045
X-82.537Y185.459
X-82.748Y185.878
X-82.950Y186.303
X-83.140Y186.734
X-83.321Y187.171
X-83.490Y187.613
X-83.649Y188.060
X-83.796Y188.512
X-83.932Y188.969
X-84.057Y189.431
X-84.170Y189.898
X-84.272Y190.368
X-84.362Y190.843
X-84.439Y191.323
X-84.505Y191.806
X-84.558Y192.292
X-84.598Y192.783
X-84.626Y193.277
X-84.640Y193.774
X-84.643Y194.023
X-84.643Y194.086
X-84.653Y194.095
X-84.669Y194.099
X-84.701Y194.108
X-84.827Y194.145
X-85.329Y194.298
X-85.826Y194.462
X-86.319Y194.636
X-86.807Y194.820
X-87.290Y195.013
X-87.768Y195.217
X-88.240Y195.430
X-88.708Y195.653
X-89.170Y195.885
X-89.627Y196.126
X-90.078Y196.377
X-90.523Y196.636
X-90.963Y196.905
X-91.396Y197.182
X-91.824Y197.468
X-92.245Y197.762
X-92.660Y198.065
X-93.068Y198.376
X-93.470Y198.696
X-93.865Y199.023
X-94.253Y199.358
X-94.634Y199.701
X-95.008Y200.052
X-95.375Y200.411
X-95.735Y200.776
X-96.087Y201.149
X-96.431Y201.530
X-96.768Y201.917
X-97.097Y202.311
X-97.418Y202.713
X-97.731Y203.120
X-98.036Y203.535
X-98.332Y203.956
X-98.620Y204.383
X-98.900Y204.816
X-99.170Y205.256
X-99.432Y205.701
X-99.685Y206.153
X-99.929Y206.610
X-100.164Y207.072
X-100.390Y207.540
X-100.606Y208.014
X-100.813Y208.492
X-101.010Y208.976
X-101.197Y209.465
X-101.374Y209.958
X-101.541Y210.457
X-101.699Y210.960
X-101.845Y211.467
X-101.982Y211.979
X-102.108Y212.495
X-102.223Y213.015
X-102.328Y213.539
X-102.422Y214.067
X-102.504Y214.599
X-102.576Y215.135
X-102.636Y215.674
X-102.685Y216.216
X-102.723Y216.762
X-102.749Y217.310
X-102.763Y217.862
X-102.765Y218.416
X-102.756Y218.969
X-102.734Y219.519
X-102.701Y220.066
X-102.657Y220.610
X-102.601Y221.150
X-102.534Y221.687
X-102.455Y222.220
X-102.366Y222.750
X-102.266Y223.275
X-102.155Y223.797
X-102.033Y224.315
X-101.900Y224.828
X-101.758Y225.337
X-101.605Y225.842
X-101.441Y226.342
X-101.268Y226.838
X-101.085Y227.329
X-100.891Y227.814
X-100.689Y228.295
X-100.476Y228.770
X-100.254Y229.241
X-100.023Y229.705
X-99.783Y230.165
X-99.533Y230.618
X-99.275Y231.066
X-99.007Y231.508
X-98.731Y231.944
X-98.447Y232.373
X-98.153Y232.797
X-97.852Y233.214
X-97.542Y233.624
X-97.224Y234.028
X-96.898Y234.425
X-96.565Y234.815
X-96.223Y235.198
X-95.874Y235.574
X-95.518Y235.943
X-95.154Y236.304
X-94.782Y236.658
X-94.404Y237.004
X-94.018Y237.342
X-93.626Y237.673
X-93.227Y237.995
X-92.821Y238.310
X-92.409Y238.616
X-91.991Y238.914
X-91.566Y239.203
X-91.134Y239.484
X-90.697Y239.756
X-90.254Y240.019
X-89.805Y240.273
X-89.351Y240.518
X-88.891Y240.753
X-88.425Y240.980
X-87.954Y241.197
X-87.478Y241.404
X-86.997Y241.602
X-86.511Y241.789
X-86.021Y241.967
X-85.525Y242.135
X-85.025Y242.292
X-84.773Y242.367
X-84.647Y242.404
X-84.643Y242.527
X-84.633Y243.027
X-84.610Y243.524
X-84.575Y244.018
X-84.527Y244.507
X-84.466Y244.994
X-84.394Y245.476
X-84.309Y245.954
X-84.212Y246.428
X-84.103Y246.898
X-83.983Y247.362
X-83.851Y247.823
X-83.708Y248.278
X-83.554Y248.728
X-83.389Y249.173
X-83.213Y249.613
X-83.026Y250.047
X-82.829Y250.475
X-82.622Y250.898
X-82.404Y251.314
X-82.176Y251.724
X-81.939Y252.128
X-81.692Y252.526
X-81.435Y252.916
X-81.170Y253.300
X-80.895Y253.677
X-80.611Y254.047
X-80.318Y254.409
X-80.016Y254.764
X-79.706Y255.111
X-79.388Y255.451
X-79.061Y255.782
X-78.727Y256.106
X-78.384Y256.421
X-78.034Y256.727
X-77.676Y257.025
X-77.311Y257.315
X-76.939Y257.595
X-76.560Y257.866
X-76.174Y258.128
X-75.781Y258.380
X-75.382Y258.623
X-74.976Y258.856
X-74.564Y259.079
X-74.146Y259.293
X-73.722Y259.495
X-73.293Y259.688
X-72.858Y259.870
X-72.417Y260.041
X-71.972Y260.201
X-71.521Y260.351
X-71.065Y260.489
X-70.605Y260.615
X-70.140Y260.731
X-69.670Y260.834
X-69.197Y260.926
X-68.719Y261.005
X-68.238Y261.073
X-67.752Y261.128
X-67.263Y261.171
X-66.771Y261.201
X-66.276Y261.218
X-66.027Y261.221
X-65.902Y261.222
X-65.871Y261.222
X-65.868
X-65.867
X-65.853
X-65.823
X-65.778
X-65.717
X-65.641
X-65.550
X-65.445
X-65.325
X-65.192
X-65.044
X-64.883
X-64.709
X-64.521
X-64.321
X-64.109
X-63.884
X-63.647
X-63.399
X-63.139
X-62.868
X-62.586
X-62.294
X-61.991
X-61.678
X-61.355
X-61.022
X-60.329
X-59.601
X-58.839
X-58.047
X-57.225
X-56.377
X-55.504
X-54.608
X-53.691
X-52.756
X-51.805
X-50.839
X-49.861
X-47.876
X-45.868
X-43.852
X-41.846
X-39.867
X-38.892
X-37.930
X-36.984
X-36.054
X-35.143
X-34.254
X-33.388
X-32.548
X-31.735
X-30.951
X-30.200
X-29.482
X-28.800
X-28.473
X-28.156
X-27.849
X-27.553
X-27.267
X-26.991
X-26.727
X-26.474
X-26.233
X-26.003
X-25.786
X-25.581
X-25.388
X-25.209
X-25.043
X-24.890
X-24.751
X-24.625
X-24.514
X-24.418
X-24.336
X-24.269
X-24.218
X-24.182
X-24.162
X-24.158
X-24.157
X-24.136Y261.268
X-23.791Y262.010
X-23.436Y262.740
X-23.072Y263.458
X-22.698Y264.164
X-22.316Y264.857
X-21.925Y265.539
X-21.525Y266.208
X-21.116Y266.865
X-20.699Y267.510
X-20.274Y268.144
X-19.841Y268.765
X-19.400Y269.375
X-18.950Y269.973
X-18.494Y270.559
X-18.029Y271.134
X-17.557Y271.697
X-17.078Y272.248
X-16.592Y272.788
X-16.098Y273.317
X-15.598Y273.834
X-15.091Y274.340
X-14.578Y274.835
X-14.058Y275.319
X-13.532Y275.791
X-13.000Y276.253
X-12.461Y276.703
X-11.917Y277.142
X-11.367Y277.571
X-10.812Y277.989
X-10.251Y278.396
X-9.685Y278.792
X-9.113Y279.178
X-8.537Y279.552
X-7.956Y279.917
X-7.370Y280.271
X-6.780Y280.614
X-6.185Y280.947
X-5.586Y281.270
X-4.982Y281.583
X-4.375Y281.885
X-3.764Y282.177
X-3.149Y282.459
X-2.530Y282.731
X-1.908Y282.993
X-1.283Y283.245
X-0.655Y283.487
X-0.024Y283.720
X0.611Y283.942
X1.248Y284.155
X1.887Y284.359
X2.529Y284.552
X3.173Y284.737
X3.820Y284.911
X4.468Y285.076
X5.118Y285.232
X5.770Y285.379
X6.424Y285.516
X7.079Y285.645
X8.392Y285.873
X9.710Y286.066
Y286.077
Y286.108
Y286.158
Y286.229
Y286.319
Y286.429
Y286.557
Y286.703
Y286.868
Y287.051
Y287.251
Y287.468
Y287.701
Y287.952
Y288.218
Y288.500
Y288.798
Y289.111
Y289.438
Y289.780
Y290.136
Y290.506
Y290.889
Y291.285
Y291.694
Y292.116
Y292.549
Y292.995
Y293.451
Y293.919
Y294.398
Y294.887
Y295.386
Y295.894
Y296.940
Y298.020
Y299.133
Y300.275
Y301.444
Y302.638
Y303.852
Y305.086
Y306.336
Y307.599
Y308.874
Y311.444
Y314.025
Y316.596
Y317.870
Y319.134
Y320.385
Y321.620
Y322.836
Y324.031
Y325.201
Y326.345
Y327.460
Y328.542
Y329.590
Y330.100
Y330.600
Y331.090
Y331.570
Y332.039
Y332.497
Y332.944
Y333.379
Y333.802
Y334.213
Y334.610
Y334.995
Y335.367
Y335.724
Y336.068
Y336.397
Y336.712
Y337.011
Y337.295
Y337.564
Y337.816
Y338.052
Y338.271
Y338.473
Y338.657
Y338.824
Y338.973
Y339.103
Y339.215
Y339.308
Y339.381
Y339.434
Y339.467
Y339.480
Y339.481
X9.710Y339.507
X9.710Y339.559
X9.711Y339.663
X9.715Y339.870
X9.730Y340.281
X9.757Y340.691
X9.794Y341.097
X9.841Y341.500
X9.899Y341.900
X9.966Y342.297
X10.044Y342.691
X10.132Y343.081
X10.229Y343.467
X10.336Y343.850
X10.452Y344.229
X10.578Y344.603
X10.713Y344.974
X10.857Y345.340
X11.010Y345.702
X11.172Y346.059
X11.342Y346.411
X11.521Y346.758
X11.708Y347.100
X11.903Y347.438
X12.107Y347.769
X12.318Y348.096
X12.537Y348.417
X12.764Y348.732
X12.999Y349.041
X13.240Y349.344
X13.489Y349.641
X13.746Y349.932
X14.009Y350.217
X14.279Y350.494
X14.556Y350.766
X14.839Y351.030
X15.129Y351.287
X15.425Y351.538
X15.727Y351.781
X16.035Y352.017
X16.350Y352.245
X16.669Y352.465
X16.995Y352.678
X17.326Y352.883
X17.662Y353.080
X18.004Y353.268
X18.350Y353.449
X18.702Y353.621
X19.058Y353.784
X19.419Y353.938
X19.785Y354.084
X20.155Y354.220
X20.529Y354.348
X20.907Y354.466
X21.289Y354.575
X21.675Y354.674
X22.065Y354.763
X22.458Y354.843
X22.855Y354.912
X23.255Y354.972
X23.658Y355.021
X24.064Y355.060
X24.473Y355.088
X24.884Y355.105
X25.299Y355.112
X25.349Y355.112
X25.351
X25.356
X25.380
X25.418
X25.470
X25.534
X25.610
X25.697
X25.792
X26.008
X26.248
X26.504
X27.027
X27.277
X27.507
X27.710
X27.798
X27.875
X27.942
X27.996
X28.036
X28.061
X28.071
X28.072Y355.115
X28.074Y355.148
X28.085Y355.280
X28.110Y355.544
X28.171Y356.068
X28.249Y356.589
X28.341Y357.105
X28.449Y357.617
X28.572Y358.125
X28.710Y358.628
X28.862Y359.127
X29.029Y359.621
X29.210Y360.110
X29.405Y360.594
X29.614Y361.072
X29.836Y361.545
X30.072Y362.013
X30.322Y362.474
X30.584Y362.930
X30.859Y363.380
X31.147Y363.823
X31.447Y364.260
X31.760Y364.691
X32.085Y365.114
X32.422Y365.531
X32.770Y365.941
X33.130Y366.343
X33.501Y366.739
X33.884Y367.126
X34.277Y367.506
X34.681Y367.878
X35.095Y368.242
X35.520Y368.598
X35.955Y368.946
X36.400Y369.285
X36.855Y369.615
X37.319Y369.937
X37.793Y370.249
X38.275Y370.553
X38.767Y370.847
X39.267Y371.132
X39.777Y371.407
X40.294Y371.672
X40.820Y371.928
X41.353Y372.173
X41.895Y372.408
X42.444Y372.633
X43.000Y372.847
X43.564Y373.051
X44.134Y373.243
X44.712Y373.424
X45.296Y373.595
X45.886Y373.754
X46.483Y373.901
X47.086Y374.037
X47.694Y374.160
X48.309Y374.272
X48.928Y374.372
X49.553Y374.459
X50.183Y374.534
X50.818Y374.596
X51.458Y374.645
X52.102Y374.682
X52.750Y374.705
X53.402Y374.715
X54.056Y374.712
X54.707Y374.695
X55.353Y374.665
X55.994Y374.622
X56.631Y374.566
X57.264Y374.497
X57.891Y374.416
X58.513Y374.322
X59.130Y374.216
X59.741Y374.098
X60.347Y373.968
X60.946Y373.827
X61.540Y373.673
X62.127Y373.508
X62.708Y373.332
X63.281Y373.145
X63.848Y372.947
X64.408Y372.738
X64.961Y372.519
X65.506Y372.288
X66.043Y372.048
X66.572Y371.797
X67.094Y371.537
X67.607Y371.266
X68.111Y370.986
X68.607Y370.697
X69.094Y370.398
X69.572Y370.089
X70.041Y369.772
X70.500Y369.446
X70.950Y369.111
X71.389Y368.768
X71.819Y368.416
X72.239Y368.056
X72.648Y367.687
X73.046Y367.311
X73.434Y366.927
X73.810Y366.536
X74.176Y366.137
X74.530Y365.731
X74.872Y365.317
X75.203Y364.897
X75.521Y364.470
X75.828Y364.036
X76.122Y363.596
X76.403Y363.149
X76.672Y362.696
X76.928Y362.237
X77.170Y361.773
X77.399Y361.302
X77.615Y360.826
X77.817Y360.345
X78.005Y359.859
X78.179Y359.367
X78.338Y358.871
X78.483Y358.370
X78.614Y357.864
X78.729Y357.354
X78.829Y356.839
X78.914Y356.321
X78.984Y355.799
X79.037Y355.272
X79.048Y355.140
X79.051Y355.112
X79.052
X79.057
X79.078
X79.115
X79.166
X79.229
X79.304
X79.390
X79.588
X79.816
X80.064
X80.587
X80.844
X81.086
X81.305
X81.492
X81.570
X81.638
X81.693
X81.734
X81.761
X81.773
X81.778
X81.830Y355.112
X82.037Y355.110
X82.450Y355.098
X82.860Y355.075
X83.268Y355.041
X83.672Y354.997
X84.074Y354.942
X84.472Y354.878
X84.867Y354.803
X85.258Y354.718
X85.646Y354.624
X86.030Y354.520
X86.410Y354.406
X86.786Y354.283
X87.158Y354.151
X87.526Y354.010
X87.889Y353.860
X88.248Y353.701
X88.602Y353.533
X88.951Y353.357
X89.295Y353.172
X89.633Y352.979
X89.967Y352.778
X90.295Y352.570
X90.618Y352.353
X90.935Y352.128
X91.246Y351.896
X91.551Y351.657
X91.850Y351.410
X92.143Y351.156
X92.430Y350.895
X92.710Y350.627
X92.983Y350.352
X93.249Y350.071
X93.509Y349.783
X93.762Y349.489
X94.007Y349.189
X94.245Y348.882
X94.476Y348.570
X94.699Y348.252
X94.914Y347.928
X95.121Y347.599
X95.320Y347.265
X95.512Y346.925
X95.694Y346.580
X95.869Y346.230
X96.035Y345.875
X96.192Y345.516
X96.340Y345.152
X96.479Y344.784
X96.610Y344.411
X96.731Y344.034
X96.842Y343.654
X96.944Y343.269
X97.037Y342.881
X97.119Y342.489
X97.192Y342.093
X97.254Y341.695
X97.307Y341.293
X97.349Y340.888
X97.380Y340.480
X97.401Y340.070
X97.411Y339.656
X97.412Y339.553
X97.412Y339.501
X97.412Y339.480
Y339.467
Y339.433
Y339.380
Y339.307
Y339.215
Y339.105
Y338.975
Y338.828
Y338.663
Y338.480
Y338.280
Y338.063
Y337.830
Y337.581
Y337.315
Y337.035
Y336.739
Y336.428
Y336.102
Y335.763
Y335.409
Y335.042
Y334.662
Y334.269
Y333.863
Y333.446
Y333.016
Y332.575
Y332.122
Y331.659
Y331.185
Y330.701
Y330.207
Y329.190
Y328.138
Y327.053
Y325.938
Y324.795
Y323.627
Y322.437
Y321.227
Y319.999
Y318.758
Y317.504
Y314.973
Y309.884
Y308.623
Y307.370
Y306.130
Y304.904
Y303.696
Y302.507
Y301.341
Y300.201
Y299.088
Y298.006
Y296.957
Y296.446
Y295.944
Y295.452
Y294.969
Y294.497
Y294.036
Y293.586
Y293.146
Y292.719
Y292.303
Y291.900
Y291.509
Y291.131
Y290.767
Y290.416
Y290.079
Y289.756
Y289.448
Y289.155
Y288.876
Y288.614
Y288.367
Y288.137
Y287.923
Y287.727
Y287.547
Y287.385
Y287.241
Y287.115
Y287.008
Y286.919
Y286.850
Y286.800
Y286.771
X97.414Y286.761
X97.483Y286.749
X97.622Y286.726
X97.900Y286.678
X98.457Y286.574
X99.016Y286.462
X99.575Y286.340
X100.136Y286.209
X100.699Y286.068
X101.262Y285.917
X101.827Y285.757
X102.393Y285.587
X102.959Y285.406
X103.527Y285.215
X104.095Y285.014
X104.664Y284.803
X105.234Y284.580
X105.805Y284.347
X106.090Y284.226
X106.162Y284.196
X106.166Y284.194
X106.178Y284.189
X106.214Y284.174
X106.285Y284.143
X106.428Y284.081
X106.995Y283.831
X108.112Y283.317
X109.208Y282.785
X110.282Y282.233
X111.334Y281.664
X112.363Y281.077
X113.371Y280.472
X114.357Y279.849
X115.321Y279.210
X116.262Y278.555
X117.182Y277.883
X118.079Y277.195
X118.953Y276.491
X119.806Y275.772
X120.636Y275.038
X121.443Y274.289
X122.228Y273.526
X122.991Y272.749
X123.731Y271.958
X124.448Y271.154
X125.143Y270.336
X125.815Y269.505
X126.464Y268.663
X127.091Y267.807
X127.694Y266.940
X128.275Y266.062
X128.833Y265.172
X129.368Y264.271
X129.879Y263.360
X130.368Y262.438
X130.834Y261.506
X130.946Y261.272
X130.960Y261.243
X130.967Y261.228
X130.970Y261.222
X130.971
X130.975
X130.996
X131.033
X131.085
X131.153
X131.236
X131.333
X131.446
X131.572
X131.713
X131.867
X132.035
X132.216
X132.410
X132.617
X132.837
X133.068
X133.312
X133.567
X133.834
X134.111
X134.400
X134.699
X135.009
X135.328
X135.658
X135.997
X136.703
X137.444
X138.218
X139.022
X139.856
X140.716
X141.601
X142.508
X143.435
X144.381
X145.343
X146.319
X147.306
X148.304
X150.320
X152.349
X154.376
X156.383
X157.373
X158.352
X159.318
X160.269
X161.201
X162.114
X163.005
X163.872
X164.713
X165.526
X166.309
X167.059
X167.774
X168.118
X168.453
X168.778
X169.093
X169.398
X169.693
X169.976
X170.249
X170.511
X170.760
X170.999
X171.225
X171.438
X171.639
X171.828
X172.003
X172.165
X172.313
X172.447
X172.567
X172.673
X172.764
X172.840
X172.901
X172.946
X172.975
X172.989
X172.990
X173.000
X173.032Y261.222
X173.156Y261.221
X173.653Y261.211
X174.147Y261.187
X174.638Y261.150
X175.125Y261.101
X175.608Y261.040
X176.088Y260.966
X176.563Y260.880
X177.034Y260.782
X177.501Y260.673
X177.964Y260.552
X178.422Y260.419
X178.875Y260.275
X179.323Y260.120
X179.766Y259.954
X180.203Y259.777
X180.636Y259.590
X181.062Y259.392
X181.483Y259.184
X181.897Y258.966
X182.306Y258.737
X182.708Y258.499
X183.104Y258.251
X183.493Y257.994
X183.876Y257.727
X184.251Y257.452
X184.619Y257.167
X184.981Y256.873
X185.334Y256.570
X185.680Y256.260
X186.018Y255.940
X186.349Y255.613
X186.671Y255.277
X186.985Y254.934
X187.290Y254.582
X187.587Y254.224
X187.875Y253.857
X188.155Y253.484
X188.425Y253.103
X188.686Y252.716
X188.937Y252.322
X189.179Y251.921
X189.411Y251.514
X189.634Y251.100
X189.846Y250.681
X190.048Y250.255
X190.240Y249.824
X190.421Y249.387
X190.591Y248.945
X190.750Y248.497
X190.899Y248.044
X191.036Y247.586
X191.162Y247.124
X191.276Y246.656
X191.378Y246.184
X191.469Y245.708
X191.548Y245.228
X191.614Y244.744
X191.668Y244.256
X191.710Y243.764
X191.739Y243.268
X191.755Y242.770
X191.758Y242.519
X191.758Y242.456
X191.758Y242.425
X191.758Y242.409
X191.770Y242.402
X191.896Y242.365
X192.398Y242.213
X192.897Y242.050
X193.390Y241.877
X193.879Y241.694
X194.362Y241.501
X194.841Y241.298
X195.315Y241.086
X195.783Y240.864
X196.246Y240.633
X196.704Y240.393
X197.155Y240.143
X197.602Y239.884
X198.042Y239.617
X198.476Y239.340
X198.904Y239.055
X199.326Y238.761
X199.742Y238.459
X200.151Y238.149
X200.553Y237.830
X200.949Y237.504
X201.338Y237.169
X201.720Y236.827
X202.095Y236.477
X202.462Y236.119
X202.823Y235.754
X203.175Y235.381
X203.521Y235.002
X203.858Y234.615
X204.188Y234.221
X204.510Y233.821
X204.824Y233.413
X205.129Y233.000
X205.427Y232.579
X205.715Y232.153
X205.996Y231.720
X206.267Y231.281
X206.530Y230.836
X206.784Y230.385
X207.029Y229.929
X207.265Y229.467
X207.491Y228.999
X207.708Y228.526
X207.916Y228.048
X208.114Y227.565
X208.302Y227.076
X208.480Y226.583
X208.648Y226.085
X208.806Y225.583
X208.954Y225.076
X209.092Y224.564
X209.219Y224.049
X209.335Y223.529
X209.441Y223.005
X209.535Y222.477
X209.619Y221.946
X209.692Y221.411
X209.753Y220.872
X209.803Y220.330
X209.842Y219.785
X209.869Y219.236
X209.884Y218.685
X209.887Y218.131
X209.879Y217.577
X209.859Y217.027
X209.827Y216.480
X209.783Y215.936
X209.729Y215.396
X209.662Y214.858
X209.585Y214.325
X209.497Y213.795
X209.397Y213.269
X209.287Y212.747
X209.166Y212.229
X209.035Y211.715
X208.893Y211.205
X208.741Y210.700
X208.578Y210.199
X208.406Y209.704
X208.223Y209.212
X208.031Y208.726
X207.829Y208.245
X207.617Y207.769
X207.396Y207.298
X207.166Y206.833
X206.926Y206.373
X206.678Y205.919
X206.420Y205.471
X206.153Y205.029
X205.878Y204.592
X205.594Y204.162
X205.302Y203.738
X205.001Y203.321
X204.692Y202.910
X204.374Y202.505
X204.049Y202.107
X203.716Y201.717
X203.375Y201.333
X203.027Y200.956
X202.671Y200.587
X202.307Y200.225
X201.936Y199.871
X201.559Y199.524
X201.174Y199.185
X200.782Y198.853
X200.383Y198.530
X199.978Y198.215
X199.566Y197.908
X199.148Y197.610
X198.723Y197.319
X198.293Y197.038
X197.856Y196.765
X197.413Y196.501
X196.964Y196.247
X196.510Y196.001
X196.050Y195.764
X195.585Y195.537
X195.114Y195.319
X194.639Y195.111
X194.158Y194.912
X193.672Y194.724
X193.181Y194.545
X192.686Y194.376
X192.186Y194.218
X191.934Y194.143
X191.808Y194.106
X191.776Y194.097
X191.760Y194.092
X191.758Y194.078
X191.758Y194.016
X191.749Y193.517
X191.728Y193.022
X191.694Y192.530
X191.647Y192.041
X191.587Y191.556
X191.516Y191.075
X191.432Y190.598
X191.336Y190.125
X191.229Y189.657
X191.110Y189.193
X190.979Y188.733
X190.837Y188.279
X190.684Y187.829
X190.520Y187.385
X190.345Y186.945
X190.160Y186.512
X189.964Y186.084
X189.757Y185.661
X189.541Y185.245
X189.314Y184.835
X189.078Y184.431
X188.832Y184.033
X188.576Y183.643
X188.311Y183.259
X188.037Y182.882
X187.754Y182.511
X187.462Y182.149
X187.162Y181.793
X186.853Y181.446
X186.535Y181.106
X186.210Y180.774
X185.876Y180.450
X185.534Y180.134
X185.185Y179.827
X184.828Y179.528
X184.464Y179.238
X184.093Y178.957
X183.714Y178.685
X183.329Y178.422
X182.937Y178.169
X182.538Y177.925
X182.133Y177.691
X181.722Y177.467
X181.305Y177.253
X180.882Y177.049
X180.453Y176.855
X180.018Y176.672
X179.579Y176.500
X179.133Y176.339
X178.683Y176.188
X178.228Y176.049
X177.768Y175.921
X177.304Y175.805
X176.835Y175.700
X176.362Y175.607
X175.885Y175.526
X175.403Y175.458
X174.919Y175.401
X174.430Y175.357
X173.938Y175.326
X173.443Y175.308
X173.194Y175.304
X173.069Y175.303
X173.007Y175.302
X172.991
X172.990
X172.989
X172.971
X172.927
X172.857
X172.761
X172.641
X172.496
X172.327
X172.134
X171.918
X171.680
X171.419
X171.136
X170.831
X170.506
X170.160
X169.793
X169.407
X169.002
X168.577
X168.135
X167.674
X167.195
X166.700
X166.187
X165.658
X165.114
X164.554
X163.979
X163.389
X162.785
X162.167
X161.536
X160.893
X160.236
X159.568
X158.888
X158.197
X157.496
X156.784
X156.062
X154.590
X153.084
X151.548
X149.984
X148.396
X146.788
X145.162
X143.523
X141.874
X135.245
X133.597
X131.960
X130.336
X128.730
X127.145
X125.584
X124.051
X122.549
X121.082
X120.363
X119.653
X118.954
X118.266
X117.589
X116.923
X116.270
X115.629
X115.001
X114.387
X113.787
X113.200
X112.629
X112.073
X111.532
X111.007
X110.499
X110.007
X109.533
X109.076
X108.638
X108.218
X107.817
X107.436
X107.074
X106.733
X106.413
X106.114
X105.836
X105.580
X105.347
X105.137
X104.950
X104.786
X104.647
X104.533
X104.444
X104.380
X104.342
X104.330Y175.302
Y175.288
Y175.251
Y175.192
Y175.110
Y175.006
Y174.880
Y174.733
Y174.564
Y174.373
Y174.161
Y173.928
Y173.675
Y173.400
Y173.106
Y172.791
Y172.455
Y172.100
Y171.725
Y171.331
Y170.917
Y170.484
Y170.032
Y169.561
Y169.072
Y168.564
Y168.037
Y167.493
Y166.931
Y166.351
Y165.754
Y165.139
Y164.507
Y163.858
Y163.192
Y162.510
Y161.811
Y161.096
Y160.365
Y159.619
Y158.856
Y158.078
Y157.285
Y156.476
Y155.653
Y154.814
Y153.962
Y153.094
Y152.213
Y151.318
Y150.408
Y149.486
Y148.549
Y147.599
Y146.637
Y145.661
Y144.673
Y143.672
Y142.658
Y141.633
Y140.595
Y139.546
Y138.485
Y137.413
Y136.329
Y135.235
Y134.129
Y133.013
Y131.886
Y130.749
Y129.602
Y128.444
Y127.277
Y126.101
Y124.915
Y122.515
Y120.080
Y117.611
Y115.110
Y112.578
Y110.016
Y107.426
Y104.809
Y102.168
Y99.503
Y96.815
Y94.107
Y91.380
Y88.635
Y85.874
Y83.098
Y80.309
Y77.508
Y74.697
Y69.049
Y63.377
Y57.694
Y52.011
Y46.340
Y40.692
Y37.881
Y35.080
Y32.290
Y29.514
Y26.753
Y24.008
Y21.281
Y18.573
Y15.886
Y13.221
Y10.579
Y7.962
Y5.373
Y2.811
Y0.278
Y-2.223
Y-4.692
Y-7.127
Y-9.526
Y-10.712
Y-11.889
Y-13.056
Y-14.213
Y-15.360
Y-16.498
Y-17.624
Y-18.741
Y-19.846
Y-20.941
Y-22.024
Y-23.097
Y-24.158
Y-25.207
Y-26.245
Y-27.270
Y-28.283
Y-29.284
Y-30.273
Y-31.248
Y-32.211
Y-33.161
Y-34.097
Y-35.020
Y-35.929
Y-36.825
Y-37.706
Y-38.573
Y-39.426
Y-40.264
Y-41.088
Y-41.896
Y-42.689
Y-43.468
Y-44.230
Y-44.977
Y-45.708
Y-46.423
Y-47.122
Y-47.804
Y-48.470
Y-49.119
Y-49.750
Y-50.365
Y-50.963
Y-51.543
Y-52.105
Y-52.649
Y-53.175
Y-53.683
Y-54.173
Y-54.643
Y-55.096
Y-55.529
Y-55.942
Y-56.337
Y-56.712
Y-57.067
Y-57.402
Y-57.717
Y-58.012
Y-58.286
Y-58.540
Y-58.773
Y-58.985
Y-59.175
Y-59.344
Y-59.492
Y-59.618
Y-59.722
Y-59.803
Y-59.863
Y-59.900
Y-59.914
Y-59.915
X104.330Y-59.933
X104.330Y-59.971
X104.329Y-60.045
X104.328Y-60.195
X104.322Y-60.493
X104.299Y-61.085
X104.261Y-61.674
X104.208Y-62.259
X104.139Y-62.840
X104.056Y-63.416
X103.958Y-63.987
X103.845Y-64.554
X103.719Y-65.116
X103.578Y-65.672
X103.424Y-66.222
X103.256Y-66.767
X103.074Y-67.307
X102.880Y-67.840
X102.672Y-68.366
X102.452Y-68.887
X102.219Y-69.401
X101.973Y-69.907
X101.715Y-70.407
X101.446Y-70.900
X101.164Y-71.385
X100.871Y-71.862
X100.566Y-72.332
X100.250Y-72.793
X99.923Y-73.246
X99.586Y-73.691
X99.237Y-74.127
X98.878Y-74.555
X98.509Y-74.973
X98.130Y-75.382
X97.741Y-75.782
X97.342Y-76.172
X96.934Y-76.552
X96.517Y-76.922
X96.090Y-77.282
X95.655Y-77.632
X95.211Y-77.970
X94.759Y-78.299
X94.298Y-78.616
X93.829Y-78.921
X93.353Y-79.216
X92.869Y-79.499
X92.377Y-79.770
X91.878Y-80.029
X91.372Y-80.276
X90.859Y-80.510
X90.339Y-80.732
X89.813Y-80.941
X89.280Y-81.137
X88.742Y-81.320
X88.197Y-81.490
X87.647Y-81.646
X87.092Y-81.788
X86.531Y-81.916
X85.965Y-82.030
X85.394Y-82.130
X84.818Y-82.215
X84.238Y-82.285
X83.654Y-82.340
X83.065Y-82.381
X82.473Y-82.405
X81.876Y-82.415
X81.839Y-82.415
X81.822Y-82.415
X81.821
X81.809
X81.786
X81.752
X81.656
X81.527
X81.372
X81.197
X81.009
X80.619
X80.430
X80.254
X80.098
X79.967
X79.869
X79.834
X79.810
X79.796
X79.794Y-82.418
Y-82.432
Y-82.455
Y-82.529
Y-82.638
Y-82.778
Y-82.948
Y-83.145
Y-83.366
Y-83.608
Y-83.869
Y-84.146
Y-84.436
Y-84.738
Y-85.362
Y-85.998
Y-86.625
Y-86.927
Y-87.220
Y-87.500
Y-87.764
Y-88.010
Y-88.234
Y-88.436
Y-88.611
Y-88.757
Y-88.871
Y-88.952
Y-88.978
Y-88.996
Y-89.003
X79.789Y-89.003
X79.762
X79.551
X79.128
X77.437
X74.055
X47.003
X33.477
X30.095
X28.404
X27.558
X27.347
X27.334
X27.328
Y-89.000
Y-88.988
Y-88.966
Y-88.894
Y-88.788
Y-88.649
Y-88.481
Y-88.285
Y-88.066
Y-87.825
Y-87.565
Y-87.289
Y-86.999
Y-86.699
Y-86.075
Y-85.439
Y-84.812
Y-84.508
Y-84.215
Y-83.935
Y-83.670
Y-83.423
Y-83.196
Y-82.994
Y-82.817
Y-82.669
Y-82.552
Y-82.470
Y-82.442
Y-82.424
X27.327Y-82.415
X27.317
X27.295
X27.262
X27.168
X27.041
X26.888
X26.714
X26.526
X26.136
X25.947
X25.770
X25.612
X25.480
X25.379
X25.343
X25.317
X25.303
X25.300
X25.293
X25.274Y-82.415
X25.236Y-82.415
X24.938Y-82.412
X24.344Y-82.395
X23.753Y-82.362
X23.167Y-82.314
X22.584Y-82.251
X22.007Y-82.173
X21.433Y-82.080
X20.865Y-81.973
X20.302Y-81.852
X19.743Y-81.716
X19.191Y-81.567
X18.643Y-81.404
X18.102Y-81.228
X17.567Y-81.038
X17.037Y-80.835
X16.514Y-80.619
X15.998Y-80.391
X15.489Y-80.150
X14.986Y-79.897
X14.491Y-79.632
X14.003Y-79.355
X13.523Y-79.066
X13.050Y-78.765
X12.585Y-78.454
X12.129Y-78.131
X11.681Y-77.797
X11.241Y-77.453
X10.811Y-77.098
X10.389Y-76.733
X9.976Y-76.357
X9.573Y-75.972
X9.179Y-75.577
X8.795Y-75.173
X8.421Y-74.759
X8.057Y-74.336
X7.704Y-73.904
X7.361Y-73.463
X7.029Y-73.014
X6.708Y-72.556
X6.397Y-72.091
X6.099Y-71.617
X5.811Y-71.136
X5.536Y-70.647
X5.272Y-70.151
X5.021Y-69.647
X4.782Y-69.137
X4.555Y-68.620
X4.341Y-68.096
X4.140Y-67.566
X3.952Y-67.030
X3.778Y-66.487
X3.617Y-65.939
X3.470Y-65.386
X3.336Y-64.827
X3.217Y-64.263
X3.112Y-63.694
X3.022Y-63.120
X2.946Y-62.541
X2.885Y-61.959
X2.839Y-61.371
X2.809Y-60.780
X2.794Y-60.186
X2.792Y-60.036
X2.792Y-59.962
X2.792Y-59.924
X2.792Y-59.914
Y-59.898
Y-59.860
Y-59.799
Y-59.716
Y-59.611
Y-59.484
Y-59.335
Y-59.164
Y-58.972
Y-58.759
Y-58.525
Y-58.270
Y-57.995
Y-57.699
Y-57.382
Y-57.046
Y-56.690
Y-56.313
Y-55.918
Y-55.503
Y-55.069
Y-54.615
Y-54.144
Y-53.653
Y-53.144
Y-52.617
Y-52.071
Y-51.508
Y-50.927
Y-50.328
Y-49.713
Y-49.080
Y-48.430
Y-47.763
Y-47.080
Y-46.380
Y-45.664
Y-44.932
Y-44.184
Y-43.421
Y-42.642
Y-41.848
Y-41.038
Y-40.214
Y-39.375
Y-38.521
Y-37.653
Y-36.771
Y-35.875
Y-34.964
Y-34.041
Y-33.104
Y-32.153
Y-31.190
Y-30.213
Y-29.224
Y-28.222
Y-27.208
Y-26.182
Y-25.144
Y-24.094
Y-23.032
Y-21.959
Y-20.875
Y-19.780
Y-18.673
Y-17.556
Y-16.429
Y-15.291
Y-14.143
Y-12.986
Y-11.818
Y-10.641
Y-9.454
Y-7.054
Y-4.618
Y-2.148
Y0.355
G0Z5.080
G0Z20.320
G0X0.000Y0.000
M30
