(VECTRIC POST REV.)
(82074C4DCA892683619619E26FA56BD3)
T1M6
G17
G0Z20.320
G0X0.000Y0.000S18000M3
G0X38.939Y71.477
G0Z5.080
G1Z-1.000F304.8
G1X41.923Y69.972F1016.0
X44.943Y68.448
X48.226Y67.474
X50.078Y66.924
X46.514Y72.269
X42.124Y78.849
G2X41.857Y79.697I1.321J0.881
G1X41.841Y80.483
X41.824Y81.270
G2X43.411Y82.891I1.587J0.034
G1X44.316
X45.221
G2X46.441Y82.320I0.000J-1.588
G1X49.785Y78.305
X53.142Y74.275
X59.640Y66.065
X66.059Y57.955
X70.884Y53.318
X75.683Y48.706
X78.150Y47.073
X80.576Y45.468
X82.785Y44.680
X84.934Y43.913
X85.843Y43.891
X86.630Y43.873
X88.361Y44.694
X90.058Y45.499
X95.551Y53.269
X101.285Y61.378
G2X101.545Y61.664I1.296J-0.917
G1X104.692Y64.374
X107.288Y66.610
X107.288Y68.274
X107.289Y70.279
X106.491Y71.821
X105.721Y73.311
X104.085Y74.309
X102.450Y75.305
X99.119
X95.788
X94.202Y74.338
X92.483Y73.290
X88.333Y67.963
X83.947Y62.333
X82.779Y61.155
X81.677Y60.043
G2X80.550Y59.573I-1.127J1.118
G1X79.291
X78.032
G2X76.445Y61.161I0.000J1.588
G1Y62.625
Y64.089
G2X76.953Y65.253I1.588J0.000
G1X78.601Y66.779
X80.149Y68.213
X83.668Y72.825
X86.772Y76.894
X85.646Y80.518
X84.298Y84.854
X82.234Y89.822
X80.196Y94.729
X77.478Y98.974
X74.749Y103.236
X71.898Y106.497
X69.093Y109.704
X65.786Y112.040
X62.549Y114.325
X60.298Y114.949
X57.988Y115.589
X53.798Y115.588
X49.519Y115.587
X45.635Y114.956
X41.871Y114.346
X39.596Y113.185
X37.319Y112.024
X34.377Y109.112
X31.472Y106.238
X30.087Y103.105
X28.656Y99.870
X27.989Y96.192
X27.340Y92.614
X27.896Y89.607
X28.480Y86.451
X29.728Y83.120
X30.932Y79.907
X33.216Y77.146
X35.578Y74.291
X37.273Y72.872
X38.939Y71.477
G1Z-2.000F304.8
G1X41.923Y69.972F1016.0
X44.943Y68.448
X48.226Y67.474
X50.078Y66.924
X46.514Y72.269
X42.124Y78.849
G2X41.857Y79.697I1.321J0.881
G1X41.841Y80.483
X41.824Y81.270
G2X43.411Y82.891I1.587J0.034
G1X44.316
X45.221
G2X46.441Y82.320I0.000J-1.588
G1X49.785Y78.305
X53.142Y74.275
X59.640Y66.065
X66.059Y57.955
X70.884Y53.318
X75.683Y48.706
X78.150Y47.073
X80.576Y45.468
X82.785Y44.680
X84.934Y43.913
X85.843Y43.891
X86.630Y43.873
X88.361Y44.694
X90.058Y45.499
X95.551Y53.269
X101.285Y61.378
G2X101.545Y61.664I1.296J-0.917
G1X104.692Y64.374
X107.288Y66.610
X107.288Y68.274
X107.289Y70.279
X106.491Y71.821
X105.721Y73.311
X104.085Y74.309
X102.450Y75.305
X99.119
X95.788
X94.202Y74.338
X92.483Y73.290
X88.333Y67.963
X83.947Y62.333
X82.779Y61.155
X81.677Y60.043
G2X80.550Y59.573I-1.127J1.118
G1X79.291
X78.032
G2X76.445Y61.161I0.000J1.588
G1Y62.625
Y64.089
G2X76.953Y65.253I1.588J0.000
G1X78.601Y66.779
X80.149Y68.213
X83.668Y72.825
X86.772Y76.894
X85.646Y80.518
X84.298Y84.854
X82.234Y89.822
X80.196Y94.729
X77.478Y98.974
X74.749Y103.236
X71.898Y106.497
X69.093Y109.704
X65.786Y112.040
X62.549Y114.325
X60.298Y114.949
X57.988Y115.589
X53.798Y115.588
X49.519Y115.587
X45.635Y114.956
X41.871Y114.346
X39.596Y113.185
X37.319Y112.024
X34.377Y109.112
X31.472Y106.238
X30.087Y103.105
X28.656Y99.870
X27.989Y96.192
X27.340Y92.614
X27.896Y89.607
X28.480Y86.451
X29.728Y83.120
X30.932Y79.907
X33.216Y77.146
X35.578Y74.291
X37.273Y72.872
X38.939Y71.477
G1Z-3.000F304.8
G1X41.923Y69.972F1016.0
X44.943Y68.448
X48.226Y67.474
X50.078Y66.924
X46.514Y72.269
X42.124Y78.849
G2X41.857Y79.697I1.321J0.881
G1X41.841Y80.483
X41.824Y81.270
G2X43.411Y82.891I1.587J0.034
G1X44.316
X45.221
G2X46.441Y82.320I0.000J-1.588
G1X49.785Y78.305
X53.142Y74.275
X59.640Y66.065
X66.059Y57.955
X70.884Y53.318
X75.683Y48.706
X78.150Y47.073
X80.576Y45.468
X82.785Y44.680
X84.934Y43.913
X85.843Y43.891
X86.630Y43.873
X88.361Y44.694
X90.058Y45.499
X95.551Y53.269
X101.285Y61.378
G2X101.545Y61.664I1.296J-0.917
G1X104.692Y64.374
X107.288Y66.610
X107.288Y68.274
X107.289Y70.279
X106.491Y71.821
X105.721Y73.311
X104.085Y74.309
X102.450Y75.305
X99.119
X95.788
X94.202Y74.338
X92.483Y73.290
X88.333Y67.963
X83.947Y62.333
X82.779Y61.155
X81.677Y60.043
G2X80.550Y59.573I-1.127J1.118
G1X79.291
X78.032
G2X76.445Y61.161I0.000J1.588
G1Y62.625
Y64.089
G2X76.953Y65.253I1.588J0.000
G1X78.601Y66.779
X80.149Y68.213
X83.668Y72.825
X86.772Y76.894
X85.646Y80.518
X84.298Y84.854
X82.234Y89.822
X80.196Y94.729
X77.478Y98.974
X74.749Y103.236
X71.898Y106.497
X69.093Y109.704
X65.786Y112.040
X62.549Y114.325
X60.298Y114.949
X57.988Y115.589
X53.798Y115.588
X49.519Y115.587
X45.635Y114.956
X41.871Y114.346
X39.596Y113.185
X37.319Y112.024
X34.377Y109.112
X31.472Y106.238
X30.087Y103.105
X28.656Y99.870
X27.989Y96.192
X27.340Y92.614
X27.896Y89.607
X28.480Y86.451
X29.728Y83.120
X30.932Y79.907
X33.216Y77.146
X35.578Y74.291
X37.273Y72.872
X38.939Y71.477
G0Z5.080
G0X30.300Y115.445
G1Z-1.000F304.8
G1X31.442Y116.226F1016.0
X35.601Y119.073
G2X36.023Y119.279I0.897J-1.310
G1X40.267Y120.606
X44.511Y121.933
G2X44.887Y122.003I0.474J-1.515
G1X50.552Y122.353
X56.217Y122.703
G2X56.710Y122.656I0.098J-1.584
G1X60.686Y121.634
X64.661Y120.612
G2X65.054Y120.453I-0.395J-1.538
G1X68.003Y118.765
X70.952Y117.078
G2X71.296Y116.813I-0.788J-1.378
G1X76.332Y111.686
X81.368Y106.560
G2X81.609Y106.243I-1.133J-1.112
G1X84.502Y101.252
X87.458Y96.151
X88.829Y92.570
X90.191Y89.014
X90.904Y86.083
X91.568Y83.353
X92.169Y81.812
X92.326Y81.407
X93.663Y81.665
X96.442Y82.203
X99.564Y82.232
X102.541Y82.259
G2X103.146Y82.146I0.015J-1.587
G1X105.710Y81.120
X108.274Y80.094
G2X108.946Y79.583I-0.590J-1.474
G1X111.116Y76.742
X113.286Y73.900
G2X113.556Y73.351I-1.262J-0.963
G1X114.255Y70.767
X114.954Y68.182
G2X115.000Y67.606I-1.532J-0.414
G1X114.669Y64.369
X114.337Y61.133
G2X114.230Y60.700I-1.579J0.162
G1X112.677Y56.855
X112.010Y55.204
X112.876Y55.209
X116.050Y55.223
X123.588Y55.809
X130.955Y56.382
X131.307Y56.518
X131.261Y56.641
X130.724Y58.053
X129.650Y59.561
X128.458Y61.235
G2X128.247Y61.647I1.293J0.921
G1X126.871Y65.713
X125.495Y69.779
G2X125.419Y70.448I1.504J0.509
G1X125.753Y73.742
X126.088Y77.035
G2X126.283Y77.653I1.579J-0.160
G1X127.711Y80.194
X129.140Y82.736
G2X129.814Y83.378I1.384J-0.778
G1X133.569Y85.254
X137.323Y87.130
G2X138.033Y87.298I0.710J-1.420
G1X141.930
X145.827
G2X146.350Y87.209I0.000J-1.588
G1X148.345Y86.514
X149.494Y86.113
X149.646Y86.239
X149.990Y86.524
X150.329Y89.770
X150.736Y93.659
G2X150.893Y94.202I1.579J-0.165
G1X153.109Y98.651
X155.325Y103.099
G2X155.598Y103.488I1.421J-0.708
G1X158.304Y106.320
X161.096Y109.243
X163.408Y111.004
X165.620Y112.688
G2X166.180Y112.961I0.962J-1.263
G1X169.835Y113.916
X173.073Y114.761
X173.351Y115.039
X173.352Y115.040
X172.797Y118.246
X172.118Y122.173
X170.891Y126.330
X169.804Y130.011
X168.900Y130.593
X167.769Y131.323
X164.195Y131.961
X160.214Y132.672
X155.199Y134.196
X150.192Y135.717
X147.595Y136.826
X144.952Y137.954
X140.452Y140.863
X135.976Y143.758
X132.411Y146.820
X129.070Y149.691
X127.866Y150.311
X126.755Y150.884
X120.713Y151.571
X114.540Y152.273
X106.663Y151.590
X98.676Y150.897
X93.921Y150.189
X90.146Y149.627
X89.355Y146.708
X88.294Y142.786
G2X88.085Y142.324I-1.532J0.415
G1X86.275Y139.591
X84.466Y136.858
G2X84.127Y136.489I-1.324J0.876
G1X81.480Y134.394
X78.832Y132.299
G2X78.299Y132.022I-0.985J1.245
G1X75.130Y131.081
X71.961Y130.140
G2X71.507Y130.074I-0.452J1.522
G1X69.575Y130.076
X67.644Y130.079
G2X67.237Y130.132I0.002J1.587
G1X64.719Y130.803
X62.201Y131.473
G2X61.718Y131.695I0.409J1.534
G1X57.385Y134.640
X53.459Y137.309
X46.258Y137.287
X39.037Y137.264
X37.725Y136.404
X36.419Y135.548
X35.427Y133.235
X34.289Y130.580
X32.427Y123.877
X30.562Y117.163
X30.300Y115.445
G1Z-2.000F304.8
G1X31.442Y116.226F1016.0
X35.601Y119.073
G2X36.023Y119.279I0.897J-1.310
G1X40.267Y120.606
X44.511Y121.933
G2X44.887Y122.003I0.474J-1.515
G1X50.552Y122.353
X56.217Y122.703
G2X56.710Y122.656I0.098J-1.584
G1X60.686Y121.634
X64.661Y120.612
G2X65.054Y120.453I-0.395J-1.538
G1X68.003Y118.765
X70.952Y117.078
G2X71.296Y116.813I-0.788J-1.378
G1X76.332Y111.686
X81.368Y106.560
G2X81.609Y106.243I-1.133J-1.112
G1X84.502Y101.252
X87.458Y96.151
X88.829Y92.570
X90.191Y89.014
X90.904Y86.083
X91.568Y83.353
X92.169Y81.812
X92.326Y81.407
X93.663Y81.665
X96.442Y82.203
X99.564Y82.232
X102.541Y82.259
G2X103.146Y82.146I0.015J-1.587
G1X105.710Y81.120
X108.274Y80.094
G2X108.946Y79.583I-0.590J-1.474
G1X111.116Y76.742
X113.286Y73.900
G2X113.556Y73.351I-1.262J-0.963
G1X114.255Y70.767
X114.954Y68.182
G2X115.000Y67.606I-1.532J-0.414
G1X114.669Y64.369
X114.337Y61.133
G2X114.230Y60.700I-1.579J0.162
G1X112.677Y56.855
X112.010Y55.204
X112.876Y55.209
X116.050Y55.223
X123.588Y55.809
X130.955Y56.382
X131.307Y56.518
X131.261Y56.641
X130.724Y58.053
X129.650Y59.561
X128.458Y61.235
G2X128.247Y61.647I1.293J0.921
G1X126.871Y65.713
X125.495Y69.779
G2X125.419Y70.448I1.504J0.509
G1X125.753Y73.742
X126.088Y77.035
G2X126.283Y77.653I1.579J-0.160
G1X127.711Y80.194
X129.140Y82.736
G2X129.814Y83.378I1.384J-0.778
G1X133.569Y85.254
X137.323Y87.130
G2X138.033Y87.298I0.710J-1.420
G1X141.930
X145.827
G2X146.350Y87.209I0.000J-1.588
G1X148.345Y86.514
X149.494Y86.113
X149.646Y86.239
X149.990Y86.524
X150.329Y89.770
X150.736Y93.659
G2X150.893Y94.202I1.579J-0.165
G1X153.109Y98.651
X155.325Y103.099
G2X155.598Y103.488I1.421J-0.708
G1X158.304Y106.320
X161.096Y109.243
X163.408Y111.004
X165.620Y112.688
G2X166.180Y112.961I0.962J-1.263
G1X169.835Y113.916
X173.073Y114.761
X173.351Y115.039
X173.352Y115.040
X172.797Y118.246
X172.118Y122.173
X170.891Y126.330
X169.804Y130.011
X168.900Y130.593
X167.769Y131.323
X164.195Y131.961
X160.214Y132.672
X155.199Y134.196
X150.192Y135.717
X147.595Y136.826
X144.952Y137.954
X140.452Y140.863
X135.976Y143.758
X132.411Y146.820
X129.070Y149.691
X127.866Y150.311
X126.755Y150.884
X120.713Y151.571
X114.540Y152.273
X106.663Y151.590
X98.676Y150.897
X93.921Y150.189
X90.146Y149.627
X89.355Y146.708
X88.294Y142.786
G2X88.085Y142.324I-1.532J0.415
G1X86.275Y139.591
X84.466Y136.858
G2X84.127Y136.489I-1.324J0.876
G1X81.480Y134.394
X78.832Y132.299
G2X78.299Y132.022I-0.985J1.245
G1X75.130Y131.081
X71.961Y130.140
G2X71.507Y130.074I-0.452J1.522
G1X69.575Y130.076
X67.644Y130.079
G2X67.237Y130.132I0.002J1.587
G1X64.719Y130.803
X62.201Y131.473
G2X61.718Y131.695I0.409J1.534
G1X57.385Y134.640
X53.459Y137.309
X46.258Y137.287
X39.037Y137.264
X37.725Y136.404
X36.419Y135.548
X35.427Y133.235
X34.289Y130.580
X32.427Y123.877
X30.562Y117.163
X30.300Y115.445
G1Z-3.000F304.8
G1X31.442Y116.226F1016.0
X35.601Y119.073
G2X36.023Y119.279I0.897J-1.310
G1X40.267Y120.606
X44.511Y121.933
G2X44.887Y122.003I0.474J-1.515
G1X50.552Y122.353
X56.217Y122.703
G2X56.710Y122.656I0.098J-1.584
G1X60.686Y121.634
X64.661Y120.612
G2X65.054Y120.453I-0.395J-1.538
G1X68.003Y118.765
X70.952Y117.078
G2X71.296Y116.813I-0.788J-1.378
G1X76.332Y111.686
X81.368Y106.560
G2X81.609Y106.243I-1.133J-1.112
G1X84.502Y101.252
X87.458Y96.151
X88.829Y92.570
X90.191Y89.014
X90.904Y86.083
X91.568Y83.353
X92.169Y81.812
X92.326Y81.407
X93.663Y81.665
X96.442Y82.203
X99.564Y82.232
X102.541Y82.259
G2X103.146Y82.146I0.015J-1.587
G1X105.710Y81.120
X108.274Y80.094
G2X108.946Y79.583I-0.590J-1.474
G1X111.116Y76.742
X113.286Y73.900
G2X113.556Y73.351I-1.262J-0.963
G1X114.255Y70.767
X114.954Y68.182
G2X115.000Y67.606I-1.532J-0.414
G1X114.669Y64.369
X114.337Y61.133
G2X114.230Y60.700I-1.579J0.162
G1X112.677Y56.855
X112.010Y55.204
X112.876Y55.209
X116.050Y55.223
X123.588Y55.809
X130.955Y56.382
X131.307Y56.518
X131.261Y56.641
X130.724Y58.053
X129.650Y59.561
X128.458Y61.235
G2X128.247Y61.647I1.293J0.921
G1X126.871Y65.713
X125.495Y69.779
G2X125.419Y70.448I1.504J0.509
G1X125.753Y73.742
X126.088Y77.035
G2X126.283Y77.653I1.579J-0.160
G1X127.711Y80.194
X129.140Y82.736
G2X129.814Y83.378I1.384J-0.778
G1X133.569Y85.254
X137.323Y87.130
G2X138.033Y87.298I0.710J-1.420
G1X141.930
X145.827
G2X146.350Y87.209I0.000J-1.588
G1X148.345Y86.514
X149.494Y86.113
X149.646Y86.239
X149.990Y86.524
X150.329Y89.770
X150.736Y93.659
G2X150.893Y94.202I1.579J-0.165
G1X153.109Y98.651
X155.325Y103.099
G2X155.598Y103.488I1.421J-0.708
G1X158.304Y106.320
X161.096Y109.243
X163.408Y111.004
X165.620Y112.688
G2X166.180Y112.961I0.962J-1.263
G1X169.835Y113.916
X173.073Y114.761
X173.351Y115.039
X173.352Y115.040
X172.797Y118.246
X172.118Y122.173
X170.891Y126.330
X169.804Y130.011
X168.900Y130.593
X167.769Y131.323
X164.195Y131.961
X160.214Y132.672
X155.199Y134.196
X150.192Y135.717
X147.595Y136.826
X144.952Y137.954
X140.452Y140.863
X135.976Y143.758
X132.411Y146.820
X129.070Y149.691
X127.866Y150.311
X126.755Y150.884
X120.713Y151.571
X114.540Y152.273
X106.663Y151.590
X98.676Y150.897
X93.921Y150.189
X90.146Y149.627
X89.355Y146.708
X88.294Y142.786
G2X88.085Y142.324I-1.532J0.415
G1X86.275Y139.591
X84.466Y136.858
G2X84.127Y136.489I-1.324J0.876
G1X81.480Y134.394
X78.832Y132.299
G2X78.299Y132.022I-0.985J1.245
G1X75.130Y131.081
X71.961Y130.140
G2X71.507Y130.074I-0.452J1.522
G1X69.575Y130.076
X67.644Y130.079
G2X67.237Y130.132I0.002J1.587
G1X64.719Y130.803
X62.201Y131.473
G2X61.718Y131.695I0.409J1.534
G1X57.385Y134.640
X53.459Y137.309
X46.258Y137.287
X39.037Y137.264
X37.725Y136.404
X36.419Y135.548
X35.427Y133.235
X34.289Y130.580
X32.427Y123.877
X30.562Y117.163
X30.300Y115.445
G0Z5.080
G0X133.621Y77.206
G1Z-1.000F304.8
G1X133.003Y75.333F1016.0
X132.630Y74.202
X132.638Y74.197
X133.825Y73.490
X135.974Y71.819
X138.180Y70.104
X145.279Y61.598
X152.268Y53.224
G2X152.637Y52.207I-1.219J-1.017
G1Y52.030
X152.798Y52.028
X154.529Y52.009
G2X155.486Y51.675I-0.017J-1.587
G1X156.745Y50.696
X157.514Y50.098
X160.404Y50.343
X163.601Y50.617
X165.979Y51.830
X168.429Y53.080
X173.047Y57.460
X177.732Y61.904
X184.817Y71.395
X191.982Y80.995
G2X193.255Y81.632I1.272J-0.950
G1X193.743
X194.232
G2X194.800Y81.527I0.000J-1.588
G1X195.241Y82.870
X196.358Y86.275
X196.337Y90.739
X196.318Y95.099
X194.728Y98.377
X193.124Y101.682
X190.789Y103.681
X188.414Y105.714
X185.194Y106.919
X181.979Y108.121
X178.413
X174.748
X173.091Y107.721
X171.429Y107.320
X168.760Y105.976
X166.151Y104.661
X164.310Y102.843
X162.451Y101.008
X161.074Y98.544
X159.666Y96.024
X158.025Y90.861
X156.409Y85.780
X156.412Y83.845
X156.413Y82.147
X160.234Y76.480
X164.326Y70.412
G2X164.597Y69.525I-1.316J-0.888
G1Y68.129
Y66.734
G2X162.669Y65.183I-1.588J0.000
G1X161.742Y65.387
X160.816Y65.590
G2X159.919Y66.146I0.340J1.551
G1X156.912Y69.883
X153.999Y73.503
X150.215Y76.714
X146.570Y79.807
X144.280Y80.493
X142.103Y81.145
X139.614Y80.479
X136.993Y79.778
X135.237Y78.438
X133.621Y77.206
G1Z-2.000F304.8
G1X133.003Y75.333F1016.0
X132.630Y74.202
X132.638Y74.197
X133.825Y73.490
X135.974Y71.819
X138.180Y70.104
X145.279Y61.598
X152.268Y53.224
G2X152.637Y52.207I-1.219J-1.017
G1Y52.030
X152.798Y52.028
X154.529Y52.009
G2X155.486Y51.675I-0.017J-1.587
G1X156.745Y50.696
X157.514Y50.098
X160.404Y50.343
X163.601Y50.617
X165.979Y51.830
X168.429Y53.080
X173.047Y57.460
X177.732Y61.904
X184.817Y71.395
X191.982Y80.995
G2X193.255Y81.632I1.272J-0.950
G1X193.743
X194.232
G2X194.800Y81.527I0.000J-1.588
G1X195.241Y82.870
X196.358Y86.275
X196.337Y90.739
X196.318Y95.099
X194.728Y98.377
X193.124Y101.682
X190.789Y103.681
X188.414Y105.714
X185.194Y106.919
X181.979Y108.121
X178.413
X174.748
X173.091Y107.721
X171.429Y107.320
X168.760Y105.976
X166.151Y104.661
X164.310Y102.843
X162.451Y101.008
X161.074Y98.544
X159.666Y96.024
X158.025Y90.861
X156.409Y85.780
X156.412Y83.845
X156.413Y82.147
X160.234Y76.480
X164.326Y70.412
G2X164.597Y69.525I-1.316J-0.888
G1Y68.129
Y66.734
G2X162.669Y65.183I-1.588J0.000
G1X161.742Y65.387
X160.816Y65.590
G2X159.919Y66.146I0.340J1.551
G1X156.912Y69.883
X153.999Y73.503
X150.215Y76.714
X146.570Y79.807
X144.280Y80.493
X142.103Y81.145
X139.614Y80.479
X136.993Y79.778
X135.237Y78.438
X133.621Y77.206
G1Z-3.000F304.8
G1X133.003Y75.333F1016.0
X132.630Y74.202
X132.638Y74.197
X133.825Y73.490
X135.974Y71.819
X138.180Y70.104
X145.279Y61.598
X152.268Y53.224
G2X152.637Y52.207I-1.219J-1.017
G1Y52.030
X152.798Y52.028
X154.529Y52.009
G2X155.486Y51.675I-0.017J-1.587
G1X156.745Y50.696
X157.514Y50.098
X160.404Y50.343
X163.601Y50.617
X165.979Y51.830
X168.429Y53.080
X173.047Y57.460
X177.732Y61.904
X184.817Y71.395
X191.982Y80.995
G2X193.255Y81.632I1.272J-0.950
G1X193.743
X194.232
G2X194.800Y81.527I0.000J-1.588
G1X195.241Y82.870
X196.358Y86.275
X196.337Y90.739
X196.318Y95.099
X194.728Y98.377
X193.124Y101.682
X190.789Y103.681
X188.414Y105.714
X185.194Y106.919
X181.979Y108.121
X178.413
X174.748
X173.091Y107.721
X171.429Y107.320
X168.760Y105.976
X166.151Y104.661
X164.310Y102.843
X162.451Y101.008
X161.074Y98.544
X159.666Y96.024
X158.025Y90.861
X156.409Y85.780
X156.412Y83.845
X156.413Y82.147
X160.234Y76.480
X164.326Y70.412
G2X164.597Y69.525I-1.316J-0.888
G1Y68.129
Y66.734
G2X162.669Y65.183I-1.588J0.000
G1X161.742Y65.387
X160.816Y65.590
G2X159.919Y66.146I0.340J1.551
G1X156.912Y69.883
X153.999Y73.503
X150.215Y76.714
X146.570Y79.807
X144.280Y80.493
X142.103Y81.145
X139.614Y80.479
X136.993Y79.778
X135.237Y78.438
X133.621Y77.206
G0Z5.080
G0X159.156Y140.034
G1Z-1.000F304.8
G1X161.624Y139.578F1016.0
X164.120Y139.116
X168.087Y139.015
X172.054Y138.914
X176.967Y139.558
X181.751Y140.186
X184.790Y141.648
X187.853Y143.122
X190.900Y145.861
X193.896Y148.555
X194.972Y150.663
X196.066Y152.808
X196.574Y156.051
X197.086Y159.314
X196.607Y162.816
X196.121Y166.373
X194.871Y169.713
X193.670Y172.923
X192.093Y174.611
X190.772Y176.025
X189.219
X187.265
X184.060Y174.826
X181.686Y173.938
X182.395Y173.420
G2X182.808Y171.304I-0.937J-1.281
G1X182.359Y170.578
X181.910Y169.851
G2X180.335Y169.115I-1.350J0.835
G1X177.698Y169.491
X174.996Y169.877
X169.808Y171.062
X164.685Y172.232
G2X164.267Y172.392I0.354J1.548
G1X161.837Y173.743
X159.254Y175.179
X158.003Y176.290
X156.882Y177.286
G2X156.546Y177.706I1.054J1.187
G1X154.005Y182.309
X151.527Y186.798
X149.181Y189.765
X146.980Y192.550
X144.373Y193.812
X141.844Y195.037
X138.965Y194.739
X135.932Y194.426
X133.696Y193.285
X131.466Y192.148
X129.745Y190.188
X128.015Y188.218
X126.794Y184.953
X125.571Y181.685
Y177.407
Y173.044
X126.491Y169.488
X127.409Y165.941
X129.945Y161.497
X132.467Y157.074
X136.461Y153.307
X140.500Y149.497
X145.637Y146.422
X150.810Y143.325
X154.994Y141.676
X159.156Y140.034
G1Z-2.000F304.8
G1X161.624Y139.578F1016.0
X164.120Y139.116
X168.087Y139.015
X172.054Y138.914
X176.967Y139.558
X181.751Y140.186
X184.790Y141.648
X187.853Y143.122
X190.900Y145.861
X193.896Y148.555
X194.972Y150.663
X196.066Y152.808
X196.574Y156.051
X197.086Y159.314
X196.607Y162.816
X196.121Y166.373
X194.871Y169.713
X193.670Y172.923
X192.093Y174.611
X190.772Y176.025
X189.219
X187.265
X184.060Y174.826
X181.686Y173.938
X182.395Y173.420
G2X182.808Y171.304I-0.937J-1.281
G1X182.359Y170.578
X181.910Y169.851
G2X180.335Y169.115I-1.350J0.835
G1X177.698Y169.491
X174.996Y169.877
X169.808Y171.062
X164.685Y172.232
G2X164.267Y172.392I0.354J1.548
G1X161.837Y173.743
X159.254Y175.179
X158.003Y176.290
X156.882Y177.286
G2X156.546Y177.706I1.054J1.187
G1X154.005Y182.309
X151.527Y186.798
X149.181Y189.765
X146.980Y192.550
X144.373Y193.812
X141.844Y195.037
X138.965Y194.739
X135.932Y194.426
X133.696Y193.285
X131.466Y192.148
X129.745Y190.188
X128.015Y188.218
X126.794Y184.953
X125.571Y181.685
Y177.407
Y173.044
X126.491Y169.488
X127.409Y165.941
X129.945Y161.497
X132.467Y157.074
X136.461Y153.307
X140.500Y149.497
X145.637Y146.422
X150.810Y143.325
X154.994Y141.676
X159.156Y140.034
G1Z-3.000F304.8
G1X161.624Y139.578F1016.0
X164.120Y139.116
X168.087Y139.015
X172.054Y138.914
X176.967Y139.558
X181.751Y140.186
X184.790Y141.648
X187.853Y143.122
X190.900Y145.861
X193.896Y148.555
X194.972Y150.663
X196.066Y152.808
X196.574Y156.051
X197.086Y159.314
X196.607Y162.816
X196.121Y166.373
X194.871Y169.713
X193.670Y172.923
X192.093Y174.611
X190.772Y176.025
X189.219
X187.265
X184.060Y174.826
X181.686Y173.938
X182.395Y173.420
G2X182.808Y171.304I-0.937J-1.281
G1X182.359Y170.578
X181.910Y169.851
G2X180.335Y169.115I-1.350J0.835
G1X177.698Y169.491
X174.996Y169.877
X169.808Y171.062
X164.685Y172.232
G2X164.267Y172.392I0.354J1.548
G1X161.837Y173.743
X159.254Y175.179
X158.003Y176.290
X156.882Y177.286
G2X156.546Y177.706I1.054J1.187
G1X154.005Y182.309
X151.527Y186.798
X149.181Y189.765
X146.980Y192.550
X144.373Y193.812
X141.844Y195.037
X138.965Y194.739
X135.932Y194.426
X133.696Y193.285
X131.466Y192.148
X129.745Y190.188
X128.015Y188.218
X126.794Y184.953
X125.571Y181.685
Y177.407
Y173.044
X126.491Y169.488
X127.409Y165.941
X129.945Y161.497
X132.467Y157.074
X136.461Y153.307
X140.500Y149.497
X145.637Y146.422
X150.810Y143.325
X154.994Y141.676
X159.156Y140.034
G0Z5.080
G0X126.242Y205.164
G1Z-1.000F304.8
G1X124.630Y205.687F1016.0
X118.620Y206.054
X115.385Y206.252
X116.824Y205.375
X118.450Y204.384
X121.297Y204.382
X124.282Y204.379
X126.242Y205.164
G1Z-2.000F304.8
G1X124.630Y205.687F1016.0
X118.620Y206.054
X115.385Y206.252
X116.824Y205.375
X118.450Y204.384
X121.297Y204.382
X124.282Y204.379
X126.242Y205.164
G1Z-3.000F304.8
G1X124.630Y205.687F1016.0
X118.620Y206.054
X115.385Y206.252
X116.824Y205.375
X118.450Y204.384
X121.297Y204.382
X124.282Y204.379
X126.242Y205.164
G0Z5.080
G0X128.314Y199.051
G1Z-1.000F304.8
G1X124.606Y197.544F1016.0
G2X124.008Y197.427I-0.598J1.471
G1X120.365Y197.427
X116.722
G2X115.825Y197.705I0.000J1.587
G1X113.634Y199.205
X111.442Y200.705
G2X111.057Y201.078I0.897J1.310
G1X109.724Y202.902
X108.316Y204.829
X106.965Y207.477
X105.671Y210.012
G2X105.518Y210.478I1.414J0.721
G1X103.930Y220.198
X102.335Y229.964
X101.907Y234.102
X101.506Y237.975
X100.701Y239.999
X100.075Y241.576
X98.858Y242.035
X96.985Y242.742
G2X95.958Y244.227I0.561J1.485
G1Y245.226
Y246.225
G2X97.546Y247.813I1.588J0.000
G1X98.987
X100.429
G2X100.829Y247.761I0.000J-1.588
G1X104.544Y246.794
X108.260Y245.826
G2X108.874Y245.511I-0.400J-1.536
G1X109.697Y244.828
X110.519Y244.145
G2X111.093Y242.924I-1.014J-1.222
G1Y242.057
Y241.189
G2X109.506Y239.602I-1.588J0.000
G1X108.324
X107.887
X107.585Y239.237
X107.259Y238.845
X107.581Y236.704
X107.992Y233.962
X109.539Y228.559
X111.048Y223.289
X113.104Y220.155
X115.105Y217.106
X117.700Y215.460
X120.340Y213.786
X123.551Y213.120
X126.727Y212.460
X131.292Y213.376
X135.962Y214.312
X138.948Y215.826
X141.749Y217.245
X142.545Y218.459
X143.573Y220.028
G2X144.901Y220.745I1.328J-0.870
G1X146.007
X147.114
G2X148.281Y220.234I0.000J-1.588
G1X150.921Y217.370
X153.561Y214.506
G2X153.891Y212.903I-1.167J-1.076
G1X153.626Y212.148
X153.360Y211.393
G2X151.763Y210.335I-1.498J0.526
G1X148.938Y210.513
X146.682Y210.656
X144.055Y208.754
X140.943Y206.502
X136.614Y203.598
X132.173Y200.619
X128.314Y199.051
G1Z-2.000F304.8
G1X124.606Y197.544F1016.0
G2X124.008Y197.427I-0.598J1.471
G1X120.365Y197.427
X116.722
G2X115.825Y197.705I0.000J1.587
G1X113.634Y199.205
X111.442Y200.705
G2X111.057Y201.078I0.897J1.310
G1X109.724Y202.902
X108.316Y204.829
X106.965Y207.477
X105.671Y210.012
G2X105.518Y210.478I1.414J0.721
G1X103.930Y220.198
X102.335Y229.964
X101.907Y234.102
X101.506Y237.975
X100.701Y239.999
X100.075Y241.576
X98.858Y242.035
X96.985Y242.742
G2X95.958Y244.227I0.561J1.485
G1Y245.226
Y246.225
G2X97.546Y247.813I1.588J0.000
G1X98.987
X100.429
G2X100.829Y247.761I0.000J-1.588
G1X104.544Y246.794
X108.260Y245.826
G2X108.874Y245.511I-0.400J-1.536
G1X109.697Y244.828
X110.519Y244.145
G2X111.093Y242.924I-1.014J-1.222
G1Y242.057
Y241.189
G2X109.506Y239.602I-1.588J0.000
G1X108.324
X107.887
X107.585Y239.237
X107.259Y238.845
X107.581Y236.704
X107.992Y233.962
X109.539Y228.559
X111.048Y223.289
X113.104Y220.155
X115.105Y217.106
X117.700Y215.460
X120.340Y213.786
X123.551Y213.120
X126.727Y212.460
X131.292Y213.376
X135.962Y214.312
X138.948Y215.826
X141.749Y217.245
X142.545Y218.459
X143.573Y220.028
G2X144.901Y220.745I1.328J-0.870
G1X146.007
X147.114
G2X148.281Y220.234I0.000J-1.588
G1X150.921Y217.370
X153.561Y214.506
G2X153.891Y212.903I-1.167J-1.076
G1X153.626Y212.148
X153.360Y211.393
G2X151.763Y210.335I-1.498J0.526
G1X148.938Y210.513
X146.682Y210.656
X144.055Y208.754
X140.943Y206.502
X136.614Y203.598
X132.173Y200.619
X128.314Y199.051
G1Z-3.000F304.8
G1X124.606Y197.544F1016.0
G2X124.008Y197.427I-0.598J1.471
G1X120.365Y197.427
X116.722
G2X115.825Y197.705I0.000J1.587
G1X113.634Y199.205
X111.442Y200.705
G2X111.057Y201.078I0.897J1.310
G1X109.724Y202.902
X108.316Y204.829
X106.965Y207.477
X105.671Y210.012
G2X105.518Y210.478I1.414J0.721
G1X103.930Y220.198
X102.335Y229.964
X101.907Y234.102
X101.506Y237.975
X100.701Y239.999
X100.075Y241.576
X98.858Y242.035
X96.985Y242.742
G2X95.958Y244.227I0.561J1.485
G1Y245.226
Y246.225
G2X97.546Y247.813I1.588J0.000
G1X98.987
X100.429
G2X100.829Y247.761I0.000J-1.588
G1X104.544Y246.794
X108.260Y245.826
G2X108.874Y245.511I-0.400J-1.536
G1X109.697Y244.828
X110.519Y244.145
G2X111.093Y242.924I-1.014J-1.222
G1Y242.057
Y241.189
G2X109.506Y239.602I-1.588J0.000
G1X108.324
X107.887
X107.585Y239.237
X107.259Y238.845
X107.581Y236.704
X107.992Y233.962
X109.539Y228.559
X111.048Y223.289
X113.104Y220.155
X115.105Y217.106
X117.700Y215.460
X120.340Y213.786
X123.551Y213.120
X126.727Y212.460
X131.292Y213.376
X135.962Y214.312
X138.948Y215.826
X141.749Y217.245
X142.545Y218.459
X143.573Y220.028
G2X144.901Y220.745I1.328J-0.870
G1X146.007
X147.114
G2X148.281Y220.234I0.000J-1.588
G1X150.921Y217.370
X153.561Y214.506
G2X153.891Y212.903I-1.167J-1.076
G1X153.626Y212.148
X153.360Y211.393
G2X151.763Y210.335I-1.498J0.526
G1X148.938Y210.513
X146.682Y210.656
X144.055Y208.754
X140.943Y206.502
X136.614Y203.598
X132.173Y200.619
X128.314Y199.051
G0Z5.080
G0X127.594Y231.419
G1Z-1.000F304.8
G2X126.439Y231.917I0.000J1.588F1016.0
G1X124.365Y234.116
X122.291Y236.315
G2X121.897Y237.058I1.155J1.089
G1X121.142Y240.430
X120.387Y243.803
G2X120.509Y244.845I1.549J0.347
G1X121.375Y246.623
X122.241Y248.401
G2X123.172Y249.214I1.427J-0.695
G1X124.856Y249.769
X126.540Y250.324
G2X127.450Y250.350I0.497J-1.508
G1X129.867Y249.699
X132.284Y249.048
G2X132.721Y248.856I-0.413J-1.533
G1X135.703Y246.965
X138.685Y245.074
G2X139.190Y244.560I-0.850J-1.341
G1X140.445Y242.501
X141.700Y240.442
G2X141.932Y239.619I-1.355J-0.826
G1X141.935Y238.300
X141.937Y236.981
G2X141.415Y235.801I-1.587J-0.003
G1X140.290Y234.783
X139.166Y233.766
G2X138.712Y233.478I-1.065J1.177
G1X136.395Y232.510
X134.078Y231.542
G2X133.466Y231.419I-0.612J1.465
G1X130.530
X127.594
G1Z-2.000F304.8
G2X126.439Y231.917I0.000J1.588F1016.0
G1X124.365Y234.116
X122.291Y236.315
G2X121.897Y237.058I1.155J1.089
G1X121.142Y240.430
X120.387Y243.803
G2X120.509Y244.845I1.549J0.347
G1X121.375Y246.623
X122.241Y248.401
G2X123.172Y249.214I1.427J-0.695
G1X124.856Y249.769
X126.540Y250.324
G2X127.450Y250.350I0.497J-1.508
G1X129.867Y249.699
X132.284Y249.048
G2X132.721Y248.856I-0.413J-1.533
G1X135.703Y246.965
X138.685Y245.074
G2X139.190Y244.560I-0.850J-1.341
G1X140.445Y242.501
X141.700Y240.442
G2X141.932Y239.619I-1.355J-0.826
G1X141.935Y238.300
X141.937Y236.981
G2X141.415Y235.801I-1.587J-0.003
G1X140.290Y234.783
X139.166Y233.766
G2X138.712Y233.478I-1.065J1.177
G1X136.395Y232.510
X134.078Y231.542
G2X133.466Y231.419I-0.612J1.465
G1X130.530
X127.594
G1Z-3.000F304.8
G2X126.439Y231.917I0.000J1.588F1016.0
G1X124.365Y234.116
X122.291Y236.315
G2X121.897Y237.058I1.155J1.089
G1X121.142Y240.430
X120.387Y243.803
G2X120.509Y244.845I1.549J0.347
G1X121.375Y246.623
X122.241Y248.401
G2X123.172Y249.214I1.427J-0.695
G1X124.856Y249.769
X126.540Y250.324
G2X127.450Y250.350I0.497J-1.508
G1X129.867Y249.699
X132.284Y249.048
G2X132.721Y248.856I-0.413J-1.533
G1X135.703Y246.965
X138.685Y245.074
G2X139.190Y244.560I-0.850J-1.341
G1X140.445Y242.501
X141.700Y240.442
G2X141.932Y239.619I-1.355J-0.826
G1X141.935Y238.300
X141.937Y236.981
G2X141.415Y235.801I-1.587J-0.003
G1X140.290Y234.783
X139.166Y233.766
G2X138.712Y233.478I-1.065J1.177
G1X136.395Y232.510
X134.078Y231.542
G2X133.466Y231.419I-0.612J1.465
G1X130.530
X127.594
G0Z5.080
G0X113.524Y252.037
G1Z-1.000F304.8
G2X112.387Y251.562I-1.133J1.112F1016.0
G1X111.731Y251.564
X111.075Y251.565
G2X109.947Y252.041I0.004J1.587
G1X105.225Y256.849
X100.592Y261.568
X97.433Y263.909
X94.174Y266.324
G2X93.769Y266.765I0.945J1.275
G1X93.371Y267.408
X92.974Y268.052
G2X94.324Y270.474I1.350J0.835
G1X95.834
X97.345
G2X98.163Y270.247I0.000J-1.587
G1X103.399Y267.099
X108.006Y264.331
X108.982Y265.098
X110.582Y266.357
G2X111.564Y266.697I0.981J-1.248
G1X113.377
X115.189
G2X116.545Y265.936I0.000J-1.587
G1X117.792Y263.890
X119.039Y261.844
G2X119.272Y261.021I-1.355J-0.826
G1X119.274Y259.786
X119.276Y258.551
G2X118.822Y257.436I-1.588J-0.003
G1X116.173Y254.737
X113.524Y252.037
G1Z-2.000F304.8
G2X112.387Y251.562I-1.133J1.112F1016.0
G1X111.731Y251.564
X111.075Y251.565
G2X109.947Y252.041I0.004J1.587
G1X105.225Y256.849
X100.592Y261.568
X97.433Y263.909
X94.174Y266.324
G2X93.769Y266.765I0.945J1.275
G1X93.371Y267.408
X92.974Y268.052
G2X94.324Y270.474I1.350J0.835
G1X95.834
X97.345
G2X98.163Y270.247I0.000J-1.587
G1X103.399Y267.099
X108.006Y264.331
X108.982Y265.098
X110.582Y266.357
G2X111.564Y266.697I0.981J-1.248
G1X113.377
X115.189
G2X116.545Y265.936I0.000J-1.587
G1X117.792Y263.890
X119.039Y261.844
G2X119.272Y261.021I-1.355J-0.826
G1X119.274Y259.786
X119.276Y258.551
G2X118.822Y257.436I-1.588J-0.003
G1X116.173Y254.737
X113.524Y252.037
G1Z-3.000F304.8
G2X112.387Y251.562I-1.133J1.112F1016.0
G1X111.731Y251.564
X111.075Y251.565
G2X109.947Y252.041I0.004J1.587
G1X105.225Y256.849
X100.592Y261.568
X97.433Y263.909
X94.174Y266.324
G2X93.769Y266.765I0.945J1.275
G1X93.371Y267.408
X92.974Y268.052
G2X94.324Y270.474I1.350J0.835
G1X95.834
X97.345
G2X98.163Y270.247I0.000J-1.587
G1X103.399Y267.099
X108.006Y264.331
X108.982Y265.098
X110.582Y266.357
G2X111.564Y266.697I0.981J-1.248
G1X113.377
X115.189
G2X116.545Y265.936I0.000J-1.587
G1X117.792Y263.890
X119.039Y261.844
G2X119.272Y261.021I-1.355J-0.826
G1X119.274Y259.786
X119.276Y258.551
G2X118.822Y257.436I-1.588J-0.003
G1X116.173Y254.737
X113.524Y252.037
G0Z5.080
G0X110.427Y298.359
G1Z-1.000F304.8
G2X108.242Y298.875I-0.835J1.350F1016.0
G1X107.858Y299.496
X107.474Y300.118
G2X107.432Y301.714I1.350J0.835
G1X108.389Y303.464
X109.412Y305.333
X110.296Y306.445
X111.096Y307.449
G2X111.609Y307.871I1.242J-0.988
G1X113.624Y308.912
X115.639Y309.953
G2X116.367Y310.130I0.729J-1.410
G1X118.871
X121.376
G2X122.498Y309.665I0.000J-1.587
G1X123.487Y308.676
X124.477Y307.687
G2X124.941Y306.564I-1.123J-1.123
G1Y306.039
Y305.514
G2X123.570Y303.941I-1.588J0.000
G1X120.392Y303.504
X117.579Y303.117
X114.669Y301.159
X111.428Y298.978
X110.915Y298.660
X110.427Y298.359
G1Z-2.000F304.8
G2X108.242Y298.875I-0.835J1.350F1016.0
G1X107.858Y299.496
X107.474Y300.118
G2X107.432Y301.714I1.350J0.835
G1X108.389Y303.464
X109.412Y305.333
X110.296Y306.445
X111.096Y307.449
G2X111.609Y307.871I1.242J-0.988
G1X113.624Y308.912
X115.639Y309.953
G2X116.367Y310.130I0.729J-1.410
G1X118.871
X121.376
G2X122.498Y309.665I0.000J-1.587
G1X123.487Y308.676
X124.477Y307.687
G2X124.941Y306.564I-1.123J-1.123
G1Y306.039
Y305.514
G2X123.570Y303.941I-1.588J0.000
G1X120.392Y303.504
X117.579Y303.117
X114.669Y301.159
X111.428Y298.978
X110.915Y298.660
X110.427Y298.359
G1Z-3.000F304.8
G2X108.242Y298.875I-0.835J1.350F1016.0
G1X107.858Y299.496
X107.474Y300.118
G2X107.432Y301.714I1.350J0.835
G1X108.389Y303.464
X109.412Y305.333
X110.296Y306.445
X111.096Y307.449
G2X111.609Y307.871I1.242J-0.988
G1X113.624Y308.912
X115.639Y309.953
G2X116.367Y310.130I0.729J-1.410
G1X118.871
X121.376
G2X122.498Y309.665I0.000J-1.587
G1X123.487Y308.676
X124.477Y307.687
G2X124.941Y306.564I-1.123J-1.123
G1Y306.039
Y305.514
G2X123.570Y303.941I-1.588J0.000
G1X120.392Y303.504
X117.579Y303.117
X114.669Y301.159
X111.428Y298.978
X110.915Y298.660
X110.427Y298.359
G0Z5.080
G0X187.231Y266.368
G1Z-1.000F304.8
G2X188.819Y267.956I1.588J0.000F1016.0
G1X190.737
X192.656
G2X193.820Y267.447I0.000J-1.587
G1X195.281Y265.871
X196.742Y264.294
G2X197.152Y263.426I-1.164J-1.079
G1X197.470Y261.052
X197.788Y258.679
G2X197.795Y258.316I-1.573J-0.211
G1X197.479Y255.027
X197.163Y251.739
G2X195.583Y250.303I-1.580J0.152
G1X195.018
X194.453
G2X192.969Y251.326I0.000J1.588
G1X192.355Y252.941
X191.741Y254.556
G2X191.638Y255.120I1.484J0.564
G1Y255.971
Y256.496
X190.593Y258.933
X189.571Y261.317
X188.835Y261.928
X187.805Y262.783
G2X187.231Y264.005I1.014J1.222
G1Y265.186
Y266.368
G1Z-2.000F304.8
G2X188.819Y267.956I1.588J0.000F1016.0
G1X190.737
X192.656
G2X193.820Y267.447I0.000J-1.587
G1X195.281Y265.871
X196.742Y264.294
G2X197.152Y263.426I-1.164J-1.079
G1X197.470Y261.052
X197.788Y258.679
G2X197.795Y258.316I-1.573J-0.211
G1X197.479Y255.027
X197.163Y251.739
G2X195.583Y250.303I-1.580J0.152
G1X195.018
X194.453
G2X192.969Y251.326I0.000J1.588
G1X192.355Y252.941
X191.741Y254.556
G2X191.638Y255.120I1.484J0.564
G1Y255.971
Y256.496
X190.593Y258.933
X189.571Y261.317
X188.835Y261.928
X187.805Y262.783
G2X187.231Y264.005I1.014J1.222
G1Y265.186
Y266.368
G1Z-3.000F304.8
G2X188.819Y267.956I1.588J0.000F1016.0
G1X190.737
X192.656
G2X193.820Y267.447I0.000J-1.587
G1X195.281Y265.871
X196.742Y264.294
G2X197.152Y263.426I-1.164J-1.079
G1X197.470Y261.052
X197.788Y258.679
G2X197.795Y258.316I-1.573J-0.211
G1X197.479Y255.027
X197.163Y251.739
G2X195.583Y250.303I-1.580J0.152
G1X195.018
X194.453
G2X192.969Y251.326I0.000J1.588
G1X192.355Y252.941
X191.741Y254.556
G2X191.638Y255.120I1.484J0.564
G1Y255.971
Y256.496
X190.593Y258.933
X189.571Y261.317
X188.835Y261.928
X187.805Y262.783
G2X187.231Y264.005I1.014J1.222
G1Y265.186
Y266.368
G0Z5.080
G0X162.622Y237.906
G1Z-1.000F304.8
G1X163.378Y237.150F1016.0
X164.133Y236.395
G2X164.598Y235.272I-1.123J-1.123
G1Y233.468
Y232.063
X165.059Y231.202
X165.539Y230.305
X168.694Y227.974
X172.137Y225.431
G2X172.781Y224.154I-0.943J-1.277
G1Y223.230
Y222.305
G2X171.101Y220.721I-1.588J0.000
G1X169.999Y220.785
X168.898Y220.849
G2X168.264Y221.023I0.093J1.585
G1X164.802Y222.805
X161.447Y224.533
X158.729Y225.445
X155.950Y226.378
X153.330Y227.052
X150.655Y227.741
G2X149.463Y229.278I0.396J1.537
G1Y230.130
Y230.981
G2X150.664Y232.521I1.588J0.000
G1X152.189Y232.904
X152.866Y233.074
X153.302Y234.392
X154.010Y236.540
G2X154.949Y237.524I1.508J-0.498
G1X155.914Y237.895
X156.880Y238.265
G2X157.448Y238.371I0.569J-1.482
G1X159.474
X161.500
G2X162.622Y237.906I0.000J-1.588
G1Z-2.000F304.8
G1X163.378Y237.150F1016.0
X164.133Y236.395
G2X164.598Y235.272I-1.123J-1.123
G1Y233.468
Y232.063
X165.059Y231.202
X165.539Y230.305
X168.694Y227.974
X172.137Y225.431
G2X172.781Y224.154I-0.943J-1.277
G1Y223.230
Y222.305
G2X171.101Y220.721I-1.588J0.000
G1X169.999Y220.785
X168.898Y220.849
G2X168.264Y221.023I0.093J1.585
G1X164.802Y222.805
X161.447Y224.533
X158.729Y225.445
X155.950Y226.378
X153.330Y227.052
X150.655Y227.741
G2X149.463Y229.278I0.396J1.537
G1Y230.130
Y230.981
G2X150.664Y232.521I1.588J0.000
G1X152.189Y232.904
X152.866Y233.074
X153.302Y234.392
X154.010Y236.540
G2X154.949Y237.524I1.508J-0.498
G1X155.914Y237.895
X156.880Y238.265
G2X157.448Y238.371I0.569J-1.482
G1X159.474
X161.500
G2X162.622Y237.906I0.000J-1.588
G1Z-3.000F304.8
G1X163.378Y237.150F1016.0
X164.133Y236.395
G2X164.598Y235.272I-1.123J-1.123
G1Y233.468
Y232.063
X165.059Y231.202
X165.539Y230.305
X168.694Y227.974
X172.137Y225.431
G2X172.781Y224.154I-0.943J-1.277
G1Y223.230
Y222.305
G2X171.101Y220.721I-1.588J0.000
G1X169.999Y220.785
X168.898Y220.849
G2X168.264Y221.023I0.093J1.585
G1X164.802Y222.805
X161.447Y224.533
X158.729Y225.445
X155.950Y226.378
X153.330Y227.052
X150.655Y227.741
G2X149.463Y229.278I0.396J1.537
G1Y230.130
Y230.981
G2X150.664Y232.521I1.588J0.000
G1X152.189Y232.904
X152.866Y233.074
X153.302Y234.392
X154.010Y236.540
G2X154.949Y237.524I1.508J-0.498
G1X155.914Y237.895
X156.880Y238.265
G2X157.448Y238.371I0.569J-1.482
G1X159.474
X161.500
G2X162.622Y237.906I0.000J-1.588
G0Z5.080
G0X195.952Y224.337
G1Z-1.000F304.8
G1X196.968Y226.968F1016.0
G2X197.173Y227.341I1.481J-0.572
G1X199.724Y230.788
X202.306Y234.276
X203.418Y235.590
X204.490Y236.857
X206.675Y239.506
X208.745Y242.016
X210.074Y244.762
X211.365Y247.428
X211.750Y251.154
X212.165Y255.157
G2X212.621Y256.116I1.579J-0.163
G1X213.064Y256.559
X213.507Y257.002
G2X215.377Y257.279I1.123J-1.123
G1X217.049Y256.387
X218.344Y255.695
X221.303Y255.802
X224.373Y255.913
X227.442Y257.318
X230.576Y258.753
X232.989Y260.932
X235.357Y263.071
X237.222Y266.860
X239.057Y270.588
X239.051Y273.799
X239.044Y277.000
X237.608Y279.808
X236.126Y282.705
X234.854Y283.883
X233.694Y284.957
X233.174Y285.070
X232.230Y285.275
G2X231.281Y285.894I0.336J1.551
G1X230.903Y286.415
X226.992Y286.666
X222.735Y286.939
X220.295Y285.820
X217.766Y284.661
X215.967Y282.786
X214.138Y280.878
X211.937Y276.232
X209.626Y271.354
G2X208.191Y270.446I-1.435J0.680
G1X207.377
X206.562
G2X205.193Y271.231I0.000J1.587
G1X203.505Y274.112
X201.846Y276.941
X198.975Y281.093
X196.150Y285.178
X189.924Y291.451
X183.678Y297.744
X179.675Y300.779
X175.668Y303.818
X170.095Y306.978
X164.515Y310.142
X160.829Y311.667
X157.100Y313.210
X151.483Y315.117
X145.917Y317.007
X139.726Y318.230
X133.526Y319.456
X127.799Y319.880
X121.976Y320.312
G2X120.506Y321.895I0.117J1.583
G1Y322.807
Y323.718
G2X120.939Y324.808I1.588J0.000
G1X122.836Y326.819
X124.567Y328.655
X125.775Y331.127
X126.927Y333.487
Y336.864
Y340.157
X125.759Y342.047
X124.467Y344.138
X122.984Y345.513
X121.596Y346.800
X118.924Y347.687
X116.174Y348.601
X112.574Y348.584
X109.077Y348.567
X106.048Y347.085
X102.978Y345.583
X100.726Y343.024
X98.546Y340.548
X98.236Y338.998
X97.873Y337.184
Y333.166
Y329.215
X98.430Y327.272
X98.940Y325.495
X100.686Y323.694
X102.240Y322.090
X104.592
X107.616
G2X109.203Y320.503I0.000J-1.587
G1Y319.624
Y318.745
G2X108.473Y317.409I-1.588J0.000
G1X105.363Y315.414
X102.470Y313.557
X99.236Y309.550
X95.931Y305.453
X94.400Y302.651
X92.832Y299.780
X89.828Y293.011
X86.745Y286.065
X83.389Y280.922
X80.103Y275.887
G2X79.873Y275.610I-1.329J0.868
G1X76.512Y272.380
X73.065Y269.068
X70.259Y267.080
X67.730Y265.288
X65.929Y263.055
X64.106Y260.794
X62.023Y256.451
X60.018Y252.270
X60.030Y248.243
X60.043Y244.107
X61.299Y240.346
X62.590Y236.481
X64.772Y232.555
X66.934Y228.664
X69.384Y225.994
X71.822Y223.337
X76.055Y220.621
X80.514Y217.760
X84.341Y214.854
X88.158Y211.955
X92.602Y208.115
X97.032Y204.287
X101.146Y200.439
X105.227Y196.622
X108.363Y193.800
X111.490Y190.986
X115.726Y187.434
X119.133Y184.578
X120.249Y187.498
X121.885Y191.781
G2X122.258Y192.349I1.483J-0.567
G1X124.925Y194.960
X127.592Y197.571
G2X128.063Y197.889I1.110J-1.134
G1X130.922Y199.150
X133.781Y200.411
G2X134.171Y200.526I0.640J-1.453
G1X136.793Y200.945
X139.415Y201.364
G2X139.960Y201.357I0.251J-1.568
G1X144.069Y200.581
X148.177Y199.806
G2X148.931Y199.438I-0.294J-1.560
G1X151.650Y197.045
X154.369Y194.652
G2X154.675Y194.288I-1.049J-1.192
G1X156.919Y190.613
X159.164Y186.938
G2X159.321Y186.597I-1.355J-0.828
G1X160.072Y184.263
X160.644Y182.486
X162.378Y181.414
X164.381Y180.176
X166.097Y179.795
X167.594Y179.462
X169.027Y180.039
X170.862Y180.778
X175.579Y183.090
X180.193Y185.352
X184.240Y188.578
X188.297Y191.811
X190.460Y194.400
X192.622Y196.988
X193.917Y199.406
X195.094Y201.606
X194.965Y211.154
X194.830Y221.112
G2X194.936Y221.705I1.587J0.021
G1X195.952Y224.337
G1Z-2.000F304.8
G1X196.968Y226.968F1016.0
G2X197.173Y227.341I1.481J-0.572
G1X199.724Y230.788
X202.306Y234.276
X203.418Y235.590
X204.490Y236.857
X206.675Y239.506
X208.745Y242.016
X210.074Y244.762
X211.365Y247.428
X211.750Y251.154
X212.165Y255.157
G2X212.621Y256.116I1.579J-0.163
G1X213.064Y256.559
X213.507Y257.002
G2X215.377Y257.279I1.123J-1.123
G1X217.049Y256.387
X218.344Y255.695
X221.303Y255.802
X224.373Y255.913
X227.442Y257.318
X230.576Y258.753
X232.989Y260.932
X235.357Y263.071
X237.222Y266.860
X239.057Y270.588
X239.051Y273.799
X239.044Y277.000
X237.608Y279.808
X236.126Y282.705
X234.854Y283.883
X233.694Y284.957
X233.174Y285.070
X232.230Y285.275
G2X231.281Y285.894I0.336J1.551
G1X230.903Y286.415
X226.992Y286.666
X222.735Y286.939
X220.295Y285.820
X217.766Y284.661
X215.967Y282.786
X214.138Y280.878
X211.937Y276.232
X209.626Y271.354
G2X208.191Y270.446I-1.435J0.680
G1X207.377
X206.562
G2X205.193Y271.231I0.000J1.587
G1X203.505Y274.112
X201.846Y276.941
X198.975Y281.093
X196.150Y285.178
X189.924Y291.451
X183.678Y297.744
X179.675Y300.779
X175.668Y303.818
X170.095Y306.978
X164.515Y310.142
X160.829Y311.667
X157.100Y313.210
X151.483Y315.117
X145.917Y317.007
X139.726Y318.230
X133.526Y319.456
X127.799Y319.880
X121.976Y320.312
G2X120.506Y321.895I0.117J1.583
G1Y322.807
Y323.718
G2X120.939Y324.808I1.588J0.000
G1X122.836Y326.819
X124.567Y328.655
X125.775Y331.127
X126.927Y333.487
Y336.864
Y340.157
X125.759Y342.047
X124.467Y344.138
X122.984Y345.513
X121.596Y346.800
X118.924Y347.687
X116.174Y348.601
X112.574Y348.584
X109.077Y348.567
X106.048Y347.085
X102.978Y345.583
X100.726Y343.024
X98.546Y340.548
X98.236Y338.998
X97.873Y337.184
Y333.166
Y329.215
X98.430Y327.272
X98.940Y325.495
X100.686Y323.694
X102.240Y322.090
X104.592
X107.616
G2X109.203Y320.503I0.000J-1.587
G1Y319.624
Y318.745
G2X108.473Y317.409I-1.588J0.000
G1X105.363Y315.414
X102.470Y313.557
X99.236Y309.550
X95.931Y305.453
X94.400Y302.651
X92.832Y299.780
X89.828Y293.011
X86.745Y286.065
X83.389Y280.922
X80.103Y275.887
G2X79.873Y275.610I-1.329J0.868
G1X76.512Y272.380
X73.065Y269.068
X70.259Y267.080
X67.730Y265.288
X65.929Y263.055
X64.106Y260.794
X62.023Y256.451
X60.018Y252.270
X60.030Y248.243
X60.043Y244.107
X61.299Y240.346
X62.590Y236.481
X64.772Y232.555
X66.934Y228.664
X69.384Y225.994
X71.822Y223.337
X76.055Y220.621
X80.514Y217.760
X84.341Y214.854
X88.158Y211.955
X92.602Y208.115
X97.032Y204.287
X101.146Y200.439
X105.227Y196.622
X108.363Y193.800
X111.490Y190.986
X115.726Y187.434
X119.133Y184.578
X120.249Y187.498
X121.885Y191.781
G2X122.258Y192.349I1.483J-0.567
G1X124.925Y194.960
X127.592Y197.571
G2X128.063Y197.889I1.110J-1.134
G1X130.922Y199.150
X133.781Y200.411
G2X134.171Y200.526I0.640J-1.453
G1X136.793Y200.945
X139.415Y201.364
G2X139.960Y201.357I0.251J-1.568
G1X144.069Y200.581
X148.177Y199.806
G2X148.931Y199.438I-0.294J-1.560
G1X151.650Y197.045
X154.369Y194.652
G2X154.675Y194.288I-1.049J-1.192
G1X156.919Y190.613
X159.164Y186.938
G2X159.321Y186.597I-1.355J-0.828
G1X160.072Y184.263
X160.644Y182.486
X162.378Y181.414
X164.381Y180.176
X166.097Y179.795
X167.594Y179.462
X169.027Y180.039
X170.862Y180.778
X175.579Y183.090
X180.193Y185.352
X184.240Y188.578
X188.297Y191.811
X190.460Y194.400
X192.622Y196.988
X193.917Y199.406
X195.094Y201.606
X194.965Y211.154
X194.830Y221.112
G2X194.936Y221.705I1.587J0.021
G1X195.952Y224.337
G1Z-3.000F304.8
G1X196.968Y226.968F1016.0
G2X197.173Y227.341I1.481J-0.572
G1X199.724Y230.788
X202.306Y234.276
X203.418Y235.590
X204.490Y236.857
X206.675Y239.506
X208.745Y242.016
X210.074Y244.762
X211.365Y247.428
X211.750Y251.154
X212.165Y255.157
G2X212.621Y256.116I1.579J-0.163
G1X213.064Y256.559
X213.507Y257.002
G2X215.377Y257.279I1.123J-1.123
G1X217.049Y256.387
X218.344Y255.695
X221.303Y255.802
X224.373Y255.913
X227.442Y257.318
X230.576Y258.753
X232.989Y260.932
X235.357Y263.071
X237.222Y266.860
X239.057Y270.588
X239.051Y273.799
X239.044Y277.000
X237.608Y279.808
X236.126Y282.705
X234.854Y283.883
X233.694Y284.957
X233.174Y285.070
X232.230Y285.275
G2X231.281Y285.894I0.336J1.551
G1X230.903Y286.415
X226.992Y286.666
X222.735Y286.939
X220.295Y285.820
X217.766Y284.661
X215.967Y282.786
X214.138Y280.878
X211.937Y276.232
X209.626Y271.354
G2X208.191Y270.446I-1.435J0.680
G1X207.377
X206.562
G2X205.193Y271.231I0.000J1.587
G1X203.505Y274.112
X201.846Y276.941
X198.975Y281.093
X196.150Y285.178
X189.924Y291.451
X183.678Y297.744
X179.675Y300.779
X175.668Y303.818
X170.095Y306.978
X164.515Y310.142
X160.829Y311.667
X157.100Y313.210
X151.483Y315.117
X145.917Y317.007
X139.726Y318.230
X133.526Y319.456
X127.799Y319.880
X121.976Y320.312
G2X120.506Y321.895I0.117J1.583
G1Y322.807
Y323.718
G2X120.939Y324.808I1.588J0.000
G1X122.836Y326.819
X124.567Y328.655
X125.775Y331.127
X126.927Y333.487
Y336.864
Y340.157
X125.759Y342.047
X124.467Y344.138
X122.984Y345.513
X121.596Y346.800
X118.924Y347.687
X116.174Y348.601
X112.574Y348.584
X109.077Y348.567
X106.048Y347.085
X102.978Y345.583
X100.726Y343.024
X98.546Y340.548
X98.236Y338.998
X97.873Y337.184
Y333.166
Y329.215
X98.430Y327.272
X98.940Y325.495
X100.686Y323.694
X102.240Y322.090
X104.592
X107.616
G2X109.203Y320.503I0.000J-1.587
G1Y319.624
Y318.745
G2X108.473Y317.409I-1.588J0.000
G1X105.363Y315.414
X102.470Y313.557
X99.236Y309.550
X95.931Y305.453
X94.400Y302.651
X92.832Y299.780
X89.828Y293.011
X86.745Y286.065
X83.389Y280.922
X80.103Y275.887
G2X79.873Y275.610I-1.329J0.868
G1X76.512Y272.380
X73.065Y269.068
X70.259Y267.080
X67.730Y265.288
X65.929Y263.055
X64.106Y260.794
X62.023Y256.451
X60.018Y252.270
X60.030Y248.243
X60.043Y244.107
X61.299Y240.346
X62.590Y236.481
X64.772Y232.555
X66.934Y228.664
X69.384Y225.994
X71.822Y223.337
X76.055Y220.621
X80.514Y217.760
X84.341Y214.854
X88.158Y211.955
X92.602Y208.115
X97.032Y204.287
X101.146Y200.439
X105.227Y196.622
X108.363Y193.800
X111.490Y190.986
X115.726Y187.434
X119.133Y184.578
X120.249Y187.498
X121.885Y191.781
G2X122.258Y192.349I1.483J-0.567
G1X124.925Y194.960
X127.592Y197.571
G2X128.063Y197.889I1.110J-1.134
G1X130.922Y199.150
X133.781Y200.411
G2X134.171Y200.526I0.640J-1.453
G1X136.793Y200.945
X139.415Y201.364
G2X139.960Y201.357I0.251J-1.568
G1X144.069Y200.581
X148.177Y199.806
G2X148.931Y199.438I-0.294J-1.560
G1X151.650Y197.045
X154.369Y194.652
G2X154.675Y194.288I-1.049J-1.192
G1X156.919Y190.613
X159.164Y186.938
G2X159.321Y186.597I-1.355J-0.828
G1X160.072Y184.263
X160.644Y182.486
X162.378Y181.414
X164.381Y180.176
X166.097Y179.795
X167.594Y179.462
X169.027Y180.039
X170.862Y180.778
X175.579Y183.090
X180.193Y185.352
X184.240Y188.578
X188.297Y191.811
X190.460Y194.400
X192.622Y196.988
X193.917Y199.406
X195.094Y201.606
X194.965Y211.154
X194.830Y221.112
G2X194.936Y221.705I1.587J0.021
G1X195.952Y224.337
G0Z5.080
G0X118.619Y175.573
G1Z-1.000F304.8
G1X117.917Y176.576F1016.0
X117.076Y177.777
X114.024Y180.036
X110.716Y182.484
X105.321Y187.141
X99.937Y191.789
X95.106Y196.456
X90.361Y201.040
X84.542Y205.685
X78.754Y210.306
X74.737Y212.655
X70.731Y214.998
X67.387Y216.294
X64.041Y217.591
X61.330Y218.178
X58.595Y218.770
X54.790Y219.103
X55.346Y218.523
G2X55.722Y217.874I-1.146J-1.098
G1X56.522Y215.163
X57.066Y213.322
X61.480Y212.213
X66.774Y210.884
G2X67.165Y210.728I-0.387J-1.540
G1X69.693Y209.307
X72.222Y207.885
G2X72.754Y207.399I-0.778J-1.384
G1X74.159Y205.348
X75.565Y203.296
G2X75.843Y202.399I-1.310J-0.897
G1Y201.337
Y200.274
G2X74.255Y198.686I-1.588J0.000
G1X73.237
X72.218
G2X71.171Y199.081I0.000J1.587
G1X69.025Y200.965
X67.027Y202.719
X64.841Y203.834
X62.684Y204.935
X59.279Y205.564
X55.762Y206.214
X44.055Y206.635
X39.847Y206.786
X41.685Y204.903
X45.008Y201.499
G2X45.301Y201.082I-1.136J-1.109
G1X46.719Y198.152
X48.210Y195.073
X48.985Y191.963
X49.508Y189.860
X55.895Y187.740
X62.892Y185.417
X66.438Y185.302
X69.189Y185.213
X69.875Y186.617
X71.012Y188.944
G2X73.007Y189.729I1.426J-0.697
G1X73.962Y189.362
X74.918Y188.996
G2X75.889Y187.130I-0.569J-1.482
G1X75.558Y185.799
X75.243Y184.535
X74.849Y182.058
X74.596Y180.463
X78.193Y177.788
X82.562Y174.539
G2X82.922Y174.166I-0.947J-1.274
G1X85.229Y170.817
X87.535Y167.469
G2X87.711Y167.132I-1.307J-0.900
G1X88.902Y163.998
X90.154Y160.705
X90.633Y157.509
X90.780Y156.530
X90.931Y156.596
G2X91.412Y156.721I0.635J-1.455
G1X96.447Y157.212
X101.543Y157.709
X113.088Y157.962
X123.098Y158.181
X121.920Y160.778
X120.517Y163.873
X119.500Y163.743
X117.233Y163.453
X108.460Y163.306
X99.775Y163.161
G2X98.977Y163.361I-0.027J1.587
G1X97.522Y164.171
X96.067Y164.981
G2X95.334Y166.870I0.772J1.387
G1X95.574Y167.590
X95.814Y168.311
G2X97.308Y169.396I1.506J-0.502
G1X105.132Y169.456
X110.520Y169.497
X110.323Y169.628
X106.760Y172.395
X103.197Y175.161
G2X102.786Y175.640I0.974J1.254
G1X102.271Y176.559
X101.757Y177.477
G2X101.792Y179.087I1.385J0.775
G1X102.178Y179.711
X102.564Y180.336
G2X103.915Y181.089I1.350J-0.835
G1X104.773
X105.632
G2X106.654Y180.716I0.000J-1.587
G1X108.449Y179.206
X110.141Y177.782
X113.818Y175.627
X117.414Y173.519
X118.619Y173.217
Y173.628
Y175.573
G1Z-2.000F304.8
G1X117.917Y176.576F1016.0
X117.076Y177.777
X114.024Y180.036
X110.716Y182.484
X105.321Y187.141
X99.937Y191.789
X95.106Y196.456
X90.361Y201.040
X84.542Y205.685
X78.754Y210.306
X74.737Y212.655
X70.731Y214.998
X67.387Y216.294
X64.041Y217.591
X61.330Y218.178
X58.595Y218.770
X54.790Y219.103
X55.346Y218.523
G2X55.722Y217.874I-1.146J-1.098
G1X56.522Y215.163
X57.066Y213.322
X61.480Y212.213
X66.774Y210.884
G2X67.165Y210.728I-0.387J-1.540
G1X69.693Y209.307
X72.222Y207.885
G2X72.754Y207.399I-0.778J-1.384
G1X74.159Y205.348
X75.565Y203.296
G2X75.843Y202.399I-1.310J-0.897
G1Y201.337
Y200.274
G2X74.255Y198.686I-1.588J0.000
G1X73.237
X72.218
G2X71.171Y199.081I0.000J1.587
G1X69.025Y200.965
X67.027Y202.719
X64.841Y203.834
X62.684Y204.935
X59.279Y205.564
X55.762Y206.214
X44.055Y206.635
X39.847Y206.786
X41.685Y204.903
X45.008Y201.499
G2X45.301Y201.082I-1.136J-1.109
G1X46.719Y198.152
X48.210Y195.073
X48.985Y191.963
X49.508Y189.860
X55.895Y187.740
X62.892Y185.417
X66.438Y185.302
X69.189Y185.213
X69.875Y186.617
X71.012Y188.944
G2X73.007Y189.729I1.426J-0.697
G1X73.962Y189.362
X74.918Y188.996
G2X75.889Y187.130I-0.569J-1.482
G1X75.558Y185.799
X75.243Y184.535
X74.849Y182.058
X74.596Y180.463
X78.193Y177.788
X82.562Y174.539
G2X82.922Y174.166I-0.947J-1.274
G1X85.229Y170.817
X87.535Y167.469
G2X87.711Y167.132I-1.307J-0.900
G1X88.902Y163.998
X90.154Y160.705
X90.633Y157.509
X90.780Y156.530
X90.931Y156.596
G2X91.412Y156.721I0.635J-1.455
G1X96.447Y157.212
X101.543Y157.709
X113.088Y157.962
X123.098Y158.181
X121.920Y160.778
X120.517Y163.873
X119.500Y163.743
X117.233Y163.453
X108.460Y163.306
X99.775Y163.161
G2X98.977Y163.361I-0.027J1.587
G1X97.522Y164.171
X96.067Y164.981
G2X95.334Y166.870I0.772J1.387
G1X95.574Y167.590
X95.814Y168.311
G2X97.308Y169.396I1.506J-0.502
G1X105.132Y169.456
X110.520Y169.497
X110.323Y169.628
X106.760Y172.395
X103.197Y175.161
G2X102.786Y175.640I0.974J1.254
G1X102.271Y176.559
X101.757Y177.477
G2X101.792Y179.087I1.385J0.775
G1X102.178Y179.711
X102.564Y180.336
G2X103.915Y181.089I1.350J-0.835
G1X104.773
X105.632
G2X106.654Y180.716I0.000J-1.587
G1X108.449Y179.206
X110.141Y177.782
X113.818Y175.627
X117.414Y173.519
X118.619Y173.217
Y173.628
Y175.573
G1Z-3.000F304.8
G1X117.917Y176.576F1016.0
X117.076Y177.777
X114.024Y180.036
X110.716Y182.484
X105.321Y187.141
X99.937Y191.789
X95.106Y196.456
X90.361Y201.040
X84.542Y205.685
X78.754Y210.306
X74.737Y212.655
X70.731Y214.998
X67.387Y216.294
X64.041Y217.591
X61.330Y218.178
X58.595Y218.770
X54.790Y219.103
X55.346Y218.523
G2X55.722Y217.874I-1.146J-1.098
G1X56.522Y215.163
X57.066Y213.322
X61.480Y212.213
X66.774Y210.884
G2X67.165Y210.728I-0.387J-1.540
G1X69.693Y209.307
X72.222Y207.885
G2X72.754Y207.399I-0.778J-1.384
G1X74.159Y205.348
X75.565Y203.296
G2X75.843Y202.399I-1.310J-0.897
G1Y201.337
Y200.274
G2X74.255Y198.686I-1.588J0.000
G1X73.237
X72.218
G2X71.171Y199.081I0.000J1.587
G1X69.025Y200.965
X67.027Y202.719
X64.841Y203.834
X62.684Y204.935
X59.279Y205.564
X55.762Y206.214
X44.055Y206.635
X39.847Y206.786
X41.685Y204.903
X45.008Y201.499
G2X45.301Y201.082I-1.136J-1.109
G1X46.719Y198.152
X48.210Y195.073
X48.985Y191.963
X49.508Y189.860
X55.895Y187.740
X62.892Y185.417
X66.438Y185.302
X69.189Y185.213
X69.875Y186.617
X71.012Y188.944
G2X73.007Y189.729I1.426J-0.697
G1X73.962Y189.362
X74.918Y188.996
G2X75.889Y187.130I-0.569J-1.482
G1X75.558Y185.799
X75.243Y184.535
X74.849Y182.058
X74.596Y180.463
X78.193Y177.788
X82.562Y174.539
G2X82.922Y174.166I-0.947J-1.274
G1X85.229Y170.817
X87.535Y167.469
G2X87.711Y167.132I-1.307J-0.900
G1X88.902Y163.998
X90.154Y160.705
X90.633Y157.509
X90.780Y156.530
X90.931Y156.596
G2X91.412Y156.721I0.635J-1.455
G1X96.447Y157.212
X101.543Y157.709
X113.088Y157.962
X123.098Y158.181
X121.920Y160.778
X120.517Y163.873
X119.500Y163.743
X117.233Y163.453
X108.460Y163.306
X99.775Y163.161
G2X98.977Y163.361I-0.027J1.587
G1X97.522Y164.171
X96.067Y164.981
G2X95.334Y166.870I0.772J1.387
G1X95.574Y167.590
X95.814Y168.311
G2X97.308Y169.396I1.506J-0.502
G1X105.132Y169.456
X110.520Y169.497
X110.323Y169.628
X106.760Y172.395
X103.197Y175.161
G2X102.786Y175.640I0.974J1.254
G1X102.271Y176.559
X101.757Y177.477
G2X101.792Y179.087I1.385J0.775
G1X102.178Y179.711
X102.564Y180.336
G2X103.915Y181.089I1.350J-0.835
G1X104.773
X105.632
G2X106.654Y180.716I0.000J-1.587
G1X108.449Y179.206
X110.141Y177.782
X113.818Y175.627
X117.414Y173.519
X118.619Y173.217
Y173.628
Y175.573
G0Z5.080
G0X83.052Y161.182
G1Z-1.000F304.8
G1X81.663Y163.901F1016.0
X80.230Y166.707
X76.969Y169.697
X73.673Y172.719
X67.594Y175.605
X61.371Y178.559
X49.842Y182.667
X38.236Y186.802
G2X37.647Y187.174I0.533J1.495
G1X37.064Y187.758
X36.481Y188.341
G2X36.253Y190.298I1.123J1.123
G1X36.666Y190.966
X37.079Y191.635
G2X38.645Y192.373I1.350J-0.835
G1X41.450Y191.988
X42.065Y191.904
X40.979Y194.077
X39.441Y197.154
X37.976Y198.716
X36.826Y199.942
X35.275Y199.933
X33.418Y199.924
X29.873Y198.069
X26.114Y196.103
X22.443Y193.233
X18.807Y190.390
X16.274Y187.202
X13.740Y184.011
X12.344Y181.032
X11.020Y178.206
X11.026Y174.785
X11.033Y171.350
X12.037Y169.141
X13.048Y166.916
X16.422Y163.832
X19.864Y160.686
X24.164Y158.623
X28.616Y156.487
X38.621Y152.656
X48.745Y148.780
X52.615Y146.933
X56.428Y145.113
G2X56.909Y144.759I-0.684J-1.433
G1X59.332Y142.140
X61.538Y139.756
X63.830Y138.715
X66.104Y137.683
X68.676Y137.670
X71.311Y137.657
X73.803Y138.536
X76.228Y139.391
X77.972Y141.082
X79.752Y142.807
X81.396Y146.399
X83.021Y149.950
X83.037Y155.586
X83.052Y161.182
G1Z-2.000F304.8
G1X81.663Y163.901F1016.0
X80.230Y166.707
X76.969Y169.697
X73.673Y172.719
X67.594Y175.605
X61.371Y178.559
X49.842Y182.667
X38.236Y186.802
G2X37.647Y187.174I0.533J1.495
G1X37.064Y187.758
X36.481Y188.341
G2X36.253Y190.298I1.123J1.123
G1X36.666Y190.966
X37.079Y191.635
G2X38.645Y192.373I1.350J-0.835
G1X41.450Y191.988
X42.065Y191.904
X40.979Y194.077
X39.441Y197.154
X37.976Y198.716
X36.826Y199.942
X35.275Y199.933
X33.418Y199.924
X29.873Y198.069
X26.114Y196.103
X22.443Y193.233
X18.807Y190.390
X16.274Y187.202
X13.740Y184.011
X12.344Y181.032
X11.020Y178.206
X11.026Y174.785
X11.033Y171.350
X12.037Y169.141
X13.048Y166.916
X16.422Y163.832
X19.864Y160.686
X24.164Y158.623
X28.616Y156.487
X38.621Y152.656
X48.745Y148.780
X52.615Y146.933
X56.428Y145.113
G2X56.909Y144.759I-0.684J-1.433
G1X59.332Y142.140
X61.538Y139.756
X63.830Y138.715
X66.104Y137.683
X68.676Y137.670
X71.311Y137.657
X73.803Y138.536
X76.228Y139.391
X77.972Y141.082
X79.752Y142.807
X81.396Y146.399
X83.021Y149.950
X83.037Y155.586
X83.052Y161.182
G1Z-3.000F304.8
G1X81.663Y163.901F1016.0
X80.230Y166.707
X76.969Y169.697
X73.673Y172.719
X67.594Y175.605
X61.371Y178.559
X49.842Y182.667
X38.236Y186.802
G2X37.647Y187.174I0.533J1.495
G1X37.064Y187.758
X36.481Y188.341
G2X36.253Y190.298I1.123J1.123
G1X36.666Y190.966
X37.079Y191.635
G2X38.645Y192.373I1.350J-0.835
G1X41.450Y191.988
X42.065Y191.904
X40.979Y194.077
X39.441Y197.154
X37.976Y198.716
X36.826Y199.942
X35.275Y199.933
X33.418Y199.924
X29.873Y198.069
X26.114Y196.103
X22.443Y193.233
X18.807Y190.390
X16.274Y187.202
X13.740Y184.011
X12.344Y181.032
X11.020Y178.206
X11.026Y174.785
X11.033Y171.350
X12.037Y169.141
X13.048Y166.916
X16.422Y163.832
X19.864Y160.686
X24.164Y158.623
X28.616Y156.487
X38.621Y152.656
X48.745Y148.780
X52.615Y146.933
X56.428Y145.113
G2X56.909Y144.759I-0.684J-1.433
G1X59.332Y142.140
X61.538Y139.756
X63.830Y138.715
X66.104Y137.683
X68.676Y137.670
X71.311Y137.657
X73.803Y138.536
X76.228Y139.391
X77.972Y141.082
X79.752Y142.807
X81.396Y146.399
X83.021Y149.950
X83.037Y155.586
X83.052Y161.182
G0Z5.080
G0X31.000Y206.109
G1Z-1.000F304.8
G1X31.333Y206.731F1016.0
X31.357Y206.775
X31.123Y206.717
X30.296Y206.509
X29.966Y205.815
X30.389Y205.935
X31.000Y206.109
G1Z-2.000F304.8
G1X31.333Y206.731F1016.0
X31.357Y206.775
X31.123Y206.717
X30.296Y206.509
X29.966Y205.815
X30.389Y205.935
X31.000Y206.109
G1Z-3.000F304.8
G1X31.333Y206.731F1016.0
X31.357Y206.775
X31.123Y206.717
X30.296Y206.509
X29.966Y205.815
X30.389Y205.935
X31.000Y206.109
G0Z5.080
G0X27.619Y213.038
G1Z-1.000F304.8
G1X29.535Y213.832F1016.0
G2X30.173Y213.952I0.608J-1.467
G1X35.076Y213.859
X40.032Y213.766
X42.468Y213.555
X44.851Y213.350
G2X45.837Y212.891I-0.136J-1.582
G1X46.167Y212.561
X46.893
X47.728
X48.954Y213.526
X49.957Y214.315
X48.420Y216.437
X46.532Y219.044
G2X46.230Y219.975I1.286J0.931
G1Y221.432
Y222.889
G2X47.068Y224.289I1.588J0.000
G1X48.431Y225.018
X49.795Y225.748
G2X50.614Y225.934I0.749J-1.400
G1X57.071Y225.647
X60.156Y225.510
X59.173Y226.811
X57.141Y230.833
X55.093Y234.884
X53.739Y240.242
X52.427Y245.429
G2X52.381Y245.905I1.539J0.389
G1X52.661Y250.987
X52.942Y256.068
G2X53.114Y256.704I1.585J-0.087
G1X54.831Y260.059
X56.548Y263.413
G2X56.836Y263.810I1.413J-0.723
G1X60.105Y267.092
X63.427Y270.428
X69.002Y275.051
X74.370Y279.503
X76.672Y282.614
X78.992Y285.752
X80.245Y288.440
X81.550Y291.238
X83.980Y297.182
X86.458Y303.245
X89.065Y308.003
X91.709Y312.828
X94.362Y315.908
X95.914Y317.710
X95.564Y318.039
X94.106Y319.409
G2X93.795Y319.814I1.087J1.157
G1X92.204Y322.772
X90.613Y325.729
G2X90.439Y326.263I1.398J0.752
G1X89.959Y329.725
X89.458Y333.342
X89.582Y335.473
X89.696Y337.449
G2X89.810Y337.955I1.585J-0.092
G1X91.274Y341.554
X92.738Y345.152
G2X93.070Y345.660I1.470J-0.598
G1X95.419Y348.081
X97.769Y350.502
G2X98.200Y350.817I1.139J-1.106
G1X101.419Y352.421
X104.638Y354.025
G2X105.346Y354.192I0.708J-1.421
G1X113.927
X122.508
G2X123.385Y353.928I0.000J-1.587
G1X126.380Y351.944
X129.374Y349.961
G2X129.834Y349.495I-0.877J-1.323
G1X131.287Y347.229
X132.741Y344.964
G2X132.919Y344.585I-1.336J-0.857
G1X133.693Y342.133
X134.467Y339.681
G2X134.536Y339.076I-1.514J-0.478
G1X134.219Y335.129
X133.902Y331.182
G2X133.698Y330.521I-1.582J0.127
G1X131.752Y327.120
X131.016Y325.833
X135.422Y325.373
X142.365Y324.647
X148.805Y323.014
X155.214Y321.390
X160.304Y319.513
X165.401Y317.634
X170.734Y314.952
X176.079Y312.265
X180.878Y309.026
X185.674Y305.790
X187.961Y303.800
X190.225Y301.830
X195.170Y296.746
X200.142Y291.634
X202.859Y287.986
X205.536Y284.392
X206.779Y282.552
X206.837Y282.665
X208.117Y285.175
G2X208.316Y285.476I1.414J-0.721
G1X209.970Y287.440
X211.623Y289.405
G2X212.172Y289.824I1.215J-1.022
G1X215.112Y291.183
X218.053Y292.542
G2X218.642Y292.687I0.666J-1.441
G1X224.714Y292.980
X230.785Y293.273
G2X231.359Y293.194I0.076J-1.586
G1X233.575Y292.463
X235.791Y291.732
G2X236.342Y291.416I-0.498J-1.508
G1X239.091Y288.996
X241.840Y286.576
G2X242.207Y286.102I-1.049J-1.192
G1X244.075Y282.416
X245.943Y278.730
G2X246.114Y278.012I-1.416J-0.718
G1Y272.662
Y267.311
G2X245.960Y266.627I-1.587J0.000
G1X244.307Y263.165
X242.654Y259.703
G2X242.419Y259.344I-1.433J0.684
G1X240.088Y256.669
X237.758Y253.994
G2X237.249Y253.606I-1.197J1.043
G1X232.734Y251.435
X228.219Y249.263
G2X227.790Y249.128I-0.688J1.431
G1X223.166Y248.364
X219.443Y247.749
X219.267Y247.288
X218.758Y245.951
X217.611Y243.190
X216.473Y240.450
X216.301Y240.139
X214.364Y237.414
X212.371Y234.611
X210.107Y232.135
X207.941Y229.765
X205.657Y226.949
X203.499Y224.288
X202.857Y222.649
X202.232Y221.052
X202.123Y210.642
X202.012Y199.941
G2X201.865Y199.291I-1.587J0.017
G1X200.168Y195.626
X198.417Y191.846
X196.374Y188.819
X195.474Y187.484
X198.845Y185.269
X202.594Y182.806
G2X203.309Y181.537I-0.872J-1.327
G1X203.624Y172.836
X203.942Y164.058
X203.568Y157.903
X203.198Y151.825
G2X203.040Y151.223I-1.585J0.096
G1X201.301Y147.671
X199.563Y144.118
G2X199.255Y143.689I-1.426J0.698
G1X196.327Y140.784
X193.399Y137.880
G2X192.952Y137.568I-1.118J1.127
G1X187.916Y135.219
X182.880Y132.870
G2X182.530Y132.754I-0.671J1.439
G1X180.327Y132.300
X178.343Y131.890
X177.490Y131.443
X177.827Y130.565
X179.109Y123.794
X180.347Y117.256
X180.942Y115.381
X181.253Y114.397
X182.949Y114.206
X185.668Y113.899
G2X186.150Y113.766I-0.178J-1.578
G1X189.859Y112.074
X193.569Y110.381
G2X194.022Y110.070I-0.659J-1.444
G1X196.966Y107.180
X199.909Y104.291
G2X200.243Y103.813I-1.112J-1.133
G1X201.985Y99.967
X203.727Y96.120
G2X203.869Y95.463I-1.446J-0.655
G1X203.861Y90.113
X203.854Y84.762
G2X203.788Y84.312I-1.587J0.002
G1X202.750Y80.821
X201.712Y77.329
G2X201.524Y76.920I-1.522J0.452
G1X199.036Y73.070
X197.129Y70.120
G2X195.332Y67.810I-1.384J-0.778
G1X193.514Y66.059
X190.822Y63.467
X183.273Y56.484
X175.616Y49.401
X171.228Y46.761
X166.980Y44.205
G2X166.456Y44.005I-0.818J1.360
G1X162.359Y43.232
X158.263Y42.459
G2X157.772Y42.444I-0.294J1.560
G1X154.326Y42.875
X150.880Y43.305
G2X150.378Y43.455I0.197J1.575
G1X143.914Y46.625
X137.856Y49.596
X134.215Y49.232
X130.120Y48.822
X124.136Y48.251
X118.086Y47.673
X112.859Y47.642
X108.237Y47.615
X104.644Y44.861
X100.540Y41.715
X96.974Y39.703
X93.505Y37.745
G2X92.723Y37.540I-0.780J1.383
G1X86.163Y37.548
X79.605Y37.552
G2X78.816Y37.763I0.001J1.588
G1X75.455Y39.690
X72.094Y41.618
G2X71.761Y41.872I0.790J1.377
G1X64.092Y49.538
X56.457Y57.171
X54.854Y58.592
X53.573Y59.728
X49.946Y60.241
X45.676Y60.846
X41.006Y62.577
X36.495Y64.249
G2X36.073Y64.484I0.552J1.489
G1X32.736Y67.075
X29.264Y69.771
X27.578Y71.789
X25.889Y73.809
X23.859Y77.742
X21.909Y81.519
G2X21.753Y81.990I1.411J0.728
G1X21.004Y86.564
X20.255Y91.138
G2X20.249Y91.613I1.567J0.257
G1X20.969Y96.796
X21.686Y101.951
X22.622Y111.050
X23.573Y120.290
X24.859Y125.436
X26.160Y130.643
X28.766Y135.813
X30.782Y139.809
X29.060Y141.564
X26.541Y144.130
G2X26.087Y145.242I1.133J1.112
G1Y146.112
Y146.983
G2X26.497Y148.048I1.588J0.000
G1X27.320Y148.957
X26.513
G2X25.789Y149.132I0.000J1.588
G1X20.575Y151.805
X15.360Y154.479
G2X14.982Y154.749I0.724J1.413
G1X11.066Y158.528
X7.150Y162.306
G2X6.726Y163.012I1.102J1.142
G1X5.668Y166.712
X4.610Y170.411
G2X4.549Y170.872I1.526J0.437
G1X4.614Y175.109
X4.678Y179.347
G2X4.768Y179.851I1.587J-0.024
G1X5.663Y182.386
X6.594Y185.024
X7.612Y186.993
X8.579Y188.864
G2X8.822Y189.210I1.410J-0.729
G1X14.555Y195.436
X20.127Y201.486
X22.451Y206.365
X24.877Y211.460
G2X25.703Y212.244I1.433J-0.683
G1X27.619Y213.038
G1Z-2.000F304.8
G1X29.535Y213.832F1016.0
G2X30.173Y213.952I0.608J-1.467
G1X35.076Y213.859
X40.032Y213.766
X42.468Y213.555
X44.851Y213.350
G2X45.837Y212.891I-0.136J-1.582
G1X46.167Y212.561
X46.893
X47.728
X48.954Y213.526
X49.957Y214.315
X48.420Y216.437
X46.532Y219.044
G2X46.230Y219.975I1.286J0.931
G1Y221.432
Y222.889
G2X47.068Y224.289I1.588J0.000
G1X48.431Y225.018
X49.795Y225.748
G2X50.614Y225.934I0.749J-1.400
G1X57.071Y225.647
X60.156Y225.510
X59.173Y226.811
X57.141Y230.833
X55.093Y234.884
X53.739Y240.242
X52.427Y245.429
G2X52.381Y245.905I1.539J0.389
G1X52.661Y250.987
X52.942Y256.068
G2X53.114Y256.704I1.585J-0.087
G1X54.831Y260.059
X56.548Y263.413
G2X56.836Y263.810I1.413J-0.723
G1X60.105Y267.092
X63.427Y270.428
X69.002Y275.051
X74.370Y279.503
X76.672Y282.614
X78.992Y285.752
X80.245Y288.440
X81.550Y291.238
X83.980Y297.182
X86.458Y303.245
X89.065Y308.003
X91.709Y312.828
X94.362Y315.908
X95.914Y317.710
X95.564Y318.039
X94.106Y319.409
G2X93.795Y319.814I1.087J1.157
G1X92.204Y322.772
X90.613Y325.729
G2X90.439Y326.263I1.398J0.752
G1X89.959Y329.725
X89.458Y333.342
X89.582Y335.473
X89.696Y337.449
G2X89.810Y337.955I1.585J-0.092
G1X91.274Y341.554
X92.738Y345.152
G2X93.070Y345.660I1.470J-0.598
G1X95.419Y348.081
X97.769Y350.502
G2X98.200Y350.817I1.139J-1.106
G1X101.419Y352.421
X104.638Y354.025
G2X105.346Y354.192I0.708J-1.421
G1X113.927
X122.508
G2X123.385Y353.928I0.000J-1.587
G1X126.380Y351.944
X129.374Y349.961
G2X129.834Y349.495I-0.877J-1.323
G1X131.287Y347.229
X132.741Y344.964
G2X132.919Y344.585I-1.336J-0.857
G1X133.693Y342.133
X134.467Y339.681
G2X134.536Y339.076I-1.514J-0.478
G1X134.219Y335.129
X133.902Y331.182
G2X133.698Y330.521I-1.582J0.127
G1X131.752Y327.120
X131.016Y325.833
X135.422Y325.373
X142.365Y324.647
X148.805Y323.014
X155.214Y321.390
X160.304Y319.513
X165.401Y317.634
X170.734Y314.952
X176.079Y312.265
X180.878Y309.026
X185.674Y305.790
X187.961Y303.800
X190.225Y301.830
X195.170Y296.746
X200.142Y291.634
X202.859Y287.986
X205.536Y284.392
X206.779Y282.552
X206.837Y282.665
X208.117Y285.175
G2X208.316Y285.476I1.414J-0.721
G1X209.970Y287.440
X211.623Y289.405
G2X212.172Y289.824I1.215J-1.022
G1X215.112Y291.183
X218.053Y292.542
G2X218.642Y292.687I0.666J-1.441
G1X224.714Y292.980
X230.785Y293.273
G2X231.359Y293.194I0.076J-1.586
G1X233.575Y292.463
X235.791Y291.732
G2X236.342Y291.416I-0.498J-1.508
G1X239.091Y288.996
X241.840Y286.576
G2X242.207Y286.102I-1.049J-1.192
G1X244.075Y282.416
X245.943Y278.730
G2X246.114Y278.012I-1.416J-0.718
G1Y272.662
Y267.311
G2X245.960Y266.627I-1.587J0.000
G1X244.307Y263.165
X242.654Y259.703
G2X242.419Y259.344I-1.433J0.684
G1X240.088Y256.669
X237.758Y253.994
G2X237.249Y253.606I-1.197J1.043
G1X232.734Y251.435
X228.219Y249.263
G2X227.790Y249.128I-0.688J1.431
G1X223.166Y248.364
X219.443Y247.749
X219.267Y247.288
X218.758Y245.951
X217.611Y243.190
X216.473Y240.450
X216.301Y240.139
X214.364Y237.414
X212.371Y234.611
X210.107Y232.135
X207.941Y229.765
X205.657Y226.949
X203.499Y224.288
X202.857Y222.649
X202.232Y221.052
X202.123Y210.642
X202.012Y199.941
G2X201.865Y199.291I-1.587J0.017
G1X200.168Y195.626
X198.417Y191.846
X196.374Y188.819
X195.474Y187.484
X198.845Y185.269
X202.594Y182.806
G2X203.309Y181.537I-0.872J-1.327
G1X203.624Y172.836
X203.942Y164.058
X203.568Y157.903
X203.198Y151.825
G2X203.040Y151.223I-1.585J0.096
G1X201.301Y147.671
X199.563Y144.118
G2X199.255Y143.689I-1.426J0.698
G1X196.327Y140.784
X193.399Y137.880
G2X192.952Y137.568I-1.118J1.127
G1X187.916Y135.219
X182.880Y132.870
G2X182.530Y132.754I-0.671J1.439
G1X180.327Y132.300
X178.343Y131.890
X177.490Y131.443
X177.827Y130.565
X179.109Y123.794
X180.347Y117.256
X180.942Y115.381
X181.253Y114.397
X182.949Y114.206
X185.668Y113.899
G2X186.150Y113.766I-0.178J-1.578
G1X189.859Y112.074
X193.569Y110.381
G2X194.022Y110.070I-0.659J-1.444
G1X196.966Y107.180
X199.909Y104.291
G2X200.243Y103.813I-1.112J-1.133
G1X201.985Y99.967
X203.727Y96.120
G2X203.869Y95.463I-1.446J-0.655
G1X203.861Y90.113
X203.854Y84.762
G2X203.788Y84.312I-1.587J0.002
G1X202.750Y80.821
X201.712Y77.329
G2X201.524Y76.920I-1.522J0.452
G1X199.036Y73.070
X197.129Y70.120
G2X195.332Y67.810I-1.384J-0.778
G1X193.514Y66.059
X190.822Y63.467
X183.273Y56.484
X175.616Y49.401
X171.228Y46.761
X166.980Y44.205
G2X166.456Y44.005I-0.818J1.360
G1X162.359Y43.232
X158.263Y42.459
G2X157.772Y42.444I-0.294J1.560
G1X154.326Y42.875
X150.880Y43.305
G2X150.378Y43.455I0.197J1.575
G1X143.914Y46.625
X137.856Y49.596
X134.215Y49.232
X130.120Y48.822
X124.136Y48.251
X118.086Y47.673
X112.859Y47.642
X108.237Y47.615
X104.644Y44.861
X100.540Y41.715
X96.974Y39.703
X93.505Y37.745
G2X92.723Y37.540I-0.780J1.383
G1X86.163Y37.548
X79.605Y37.552
G2X78.816Y37.763I0.001J1.588
G1X75.455Y39.690
X72.094Y41.618
G2X71.761Y41.872I0.790J1.377
G1X64.092Y49.538
X56.457Y57.171
X54.854Y58.592
X53.573Y59.728
X49.946Y60.241
X45.676Y60.846
X41.006Y62.577
X36.495Y64.249
G2X36.073Y64.484I0.552J1.489
G1X32.736Y67.075
X29.264Y69.771
X27.578Y71.789
X25.889Y73.809
X23.859Y77.742
X21.909Y81.519
G2X21.753Y81.990I1.411J0.728
G1X21.004Y86.564
X20.255Y91.138
G2X20.249Y91.613I1.567J0.257
G1X20.969Y96.796
X21.686Y101.951
X22.622Y111.050
X23.573Y120.290
X24.859Y125.436
X26.160Y130.643
X28.766Y135.813
X30.782Y139.809
X29.060Y141.564
X26.541Y144.130
G2X26.087Y145.242I1.133J1.112
G1Y146.112
Y146.983
G2X26.497Y148.048I1.588J0.000
G1X27.320Y148.957
X26.513
G2X25.789Y149.132I0.000J1.588
G1X20.575Y151.805
X15.360Y154.479
G2X14.982Y154.749I0.724J1.413
G1X11.066Y158.528
X7.150Y162.306
G2X6.726Y163.012I1.102J1.142
G1X5.668Y166.712
X4.610Y170.411
G2X4.549Y170.872I1.526J0.437
G1X4.614Y175.109
X4.678Y179.347
G2X4.768Y179.851I1.587J-0.024
G1X5.663Y182.386
X6.594Y185.024
X7.612Y186.993
X8.579Y188.864
G2X8.822Y189.210I1.410J-0.729
G1X14.555Y195.436
X20.127Y201.486
X22.451Y206.365
X24.877Y211.460
G2X25.703Y212.244I1.433J-0.683
G1X27.619Y213.038
G1Z-3.000F304.8
G1X29.535Y213.832F1016.0
G2X30.173Y213.952I0.608J-1.467
G1X35.076Y213.859
X40.032Y213.766
X42.468Y213.555
X44.851Y213.350
G2X45.837Y212.891I-0.136J-1.582
G1X46.167Y212.561
X46.893
X47.728
X48.954Y213.526
X49.957Y214.315
X48.420Y216.437
X46.532Y219.044
G2X46.230Y219.975I1.286J0.931
G1Y221.432
Y222.889
G2X47.068Y224.289I1.588J0.000
G1X48.431Y225.018
X49.795Y225.748
G2X50.614Y225.934I0.749J-1.400
G1X57.071Y225.647
X60.156Y225.510
X59.173Y226.811
X57.141Y230.833
X55.093Y234.884
X53.739Y240.242
X52.427Y245.429
G2X52.381Y245.905I1.539J0.389
G1X52.661Y250.987
X52.942Y256.068
G2X53.114Y256.704I1.585J-0.087
G1X54.831Y260.059
X56.548Y263.413
G2X56.836Y263.810I1.413J-0.723
G1X60.105Y267.092
X63.427Y270.428
X69.002Y275.051
X74.370Y279.503
X76.672Y282.614
X78.992Y285.752
X80.245Y288.440
X81.550Y291.238
X83.980Y297.182
X86.458Y303.245
X89.065Y308.003
X91.709Y312.828
X94.362Y315.908
X95.914Y317.710
X95.564Y318.039
X94.106Y319.409
G2X93.795Y319.814I1.087J1.157
G1X92.204Y322.772
X90.613Y325.729
G2X90.439Y326.263I1.398J0.752
G1X89.959Y329.725
X89.458Y333.342
X89.582Y335.473
X89.696Y337.449
G2X89.810Y337.955I1.585J-0.092
G1X91.274Y341.554
X92.738Y345.152
G2X93.070Y345.660I1.470J-0.598
G1X95.419Y348.081
X97.769Y350.502
G2X98.200Y350.817I1.139J-1.106
G1X101.419Y352.421
X104.638Y354.025
G2X105.346Y354.192I0.708J-1.421
G1X113.927
X122.508
G2X123.385Y353.928I0.000J-1.587
G1X126.380Y351.944
X129.374Y349.961
G2X129.834Y349.495I-0.877J-1.323
G1X131.287Y347.229
X132.741Y344.964
G2X132.919Y344.585I-1.336J-0.857
G1X133.693Y342.133
X134.467Y339.681
G2X134.536Y339.076I-1.514J-0.478
G1X134.219Y335.129
X133.902Y331.182
G2X133.698Y330.521I-1.582J0.127
G1X131.752Y327.120
X131.016Y325.833
X135.422Y325.373
X142.365Y324.647
X148.805Y323.014
X155.214Y321.390
X160.304Y319.513
X165.401Y317.634
X170.734Y314.952
X176.079Y312.265
X180.878Y309.026
X185.674Y305.790
X187.961Y303.800
X190.225Y301.830
X195.170Y296.746
X200.142Y291.634
X202.859Y287.986
X205.536Y284.392
X206.779Y282.552
X206.837Y282.665
X208.117Y285.175
G2X208.316Y285.476I1.414J-0.721
G1X209.970Y287.440
X211.623Y289.405
G2X212.172Y289.824I1.215J-1.022
G1X215.112Y291.183
X218.053Y292.542
G2X218.642Y292.687I0.666J-1.441
G1X224.714Y292.980
X230.785Y293.273
G2X231.359Y293.194I0.076J-1.586
G1X233.575Y292.463
X235.791Y291.732
G2X236.342Y291.416I-0.498J-1.508
G1X239.091Y288.996
X241.840Y286.576
G2X242.207Y286.102I-1.049J-1.192
G1X244.075Y282.416
X245.943Y278.730
G2X246.114Y278.012I-1.416J-0.718
G1Y272.662
Y267.311
G2X245.960Y266.627I-1.587J0.000
G1X244.307Y263.165
X242.654Y259.703
G2X242.419Y259.344I-1.433J0.684
G1X240.088Y256.669
X237.758Y253.994
G2X237.249Y253.606I-1.197J1.043
G1X232.734Y251.435
X228.219Y249.263
G2X227.790Y249.128I-0.688J1.431
G1X223.166Y248.364
X219.443Y247.749
X219.267Y247.288
X218.758Y245.951
X217.611Y243.190
X216.473Y240.450
X216.301Y240.139
X214.364Y237.414
X212.371Y234.611
X210.107Y232.135
X207.941Y229.765
X205.657Y226.949
X203.499Y224.288
X202.857Y222.649
X202.232Y221.052
X202.123Y210.642
X202.012Y199.941
G2X201.865Y199.291I-1.587J0.017
G1X200.168Y195.626
X198.417Y191.846
X196.374Y188.819
X195.474Y187.484
X198.845Y185.269
X202.594Y182.806
G2X203.309Y181.537I-0.872J-1.327
G1X203.624Y172.836
X203.942Y164.058
X203.568Y157.903
X203.198Y151.825
G2X203.040Y151.223I-1.585J0.096
G1X201.301Y147.671
X199.563Y144.118
G2X199.255Y143.689I-1.426J0.698
G1X196.327Y140.784
X193.399Y137.880
G2X192.952Y137.568I-1.118J1.127
G1X187.916Y135.219
X182.880Y132.870
G2X182.530Y132.754I-0.671J1.439
G1X180.327Y132.300
X178.343Y131.890
X177.490Y131.443
X177.827Y130.565
X179.109Y123.794
X180.347Y117.256
X180.942Y115.381
X181.253Y114.397
X182.949Y114.206
X185.668Y113.899
G2X186.150Y113.766I-0.178J-1.578
G1X189.859Y112.074
X193.569Y110.381
G2X194.022Y110.070I-0.659J-1.444
G1X196.966Y107.180
X199.909Y104.291
G2X200.243Y103.813I-1.112J-1.133
G1X201.985Y99.967
X203.727Y96.120
G2X203.869Y95.463I-1.446J-0.655
G1X203.861Y90.113
X203.854Y84.762
G2X203.788Y84.312I-1.587J0.002
G1X202.750Y80.821
X201.712Y77.329
G2X201.524Y76.920I-1.522J0.452
G1X199.036Y73.070
X197.129Y70.120
G2X195.332Y67.810I-1.384J-0.778
G1X193.514Y66.059
X190.822Y63.467
X183.273Y56.484
X175.616Y49.401
X171.228Y46.761
X166.980Y44.205
G2X166.456Y44.005I-0.818J1.360
G1X162.359Y43.232
X158.263Y42.459
G2X157.772Y42.444I-0.294J1.560
G1X154.326Y42.875
X150.880Y43.305
G2X150.378Y43.455I0.197J1.575
G1X143.914Y46.625
X137.856Y49.596
X134.215Y49.232
X130.120Y48.822
X124.136Y48.251
X118.086Y47.673
X112.859Y47.642
X108.237Y47.615
X104.644Y44.861
X100.540Y41.715
X96.974Y39.703
X93.505Y37.745
G2X92.723Y37.540I-0.780J1.383
G1X86.163Y37.548
X79.605Y37.552
G2X78.816Y37.763I0.001J1.588
G1X75.455Y39.690
X72.094Y41.618
G2X71.761Y41.872I0.790J1.377
G1X64.092Y49.538
X56.457Y57.171
X54.854Y58.592
X53.573Y59.728
X49.946Y60.241
X45.676Y60.846
X41.006Y62.577
X36.495Y64.249
G2X36.073Y64.484I0.552J1.489
G1X32.736Y67.075
X29.264Y69.771
X27.578Y71.789
X25.889Y73.809
X23.859Y77.742
X21.909Y81.519
G2X21.753Y81.990I1.411J0.728
G1X21.004Y86.564
X20.255Y91.138
G2X20.249Y91.613I1.567J0.257
G1X20.969Y96.796
X21.686Y101.951
X22.622Y111.050
X23.573Y120.290
X24.859Y125.436
X26.160Y130.643
X28.766Y135.813
X30.782Y139.809
X29.060Y141.564
X26.541Y144.130
G2X26.087Y145.242I1.133J1.112
G1Y146.112
Y146.983
G2X26.497Y148.048I1.588J0.000
G1X27.320Y148.957
X26.513
G2X25.789Y149.132I0.000J1.588
G1X20.575Y151.805
X15.360Y154.479
G2X14.982Y154.749I0.724J1.413
G1X11.066Y158.528
X7.150Y162.306
G2X6.726Y163.012I1.102J1.142
G1X5.668Y166.712
X4.610Y170.411
G2X4.549Y170.872I1.526J0.437
G1X4.614Y175.109
X4.678Y179.347
G2X4.768Y179.851I1.587J-0.024
G1X5.663Y182.386
X6.594Y185.024
X7.612Y186.993
X8.579Y188.864
G2X8.822Y189.210I1.410J-0.729
G1X14.555Y195.436
X20.127Y201.486
X22.451Y206.365
X24.877Y211.460
G2X25.703Y212.244I1.433J-0.683
G1X27.619Y213.038
G0Z5.080
G0Z20.320
G0X0.000Y0.000
M30
