(VECTRIC POST REV.)
(82074C4DCA892683619619E26FA56BD3)

G20 G21
G0Z20.320
G0X0.000Y0.000S18000M3
G0X36.989Y90.424
G0Z5.080
G1Z-0.660F304.8
G1X45.094Y87.130F1016.0
X53.199Y83.836
X68.574Y85.012
X83.949Y86.189
X87.439Y88.090
X90.928Y89.991
X92.187Y83.818
X93.445Y77.644
X100.974Y66.811
X108.504Y55.978
X118.753Y49.961
X129.002Y43.944
X141.874Y43.706
X154.747Y43.467
X165.118Y48.380
X175.488Y53.293
X182.281Y45.341
X189.073Y37.390
X200.328Y30.468
X211.582Y23.545
X219.636Y21.208
X227.690Y18.870
X248.157Y18.605
X268.621Y18.340
X281.408Y22.435
X294.194Y26.529
X306.335Y33.993
X318.476Y41.456
X331.007Y33.898
X343.538Y26.340
X357.417Y22.039
X371.295Y17.738
X388.525Y18.921
X405.755Y20.103
X417.099Y26.195
X428.443Y32.287
X436.805Y43.986
X445.167Y55.685
X446.434Y62.790
X447.701Y69.895
X464.272Y70.188
X480.843Y70.481
X493.076Y76.257
X505.308Y82.033
X516.466Y94.388
X527.623Y106.742
X532.639Y120.006
X537.654Y133.270
X537.677Y145.908
X537.699Y158.545
X532.395Y171.436
X527.090Y184.327
X521.131Y189.488
X515.172Y194.649
X507.872Y199.244
X500.571Y203.839
X490.781Y205.563
X480.991Y207.288
X481.606Y219.590
X482.220Y231.893
X478.815Y240.002
X475.410Y248.111
X468.659Y252.410
X461.908Y256.709
X450.460Y255.540
X439.011Y254.371
Y262.615
Y270.860
X434.184Y282.627
X429.357Y294.394
X421.983Y300.430
X414.608Y306.466
X402.760Y310.708
X390.911Y314.950
X374.735Y313.318
X358.559Y311.685
X346.845Y307.778
X335.131Y303.870
X331.794Y307.589
X328.457Y311.309
X314.466Y319.371
X300.475Y327.434
X287.682Y330.385
X274.889Y333.336
X259.871Y331.954
X244.853Y330.572
X232.443Y324.830
X220.034Y319.089
X210.545Y310.169
X201.056Y301.249
X188.628Y306.626
X176.201Y312.002
X160.110Y313.422
X144.020Y314.842
X131.148Y311.905
X118.275Y308.967
X109.278Y305.156
X104.264Y302.131
X97.854Y297.724
X91.684Y292.922
X80.879Y282.571
X74.583Y268.997
X72.485Y256.880
X70.386Y244.763
X71.089Y241.858
X71.791Y238.953
X73.010Y232.051
X74.228Y225.148
X63.681Y223.610
X53.134Y222.071
X44.463Y216.623
X35.792Y211.176
X28.240Y201.876
X20.689Y192.576
X16.146Y181.609
X11.602Y170.642
X10.497Y155.624
X9.391Y140.606
X12.989Y127.267
X16.587Y113.927
X26.788Y102.176
X36.989Y90.424
G1Z-1.320F304.8
G1X45.094Y87.130F1016.0
X53.199Y83.836
X68.574Y85.012
X83.949Y86.189
X87.439Y88.090
X90.928Y89.991
X92.187Y83.818
X93.445Y77.644
X100.974Y66.811
X108.504Y55.978
X118.753Y49.961
X129.002Y43.944
X141.874Y43.706
X154.747Y43.467
X165.118Y48.380
X175.488Y53.293
X182.281Y45.341
X189.073Y37.390
X200.328Y30.468
X211.582Y23.545
X219.636Y21.208
X227.690Y18.870
X248.157Y18.605
X268.621Y18.340
X281.408Y22.435
X294.194Y26.529
X306.335Y33.993
X318.476Y41.456
X331.007Y33.898
X343.538Y26.340
X357.417Y22.039
X371.295Y17.738
X388.525Y18.921
X405.755Y20.103
X417.099Y26.195
X428.443Y32.287
X436.805Y43.986
X445.167Y55.685
X446.434Y62.790
X447.701Y69.895
X464.272Y70.188
X480.843Y70.481
X493.076Y76.257
X505.308Y82.033
X516.466Y94.388
X527.623Y106.742
X532.639Y120.006
X537.654Y133.270
X537.677Y145.908
X537.699Y158.545
X532.395Y171.436
X527.090Y184.327
X521.131Y189.488
X515.172Y194.649
X507.872Y199.244
X500.571Y203.839
X490.781Y205.563
X480.991Y207.288
X481.606Y219.590
X482.220Y231.893
X478.815Y240.002
X475.410Y248.111
X468.659Y252.410
X461.908Y256.709
X450.460Y255.540
X439.011Y254.371
Y262.615
Y270.860
X434.184Y282.627
X429.357Y294.394
X421.983Y300.430
X414.608Y306.466
X402.760Y310.708
X390.911Y314.950
X374.735Y313.318
X358.559Y311.685
X346.845Y307.778
X335.131Y303.870
X331.794Y307.589
X328.457Y311.309
X314.466Y319.371
X300.475Y327.434
X287.682Y330.385
X274.889Y333.336
X259.871Y331.954
X244.853Y330.572
X232.443Y324.830
X220.034Y319.089
X210.545Y310.169
X201.056Y301.249
X188.628Y306.626
X176.201Y312.002
X160.110Y313.422
X144.020Y314.842
X131.148Y311.905
X118.275Y308.967
X109.278Y305.156
X104.264Y302.131
X97.854Y297.724
X91.684Y292.922
X80.879Y282.571
X74.583Y268.997
X72.485Y256.880
X70.386Y244.763
X71.089Y241.858
X71.791Y238.953
X73.010Y232.051
X74.228Y225.148
X63.681Y223.610
X53.134Y222.071
X44.463Y216.623
X35.792Y211.176
X28.240Y201.876
X20.689Y192.576
X16.146Y181.609
X11.602Y170.642
X10.497Y155.624
X9.391Y140.606
X12.989Y127.267
X16.587Y113.927
X26.788Y102.176
X36.989Y90.424
G1Z-1.980F304.8
G1X45.094Y87.130F1016.0
X53.199Y83.836
X68.574Y85.012
X83.949Y86.189
X87.439Y88.090
X90.928Y89.991
X92.187Y83.818
X93.445Y77.644
X100.974Y66.811
X108.504Y55.978
X118.753Y49.961
X129.002Y43.944
X141.874Y43.706
X154.747Y43.467
X165.118Y48.380
X175.488Y53.293
X182.281Y45.341
X189.073Y37.390
X200.328Y30.468
X211.582Y23.545
X219.636Y21.208
X227.690Y18.870
X248.157Y18.605
X268.621Y18.340
X281.408Y22.435
X294.194Y26.529
X306.335Y33.993
X318.476Y41.456
X331.007Y33.898
X343.538Y26.340
X357.417Y22.039
X371.295Y17.738
X388.525Y18.921
X405.755Y20.103
X417.099Y26.195
X428.443Y32.287
X436.805Y43.986
X445.167Y55.685
X446.434Y62.790
X447.701Y69.895
X464.272Y70.188
X480.843Y70.481
X493.076Y76.257
X505.308Y82.033
X516.466Y94.388
X527.623Y106.742
X532.639Y120.006
X537.654Y133.270
X537.677Y145.908
X537.699Y158.545
X532.395Y171.436
X527.090Y184.327
X521.131Y189.488
X515.172Y194.649
X507.872Y199.244
X500.571Y203.839
X490.781Y205.563
X480.991Y207.288
X481.606Y219.590
X482.220Y231.893
X478.815Y240.002
X475.410Y248.111
X468.659Y252.410
X461.908Y256.709
X450.460Y255.540
X439.011Y254.371
Y262.615
Y270.860
X434.184Y282.627
X429.357Y294.394
X421.983Y300.430
X414.608Y306.466
X402.760Y310.708
X390.911Y314.950
X374.735Y313.318
X358.559Y311.685
X346.845Y307.778
X335.131Y303.870
X331.794Y307.589
X328.457Y311.309
X314.466Y319.371
X300.475Y327.434
X287.682Y330.385
X274.889Y333.336
X259.871Y331.954
X244.853Y330.572
X232.443Y324.830
X220.034Y319.089
X210.545Y310.169
X201.056Y301.249
X188.628Y306.626
X176.201Y312.002
X160.110Y313.422
X144.020Y314.842
X131.148Y311.905
X118.275Y308.967
X109.278Y305.156
X104.264Y302.131
X97.854Y297.724
X91.684Y292.922
X80.879Y282.571
X74.583Y268.997
X72.485Y256.880
X70.386Y244.763
X71.089Y241.858
X71.791Y238.953
X73.010Y232.051
X74.228Y225.148
X63.681Y223.610
X53.134Y222.071
X44.463Y216.623
X35.792Y211.176
X28.240Y201.876
X20.689Y192.576
X16.146Y181.609
X11.602Y170.642
X10.497Y155.624
X9.391Y140.606
X12.989Y127.267
X16.587Y113.927
X26.788Y102.176
X36.989Y90.424
G1Z-2.640F304.8
G1X45.094Y87.130F1016.0
X53.199Y83.836
X68.574Y85.012
X83.949Y86.189
X87.439Y88.090
X90.928Y89.991
X92.187Y83.818
X93.445Y77.644
X100.974Y66.811
X108.504Y55.978
X118.753Y49.961
X129.002Y43.944
X141.874Y43.706
X154.747Y43.467
X165.118Y48.380
X175.488Y53.293
X182.281Y45.341
X189.073Y37.390
X200.328Y30.468
X211.582Y23.545
X219.636Y21.208
X227.690Y18.870
X248.157Y18.605
X268.621Y18.340
X281.408Y22.435
X294.194Y26.529
X306.335Y33.993
X318.476Y41.456
X331.007Y33.898
X343.538Y26.340
X357.417Y22.039
X371.295Y17.738
X388.525Y18.921
X405.755Y20.103
X417.099Y26.195
X428.443Y32.287
X436.805Y43.986
X445.167Y55.685
X446.434Y62.790
X447.701Y69.895
X464.272Y70.188
X480.843Y70.481
X493.076Y76.257
X505.308Y82.033
X516.466Y94.388
X527.623Y106.742
X532.639Y120.006
X537.654Y133.270
X537.677Y145.908
X537.699Y158.545
X532.395Y171.436
X527.090Y184.327
X521.131Y189.488
X515.172Y194.649
X507.872Y199.244
X500.571Y203.839
X490.781Y205.563
X480.991Y207.288
X481.606Y219.590
X482.220Y231.893
X478.815Y240.002
X475.410Y248.111
X468.659Y252.410
X461.908Y256.709
X450.460Y255.540
X439.011Y254.371
Y262.615
Y270.860
X434.184Y282.627
X429.357Y294.394
X421.983Y300.430
X414.608Y306.466
X402.760Y310.708
X390.911Y314.950
X374.735Y313.318
X358.559Y311.685
X346.845Y307.778
X335.131Y303.870
X331.794Y307.589
X328.457Y311.309
X314.466Y319.371
X300.475Y327.434
X287.682Y330.385
X274.889Y333.336
X259.871Y331.954
X244.853Y330.572
X232.443Y324.830
X220.034Y319.089
X210.545Y310.169
X201.056Y301.249
X188.628Y306.626
X176.201Y312.002
X160.110Y313.422
X144.020Y314.842
X131.148Y311.905
X118.275Y308.967
X109.278Y305.156
X104.264Y302.131
X97.854Y297.724
X91.684Y292.922
X80.879Y282.571
X74.583Y268.997
X72.485Y256.880
X70.386Y244.763
X71.089Y241.858
X71.791Y238.953
X73.010Y232.051
X74.228Y225.148
X63.681Y223.610
X53.134Y222.071
X44.463Y216.623
X35.792Y211.176
X28.240Y201.876
X20.689Y192.576
X16.146Y181.609
X11.602Y170.642
X10.497Y155.624
X9.391Y140.606
X12.989Y127.267
X16.587Y113.927
X26.788Y102.176
X36.989Y90.424
G1Z-3.300F304.8
G1X45.094Y87.130F1016.0
X53.199Y83.836
X68.574Y85.012
X83.949Y86.189
X87.439Y88.090
X90.928Y89.991
X92.187Y83.818
X93.445Y77.644
X100.974Y66.811
X108.504Y55.978
X118.753Y49.961
X129.002Y43.944
X141.874Y43.706
X154.747Y43.467
X165.118Y48.380
X175.488Y53.293
X182.281Y45.341
X189.073Y37.390
X200.328Y30.468
X211.582Y23.545
X219.636Y21.208
X227.690Y18.870
X248.157Y18.605
X268.621Y18.340
X281.408Y22.435
X294.194Y26.529
X306.335Y33.993
X318.476Y41.456
X331.007Y33.898
X343.538Y26.340
X357.417Y22.039
X371.295Y17.738
X388.525Y18.921
X405.755Y20.103
X417.099Y26.195
X428.443Y32.287
X436.805Y43.986
X445.167Y55.685
X446.434Y62.790
X447.701Y69.895
X464.272Y70.188
X480.843Y70.481
X493.076Y76.257
X505.308Y82.033
X516.466Y94.388
X527.623Y106.742
X532.639Y120.006
X537.654Y133.270
X537.677Y145.908
X537.699Y158.545
X532.395Y171.436
X527.090Y184.327
X521.131Y189.488
X515.172Y194.649
X507.872Y199.244
X500.571Y203.839
X490.781Y205.563
X480.991Y207.288
X481.606Y219.590
X482.220Y231.893
X478.815Y240.002
X475.410Y248.111
X468.659Y252.410
X461.908Y256.709
X450.460Y255.540
X439.011Y254.371
Y262.615
Y270.860
X434.184Y282.627
X429.357Y294.394
X421.983Y300.430
X414.608Y306.466
X402.760Y310.708
X390.911Y314.950
X374.735Y313.318
X358.559Y311.685
X346.845Y307.778
X335.131Y303.870
X331.794Y307.589
X328.457Y311.309
X314.466Y319.371
X300.475Y327.434
X287.682Y330.385
X274.889Y333.336
X259.871Y331.954
X244.853Y330.572
X232.443Y324.830
X220.034Y319.089
X210.545Y310.169
X201.056Y301.249
X188.628Y306.626
X176.201Y312.002
X160.110Y313.422
X144.020Y314.842
X131.148Y311.905
X118.275Y308.967
X109.278Y305.156
X104.264Y302.131
X97.854Y297.724
X91.684Y292.922
X80.879Y282.571
X74.583Y268.997
X72.485Y256.880
X70.386Y244.763
X71.089Y241.858
X71.791Y238.953
X73.010Y232.051
X74.228Y225.148
X63.681Y223.610
X53.134Y222.071
X44.463Y216.623
X35.792Y211.176
X28.240Y201.876
X20.689Y192.576
X16.146Y181.609
X11.602Y170.642
X10.497Y155.624
X9.391Y140.606
X12.989Y127.267
X16.587Y113.927
X26.788Y102.176
X36.989Y90.424
G0Z5.080
G0Z20.320
G0X0.000Y0.000
M30
